; generated by PrusaSlicer 2.5.0 on 2022-09-16 at 12:02:46 UTC


;
;

;
;
; 

; external perimeters extrusion width = 0.45mm
; perimeters extrusion width = 0.45mm
; infill extrusion width = 0.45mm
; solid infill extrusion width = 0.45mm
; top infill extrusion width = 0.40mm
; first layer extrusion width = 0.42mm

; external perimeters extrusion width = 0.45mm
; perimeters extrusion width = 0.45mm
; infill extrusion width = 0.45mm
; solid infill extrusion width = 0.45mm
; top infill extrusion width = 0.40mm
; first layer extrusion width = 0.42mm

M73 P0 R24
M107
;TYPE:Custom
G90 ; use absolute coordinates
M83 ; extruder relative mode
M204 S1250 T1250
M104 S215 ; set extruder temp
M140 S80 ; set bed temp
G28 ; home all
G1 Y1.0 Z0.3 F1000 ; move print head up
M190 S80 ; wait for bed temp
M109 S215 ; wait for extruder temp
G92 E0.0
; initial load
G1 X205.0 E19 F1000
G1 Y1.6
M73 P0 R23
G1 X5.0 E19 F1000
G92 E0.0
; intro line
G1 Y2.0 Z0.2 F1000
M73 P1 R23
G1 X65.0 E9.0 F1000
G1 X105.0 E12.5 F1000
G92 E0.0
G21 ; set units to millimeters
G90 ; use absolute coordinates
M83 ; use relative distances for extrusion
; Filament gcode
M107
;LAYER_CHANGE
;Z:0.2
;HEIGHT:0.2
;BEFORE_LAYER_CHANGE
G92 E0.0
;0.2
G1 E-4 F1200
M73 P2 R23
G1 Z.275 F10800
;AFTER_LAYER_CHANGE
;0.2
; printing object Заглушка подшипника (Meshed).stl id:0 copy 0
G1 X141.775 Y119.513
G1 Z.2
G1 E4 F1800
M204 S800
;TYPE:Perimeter
;WIDTH:0.419999
G1 F480
G1 X142.065 Y120.026 E.01848
G1 X142.318 Y120.597 E.01957
G1 X142.516 Y121.176 E.0192
G1 X142.712 Y122.006 E.02674
G1 X142.798 Y122.658 E.02059
G1 X142.823 Y123.417 E.02383
G1 X142.787 Y124.036 E.01945
G1 X142.697 Y124.653 E.01954
G1 X142.519 Y125.388 E.0237
G1 X142.268 Y126.098 E.02363
G1 X141.947 Y126.777 E.02353
G1 X141.558 Y127.422 E.02363
G1 X141.106 Y128.021 E.02353
G1 X140.594 Y128.574 E.02362
G1 X140.028 Y129.072 E.02366
G1 X139.502 Y129.452 E.02034
G1 X138.757 Y129.883 E.02701
G1 X138.213 Y130.13 E.01873
G1 X137.549 Y130.362 E.02204
G1 X136.803 Y130.543 E.02406
G1 X136.065 Y130.643 E.02335
G1 X135.382 Y130.669 E.02144
G1 X134.625 Y130.624 E.02379
G1 X133.944 Y130.516 E.0216
G1 X133.149 Y130.305 E.0258
G1 X132.63 Y130.114 E.01735
G1 X132.009 Y129.823 E.02147
G1 X131.359 Y129.438 E.02372
G1 X130.755 Y128.991 E.02353
G1 X130.192 Y128.479 E.02388
G1 X129.812 Y128.064 E.01764
G1 X129.398 Y127.527 E.02125
G1 X128.995 Y126.885 E.02375
G1 X128.67 Y126.227 E.02304
G1 X128.449 Y125.645 E.01949
G1 X128.212 Y124.779 E.02817
G1 X128.116 Y124.178 E.01908
G1 X128.059 Y123.267 E.0286
G1 X128.074 Y122.811 E.0143
G1 X128.217 Y121.772 E.0329
G1 X128.374 Y121.166 E.01962
G1 X128.674 Y120.338 E.02761
G1 X128.995 Y119.688 E.02275
G1 X129.398 Y119.046 E.02375
G1 X129.812 Y118.51 E.02125
G1 X130.192 Y118.095 E.01764
G1 X130.755 Y117.582 E.02388
G1 X131.359 Y117.136 E.02353
G1 X132.007 Y116.752 E.02363
G1 X132.688 Y116.437 E.02353
G1 X133.4 Y116.192 E.02363
G1 X134.131 Y116.021 E.02353
G1 X134.881 Y115.925 E.02372
G1 X135.565 Y115.905 E.02146
G1 X136.275 Y115.951 E.02231
G1 X136.944 Y116.058 E.02122
G1 X137.599 Y116.226 E.02122
G1 X138.311 Y116.484 E.02373
G1 X138.986 Y116.811 E.02353
G1 X139.628 Y117.206 E.02363
G1 X140.224 Y117.662 E.02353
G1 X140.772 Y118.179 E.02362
G1 X141.265 Y118.749 E.02364
G1 X141.649 Y119.291 E.02083
G1 X141.746 Y119.461 E.00613
M204 S1000
G1 X141.195 Y118.091 F10800
M204 S800
G1 F480
G1 X141.562 Y118.516 E.01761
G1 X141.968 Y119.088 E.022
G1 X142.403 Y119.857 E.02768
G1 X142.669 Y120.46 E.02066
G1 X142.879 Y121.072 E.02029
G1 X143.084 Y121.938 E.02792
G1 X143.174 Y122.627 E.02176
G1 X143.201 Y123.422 E.02495
G1 X143.162 Y124.075 E.02051
G1 X143.068 Y124.725 E.0206
G1 X142.881 Y125.495 E.02486
G1 X142.617 Y126.242 E.02483
G1 X142.28 Y126.955 E.02473
G1 X141.871 Y127.633 E.02483
G1 X141.396 Y128.263 E.02473
G1 X140.858 Y128.844 E.02483
G1 X140.264 Y129.367 E.02483
G1 X139.708 Y129.769 E.0215
G1 X138.929 Y130.219 E.02819
G1 X138.353 Y130.48 E.01984
G1 X137.656 Y130.724 E.02316
G1 X136.873 Y130.914 E.02525
G1 X136.098 Y131.019 E.02452
G1 X135.378 Y131.047 E.02259
G1 X134.584 Y131 E.02495
G1 X133.866 Y130.885 E.02279
G1 X133.035 Y130.665 E.02695
G1 X132.484 Y130.462 E.01841
G1 X131.833 Y130.157 E.02255
G1 X131.15 Y129.752 E.0249
G1 X130.516 Y129.283 E.02473
G1 X129.926 Y128.746 E.02501
G1 X129.523 Y128.307 E.01868
G1 X129.088 Y127.743 E.02233
G1 X128.666 Y127.07 E.02492
G1 X128.323 Y126.378 E.02421
G1 X128.09 Y125.762 E.02063
G1 X127.842 Y124.859 E.02938
G1 X127.741 Y124.219 E.0203
G1 X127.681 Y123.273 E.02974
G1 X127.698 Y122.779 E.01548
G1 X127.846 Y121.699 E.0342
G1 X128.013 Y121.054 E.02087
G1 X128.326 Y120.19 E.02883
G1 X128.666 Y119.504 E.024
G1 X129.088 Y118.83 E.02492
G1 X129.523 Y118.267 E.02233
G1 X129.926 Y117.828 E.01868
G1 X130.516 Y117.29 E.02501
G1 X131.15 Y116.821 E.02473
G1 X131.831 Y116.418 E.02483
G1 X132.547 Y116.087 E.02473
G1 X133.296 Y115.829 E.02483
G1 X134.064 Y115.65 E.02473
G1 X134.852 Y115.549 E.0249
G1 X135.572 Y115.527 E.0226
G1 X136.317 Y115.576 E.02342
G1 X137.021 Y115.689 E.02232
G1 X137.711 Y115.866 E.02234
G1 X138.457 Y116.136 E.0249
G1 X139.168 Y116.48 E.02473
G1 X139.842 Y116.895 E.02483
M73 P3 R23
G1 X140.468 Y117.374 E.02473
G1 X141.045 Y117.918 E.02483
G1 X141.156 Y118.046 E.00532
M204 S1000
G1 E-2.4 F1200
;WIPE_START
G1 F8640
G1 X141.562 Y118.516 E-.08204
G1 X141.968 Y119.088 E-.09258
G1 X142.403 Y119.857 E-.11647
G1 X142.669 Y120.46 E-.08695
G1 X142.879 Y121.072 E-.08538
G1 X143.084 Y121.938 E-.11751
G1 X143.174 Y122.627 E-.09158
G1 X143.201 Y123.422 E-.10499
G1 X143.162 Y124.075 E-.08629
G1 X143.068 Y124.725 E-.08667
G1 X142.881 Y125.495 E-.10461
G1 X142.617 Y126.242 E-.1045
G1 X142.28 Y126.955 E-.10407
G1 X141.871 Y127.633 E-.10449
G1 X141.396 Y128.263 E-.10408
G1 X141.15 Y128.529 E-.04778
;WIPE_END
G1 E-.08 F1200
G1 Z.475 F10800
G1 X141.187 Y129.044
G1 Z.2
G1 E4 F1800
M204 S800
G1 F480
G1 X140.499 Y129.662 E.02901
G1 X139.913 Y130.086 E.02267
G1 X139.102 Y130.555 E.02938
G1 X138.493 Y130.831 E.02095
G1 X137.763 Y131.087 E.02427
G1 X136.943 Y131.285 E.02644
G1 X136.131 Y131.395 E.0257
G1 X135.374 Y131.424 E.02374
G1 X134.543 Y131.375 E.02611
G1 X133.788 Y131.255 E.02397
G1 X132.922 Y131.025 E.02811
G1 X132.339 Y130.81 E.01946
G1 X131.657 Y130.491 E.02363
G1 X130.941 Y130.067 E.02608
G1 X130.276 Y129.575 E.02594
G1 X129.659 Y129.013 E.02615
G1 X129.235 Y128.55 E.01971
G1 X128.779 Y127.959 E.0234
G1 X128.336 Y127.254 E.02609
G1 X127.977 Y126.528 E.02538
G1 X127.732 Y125.879 E.02176
G1 X127.473 Y124.938 E.03059
G1 X127.366 Y124.261 E.02151
G1 X127.304 Y123.278 E.03087
G1 X127.322 Y122.747 E.01666
G1 X127.475 Y121.626 E.0355
G1 X127.652 Y120.942 E.02213
G1 X127.979 Y120.042 E.03004
G1 X128.336 Y119.319 E.02526
G1 X128.779 Y118.615 E.02609
G1 X129.235 Y118.024 E.0234
G1 X129.659 Y117.56 E.01971
G1 X130.276 Y116.999 E.02615
G1 X130.941 Y116.507 E.02594
G1 X131.655 Y116.083 E.02604
G1 X132.406 Y115.736 E.02594
G1 X133.192 Y115.466 E.02604
G1 X133.997 Y115.278 E.02594
G1 X134.822 Y115.172 E.02608
G1 X135.579 Y115.15 E.02373
G1 X136.36 Y115.201 E.02454
G1 X137.097 Y115.319 E.02342
G1 X137.822 Y115.505 E.02346
G1 X138.604 Y115.789 E.02608
G1 X139.349 Y116.148 E.02594
G1 X140.056 Y116.584 E.02604
G1 X140.713 Y117.087 E.02594
G1 X141.317 Y117.656 E.02604
G1 X141.859 Y118.283 E.02599
G1 X142.287 Y118.886 E.02317
G1 X142.74 Y119.687 E.02887
G1 X143.02 Y120.322 E.02175
G1 X143.242 Y120.967 E.02138
G1 X143.455 Y121.87 E.02911
G1 X143.55 Y122.596 E.02293
G1 X143.578 Y123.427 E.02607
G1 X143.538 Y124.113 E.02156
G1 X143.438 Y124.796 E.02165
G1 X143.243 Y125.603 E.02601
G1 X142.966 Y126.386 E.02604
G1 X142.613 Y127.134 E.02594
G1 X142.183 Y127.844 E.02604
G1 X141.686 Y128.505 E.02594
G1 X141.228 Y129 E.02113
M204 S1000
G1 E-2.4 F1200
;WIPE_START
G1 F8640
G1 X140.499 Y129.662 E-.12995
G1 X139.913 Y130.086 E-.09541
G1 X139.102 Y130.555 E-.12363
G1 X138.493 Y130.831 E-.08816
G1 X137.763 Y131.087 E-.10214
G1 X136.943 Y131.285 E-.11126
G1 X136.131 Y131.395 E-.10816
G1 X135.374 Y131.424 E-.09992
G1 X134.543 Y131.375 E-.10987
G1 X133.788 Y131.255 E-.10088
G1 X132.922 Y131.025 E-.11827
G1 X132.339 Y130.81 E-.08189
G1 X131.657 Y130.491 E-.09943
G1 X130.941 Y130.067 E-.10975
G1 X130.689 Y129.881 E-.04128
;WIPE_END
G1 E-.08 F1200
G1 Z.475 F10800
G1 X140.676 Y116.584
G1 Z.2
G1 E4 F1800
M204 S800
;TYPE:External perimeter
G1 F480
G1 X140.957 Y116.799 E.0111
G1 X141.59 Y117.395 E.02724
G1 X142.157 Y118.05 E.02716
G1 X142.606 Y118.684 E.02435
G1 X143.078 Y119.518 E.03006
G1 X143.372 Y120.184 E.02284
G1 X143.605 Y120.862 E.02246
G1 X143.827 Y121.802 E.0303
G1 X143.926 Y122.565 E.02411
G1 X143.956 Y123.431 E.02719
G1 X143.913 Y124.151 E.02261
G1 X143.809 Y124.868 E.02271
G1 X143.605 Y125.71 E.02717
G1 X143.315 Y126.53 E.02724
G1 X142.945 Y127.312 E.02714
G1 X142.496 Y128.056 E.02724
G1 X141.976 Y128.748 E.02714
G1 X141.385 Y129.385 E.02724
G1 X140.735 Y129.957 E.02716
G1 X140.119 Y130.403 E.02384
G1 X139.275 Y130.891 E.03056
G1 X138.634 Y131.181 E.02206
G1 X137.87 Y131.449 E.02539
G1 X137.013 Y131.656 E.02763
G1 X136.164 Y131.771 E.02688
G1 X135.37 Y131.802 E.0249
G1 X134.502 Y131.75 E.02727
G1 X133.71 Y131.624 E.02516
G1 X132.808 Y131.385 E.02926
G1 X132.194 Y131.159 E.02051
G1 X131.48 Y130.825 E.02471
G1 X130.732 Y130.381 E.02726
G1 X130.036 Y129.867 E.02714
G1 X129.393 Y129.281 E.02728
G1 X128.946 Y128.793 E.02075
G1 X128.469 Y128.175 E.02447
G1 X128.007 Y127.438 E.02726
G1 X127.631 Y126.679 E.02656
G1 X127.373 Y125.996 E.0229
G1 X127.104 Y125.018 E.0318
G1 X126.991 Y124.302 E.02272
G1 X126.926 Y123.284 E.032
G1 X126.945 Y122.715 E.01784
G1 X127.105 Y121.552 E.0368
G1 X127.292 Y120.831 E.02338
G1 X127.632 Y119.893 E.03126
G1 X128.007 Y119.135 E.02652
G1 X128.469 Y118.399 E.02726
G1 X128.946 Y117.781 E.02448
G1 X129.393 Y117.293 E.02075
G1 X130.036 Y116.707 E.02728
G1 X130.732 Y116.192 E.02714
G1 X131.48 Y115.749 E.02724
G1 X132.265 Y115.386 E.02714
G1 X133.087 Y115.103 E.02724
G1 X133.93 Y114.907 E.02714
G1 X134.792 Y114.796 E.02726
G1 X135.585 Y114.773 E.02487
G1 X136.402 Y114.826 E.02566
G1 X137.174 Y114.949 E.02453
G1 X137.934 Y115.144 E.02458
M73 P4 R23
G1 X138.751 Y115.441 E.02726
G1 X139.53 Y115.817 E.02714
G1 X140.27 Y116.273 E.02724
G1 X140.629 Y116.547 E.01416
M204 S1000
G1 X140.638 Y116.936 F10800
G1 E-2.4 F1200
;WIPE_START
G1 F8640
G1 X140.957 Y116.799 E-.05462
G1 X141.59 Y117.395 E-.11464
G1 X142.157 Y118.05 E-.1143
G1 X142.606 Y118.684 E-.10246
G1 X143.078 Y119.518 E-.12648
G1 X143.372 Y120.184 E-.09611
G1 X143.605 Y120.862 E-.09454
G1 X143.827 Y121.802 E-.1275
G1 X143.926 Y122.565 E-.10144
G1 X143.956 Y123.431 E-.11442
G1 X143.913 Y124.151 E-.09517
G1 X143.809 Y124.868 E-.09556
G1 X143.605 Y125.71 E-.11433
G1 X143.315 Y126.53 E-.11465
G1 X143.141 Y126.898 E-.05378
;WIPE_END
G1 E-.08 F1200
G1 Z.475 F10800
G1 X139.407 Y118.361
G1 Z.2
G1 E4 F1800
M204 S800
;TYPE:Perimeter
G1 F480
G1 X139.988 Y118.872 E.02429
G1 X140.43 Y119.403 E.02165
G1 X140.77 Y119.849 E.01757
G1 X141.125 Y120.511 E.02356
G1 X141.331 Y120.948 E.01514
G1 X141.598 Y121.783 E.02747
G1 X141.75 Y122.77 E.03134
G1 X141.765 Y123.387 E.01934
G1 X141.737 Y124.01 E.01955
G1 X141.512 Y125.107 E.03512
G1 X141.084 Y126.17 E.03592
G1 X140.675 Y126.836 E.02453
G1 X140.361 Y127.282 E.01709
G1 X139.754 Y127.93 E.02783
G1 X138.903 Y128.592 E.03381
G1 X138.276 Y128.937 E.02244
G1 X137.811 Y129.168 E.01628
G1 X136.745 Y129.492 E.03493
G1 X135.961 Y129.59 E.02477
G1 X135.423 Y129.621 E.01692
G1 X134.58 Y129.565 E.02649
G1 X133.488 Y129.315 E.03512
G1 X132.468 Y128.882 E.03473
G1 X131.519 Y128.264 E.03551
G1 X130.937 Y127.724 E.02489
G1 X130.582 Y127.358 E.01599
G1 X129.923 Y126.403 E.0364
G1 X129.548 Y125.614 E.0274
G1 X129.228 Y124.53 E.03543
G1 X129.106 Y123.403 E.03552
G1 X129.184 Y122.286 E.03512
G1 X129.388 Y121.463 E.02659
G1 X129.548 Y120.96 E.01655
G1 X129.923 Y120.171 E.0274
G1 X130.582 Y119.215 E.0364
G1 X131.339 Y118.457 E.03358
G1 X131.95 Y118.016 E.02364
G1 X132.457 Y117.697 E.01878
G1 X133.267 Y117.334 E.02783
G1 X134.349 Y117.044 E.03512
G1 X135.465 Y116.95 E.03512
G1 X136.084 Y116.979 E.01941
G1 X137.282 Y117.219 E.03831
G1 X137.91 Y117.465 E.02117
G1 X138.385 Y117.675 E.01626
G1 X139.14 Y118.141 E.02783
G1 X139.361 Y118.322 E.00896
M204 S1000
G1 E-2.4 F1200
;WIPE_START
G1 F8640
G1 X139.988 Y118.872 E-.11013
G1 X140.43 Y119.403 E-.09109
G1 X140.77 Y119.849 E-.07394
G1 X141.125 Y120.511 E-.09915
G1 X141.331 Y120.948 E-.06373
G1 X141.598 Y121.783 E-.11562
G1 X141.75 Y122.77 E-.13189
G1 X141.765 Y123.387 E-.08138
G1 X141.737 Y124.01 E-.08225
G1 X141.512 Y125.107 E-.1478
G1 X141.084 Y126.17 E-.15115
G1 X140.675 Y126.836 E-.10322
G1 X140.361 Y127.282 E-.07193
G1 X139.754 Y127.93 E-.11711
G1 X139.278 Y128.3 E-.07962
;WIPE_END
G1 E-.08 F1200
G1 Z.475 F10800
G1 X139.704 Y127.432
G1 Z.2
G1 E4 F1800
M204 S800
G1 F480
G1 X139.479 Y127.672 E.01034
G1 X138.677 Y128.29 E.03172
G1 X138.107 Y128.6 E.02035
G1 X137.597 Y128.847 E.01776
G1 X136.702 Y129.113 E.02928
G1 X135.92 Y129.215 E.02475
G1 X135.448 Y129.245 E.01483
G1 X134.605 Y129.189 E.02649
G1 X133.578 Y128.949 E.03304
G1 X132.622 Y128.538 E.03265
G1 X131.731 Y127.952 E.03342
G1 X131.201 Y127.454 E.0228
G1 X130.859 Y127.099 E.01545
G1 X130.344 Y126.377 E.02783
G1 X129.972 Y125.627 E.02624
G1 X129.816 Y125.244 E.01297
G1 X129.59 Y124.421 E.02676
G1 X129.481 Y123.37 E.03313
G1 X129.56 Y122.319 E.03304
G1 X129.752 Y121.563 E.02447
G1 X129.888 Y121.122 E.01448
G1 X130.262 Y120.334 E.02733
G1 X130.881 Y119.445 E.03395
G1 X131.602 Y118.727 E.03193
G1 X132.162 Y118.328 E.02155
G1 X132.611 Y118.041 E.0167
G1 X133.421 Y117.679 E.02783
G1 X134.44 Y117.41 E.03304
G1 X135.49 Y117.326 E.03304
G1 X136.058 Y117.355 E.01784
G1 X136.656 Y117.467 E.01907
G1 X137.163 Y117.577 E.01625
G1 X137.772 Y117.816 E.02051
G1 X138.26 Y118.04 E.01683
G1 X138.942 Y118.462 E.02515
G1 X139.737 Y119.153 E.03304
G1 X140.451 Y120.05 E.03596
G1 X140.971 Y121.063 E.03569
G1 X141.239 Y121.898 E.02747
G1 X141.377 Y122.82 E.02926
G1 X141.388 Y123.37 E.01725
G1 X141.361 Y123.993 E.01955
G1 X141.144 Y125.024 E.03304
G1 X140.941 Y125.541 E.01742
G1 X140.737 Y126.022 E.01638
G1 X140.359 Y126.631 E.02247
G1 X140.045 Y127.068 E.01687
G1 X139.745 Y127.388 E.01374
M204 S1000
G1 E-2.4 F1200
;WIPE_START
G1 F8640
G1 X139.479 Y127.672 E-.05145
G1 X138.677 Y128.29 E-.13349
G1 X138.107 Y128.6 E-.08564
G1 X137.597 Y128.847 E-.07475
G1 X136.702 Y129.113 E-.12321
G1 X135.92 Y129.215 E-.10415
G1 X135.448 Y129.245 E-.0624
G1 X134.605 Y129.189 E-.11147
G1 X133.578 Y128.949 E-.13903
G1 X132.622 Y128.538 E-.13739
G1 X131.731 Y127.952 E-.14064
G1 X131.201 Y127.454 E-.09596
G1 X130.859 Y127.099 E-.06501
G1 X130.344 Y126.377 E-.11711
G1 X130.08 Y125.845 E-.0783
;WIPE_END
G1 E-.08 F1200
G1 Z.475 F10800
G1 X130.032 Y121.983
G1 Z.2
G1 E4 F1800
M204 S800
G1 F480
G1 X130.229 Y121.284 E.0228
G1 X130.602 Y120.498 E.02726
G1 X131.166 Y119.693 E.03083
G1 X131.866 Y118.996 E.03095
G1 X132.772 Y118.382 E.03433
G1 X133.575 Y118.023 E.02758
G1 X134.531 Y117.776 E.03096
G1 X135.515 Y117.702 E.03095
G1 X136.033 Y117.732 E.01628
G1 X137.074 Y117.945 E.0333
G1 X137.899 Y118.271 E.02783
G1 X138.657 Y118.729 E.02775
G1 X139.485 Y119.434 E.03412
G1 X140.147 Y120.276 E.03358
G1 X140.458 Y120.864 E.02084
G1 X140.612 Y121.178 E.01097
G1 X140.879 Y122.012 E.02747
G1 X141.003 Y122.87 E.02717
M73 P4 R22
G1 X141.012 Y123.354 E.01516
G1 X140.984 Y123.976 E.01955
M73 P5 R22
G1 X140.776 Y124.941 E.03095
G1 X140.39 Y125.875 E.03168
G1 X140.042 Y126.425 E.02041
G1 X139.769 Y126.81 E.01479
G1 X139.204 Y127.415 E.02596
G1 X138.452 Y127.988 E.02964
G1 X137.938 Y128.263 E.01826
G1 X137.473 Y128.491 E.01625
G1 X136.595 Y128.751 E.0287
G1 X135.878 Y128.84 E.02267
G1 X135.473 Y128.869 E.01274
G1 X134.63 Y128.813 E.02649
G1 X133.669 Y128.583 E.03095
G1 X132.776 Y128.193 E.03057
G1 X131.943 Y127.64 E.03134
G1 X131.166 Y126.881 E.03407
G1 X130.651 Y126.158 E.02783
G1 X130.312 Y125.466 E.02417
G1 X130.18 Y125.144 E.01091
G1 X129.953 Y124.321 E.02676
G1 X129.857 Y123.337 E.03101
G1 X129.935 Y122.353 E.03095
G1 X130.017 Y122.041 E.01009
M204 S1000
G1 E-2.4 F1200
