; generated by PrusaSlicer 2.5.0 on 2022-12-30 at 21:55:16 UTC


;
;

;
;
; 

; external perimeters extrusion width = 0.45mm
; perimeters extrusion width = 0.45mm
; infill extrusion width = 0.45mm
; solid infill extrusion width = 0.45mm
; top infill extrusion width = 0.40mm
; support material extrusion width = 0.35mm
; first layer extrusion width = 0.42mm

; external perimeters extrusion width = 0.45mm
; perimeters extrusion width = 0.45mm
; infill extrusion width = 0.45mm
; solid infill extrusion width = 0.45mm
; top infill extrusion width = 0.40mm
; support material extrusion width = 0.35mm
; first layer extrusion width = 0.42mm

M73 P0 R88
M107
;TYPE:Custom
G90 ; use absolute coordinates
M83 ; extruder relative mode
M204 S1250 T1250
M104 S220 ; set extruder temp
M140 S80 ; set bed temp
G28 ; home all
G1 Y1.0 Z0.3 F1000 ; move print head up
M190 S80 ; wait for bed temp
M109 S220 ; wait for extruder temp
G92 E0.0
; initial load
G1 X205.0 E19 F1000
G1 Y1.6
M73 P0 R87
G1 X5.0 E19 F1000
G92 E0.0
; intro line
G1 Y2.0 Z0.2 F1000
G1 X65.0 E9.0 F1000
G1 X105.0 E12.5 F1000
G92 E0.0
G21 ; set units to millimeters
G90 ; use absolute coordinates
M83 ; use relative distances for extrusion
; Filament gcode
M107
;LAYER_CHANGE
;Z:0.25
;HEIGHT:0.25
;BEFORE_LAYER_CHANGE
G92 E0.0
;0.25
G1 E-4 F1200
G1 Z.275 F10800
;AFTER_LAYER_CHANGE
;0.25
; printing object battarey2.stl id:0 copy 0
G1 X129.816 Y121.569
G1 Z.25
G1 E4 F1800
M204 S800
;TYPE:Support material
;WIDTH:0.42
G1 F720
G1 X129.816 Y122.252 E.02602
G1 X130.5 Y122.252 E.02602
G1 X132.134 Y123.887 E.08801
G1 X132.134 Y140.423 E.62965
G1 X130.5 Y142.057 E.08801
G1 X129.816 Y142.057 E.02602
G1 X129.816 Y142.741 E.02602
G1 X128.182 Y144.375 E.08801
G1 X111.646 Y144.375 E.62965
G1 X110.012 Y142.741 E.08801
G1 X110.012 Y142.057 E.02602
G1 X109.328 Y142.057 E.02602
G1 X107.694 Y140.423 E.08801
G1 X107.694 Y123.887 E.62965
G1 X109.328 Y122.252 E.08801
G1 X110.012 Y122.252 E.02602
G1 X110.012 Y121.569 E.02602
G1 X111.646 Y119.935 E.08801
G1 X128.182 Y119.935 E.62965
G1 X129.778 Y121.53 E.08592
M204 S1000
G1 X129.487 Y121.914 F10800
M204 S800
G1 F720
G1 X129.487 Y122.582 E.02545
M204 S1000
G1 E-2.4 F1200
;WIPE_START
G1 F8640
G1 X129.487 Y121.914 E-.08817
;WIPE_END
G1 E-1.51183 F1200
G1 Z.525 F10800
G1 X110.341 Y142.396
G1 Z.25
G1 E4 F1800
M204 S800
G1 F720
G1 X110.341 Y141.727 E.02545
M204 S1000
G1 E-2.4 F1200
;WIPE_START
G1 F8640
G1 X110.341 Y142.396 E-.08817
;WIPE_END
G1 E-1.51183 F1200
G1 Z.525 F10800
G1 X131.719 Y123.938
G1 Z.25
G1 E4 F1800
M204 S800
G1 F720
G1 X131.719 Y140.372 E.62579
G1 X131.312 Y140.779 E.02192
G1 X131.312 Y123.53 E.65679
G1 X130.905 Y123.123 E.02192
G1 X130.905 Y141.186 E.68779
G1 X130.497 Y141.593 E.02192
G1 X130.497 Y122.716 E.71879
G1 X130.363 Y122.582 E.00723
G1 X130.09 Y122.582 E.01039
G1 X130.09 Y141.727 E.72901
G1 X129.683 Y141.727 E.0155
G1 X129.683 Y122.582 E.72901
M204 S1000
G1 E-2.4 F1200
;WIPE_START
G1 F8640
G1 X129.683 Y134.102 E-1.52
;WIPE_END
G1 E-.08 F1200
G1 Z.525 F10800
G1 X110.341 Y142.396
G1 Z.25
G1 E4 F1800
M204 S800
G1 F720
G1 X110.341 Y142.604 E.00793
G1 X110.552 Y142.814 E.01133
G1 X110.552 Y121.495 E.81178
G1 X110.959 Y121.088 E.02192
M73 P1 R87
G1 X110.959 Y143.221 E.84278
G1 X111.366 Y143.628 E.02192
G1 X111.366 Y120.681 E.87378
G1 X111.773 Y120.274 E.02192
G1 X111.783 Y144.045 E.90515
G1 X112.18 Y144.045 E.01513
G1 X112.18 Y120.264 E.90552
G1 X112.587 Y120.264 E.0155
G1 X112.587 Y144.045 E.90552
G1 X112.994 Y144.045 E.0155
G1 X112.994 Y120.264 E.90552
G1 X113.401 Y120.264 E.0155
M73 P1 R86
G1 X113.401 Y144.045 E.90552
G1 X113.808 Y144.045 E.0155
G1 X113.808 Y120.264 E.90552
G1 X114.215 Y120.264 E.0155
G1 X114.215 Y144.045 E.90552
G1 X114.622 Y144.045 E.0155
G1 X114.622 Y120.264 E.90552
G1 X115.029 Y120.264 E.0155
G1 X115.029 Y144.045 E.90552
G1 X115.436 Y144.045 E.0155
G1 X115.436 Y120.264 E.90552
G1 X115.843 Y120.264 E.0155
G1 X115.843 Y144.045 E.90552
G1 X116.251 Y144.045 E.0155
G1 X116.251 Y120.264 E.90552
G1 X116.658 Y120.264 E.0155
G1 X116.658 Y144.045 E.90552
G1 X117.065 Y144.045 E.0155
G1 X117.065 Y120.264 E.90552
G1 X117.472 Y120.264 E.0155
G1 X117.472 Y144.045 E.90552
G1 X117.879 Y144.045 E.0155
G1 X117.879 Y120.264 E.90552
G1 X118.286 Y120.264 E.0155
G1 X118.286 Y144.045 E.90552
G1 X118.693 Y144.045 E.0155
G1 X118.693 Y120.264 E.90552
G1 X119.1 Y120.264 E.0155
G1 X119.1 Y144.045 E.90552
G1 X119.507 Y144.045 E.0155
G1 X119.507 Y120.264 E.90552
G1 X119.914 Y120.264 E.0155
G1 X119.914 Y144.045 E.90552
G1 X120.321 Y144.045 E.0155
G1 X120.321 Y120.264 E.90552
G1 X120.728 Y120.264 E.0155
G1 X120.728 Y144.045 E.90552
G1 X121.135 Y144.045 E.0155
G1 X121.135 Y120.264 E.90552
G1 X121.542 Y120.264 E.0155
M73 P2 R86
G1 X121.542 Y144.045 E.90552
G1 X121.949 Y144.045 E.0155
G1 X121.949 Y120.264 E.90552
G1 X122.356 Y120.264 E.0155
G1 X122.356 Y144.045 E.90552
G1 X122.763 Y144.045 E.0155
G1 X122.763 Y120.264 E.90552
G1 X123.17 Y120.264 E.0155
G1 X123.17 Y144.045 E.90552
G1 X123.578 Y144.045 E.0155
G1 X123.578 Y120.264 E.90552
G1 X123.985 Y120.264 E.0155
G1 X123.985 Y144.045 E.90552
G1 X124.392 Y144.045 E.0155
G1 X124.392 Y120.264 E.90552
G1 X124.799 Y120.264 E.0155
G1 X124.799 Y144.045 E.90552
G1 X125.206 Y144.045 E.0155
M73 P2 R85
G1 X125.206 Y120.264 E.90552
G1 X125.613 Y120.264 E.0155
G1 X125.613 Y144.045 E.90552
G1 X126.02 Y144.045 E.0155
G1 X126.02 Y120.264 E.90552
G1 X126.427 Y120.264 E.0155
G1 X126.427 Y144.045 E.90552
G1 X126.834 Y144.045 E.0155
G1 X126.834 Y120.264 E.90552
G1 X127.241 Y120.264 E.0155
G1 X127.241 Y144.045 E.90552
G1 X127.648 Y144.045 E.0155
G1 X127.648 Y120.264 E.90552
G1 X128.055 Y120.274 E.0155
G1 X128.055 Y144.036 E.90478
G1 X128.462 Y143.628 E.02192
G1 X128.462 Y120.681 E.87378
G1 X128.869 Y121.088 E.02192
G1 X128.869 Y143.221 E.84278
G1 X129.276 Y142.814 E.02192
G1 X129.276 Y121.495 E.81178
G1 X129.487 Y121.706 E.01133
G1 X129.487 Y121.914 E.00793
M204 S1000
G1 E-2.4 F1200
;WIPE_START
G1 F8640
G1 X129.487 Y121.706 E-.02749
G1 X129.276 Y121.495 E-.03925
G1 X129.276 Y132.509 E-1.45325
;WIPE_END
G1 E-.08 F1200
G1 Z.525 F10800
G1 X110.145 Y122.582
G1 Z.25
G1 E4 F1800
M204 S800
G1 F720
G1 X110.145 Y141.727 E.72901
G1 X109.738 Y141.727 E.0155
G1 X109.738 Y122.582 E.72901
G1 X109.465 Y122.582 E.01039
G1 X109.331 Y122.716 E.00723
G1 X109.331 Y141.593 E.71879
G1 X108.924 Y141.186 E.02192
G1 X108.924 Y123.123 E.68779
G1 X108.516 Y123.53 E.02192
G1 X108.516 Y140.779 E.65679
G1 X108.109 Y140.372 E.02192
G1 X108.109 Y123.938 E.62579
M204 S1000
; stop printing object battarey2.stl id:0 copy 0
; printing object battarey.stl id:1 copy 0
G1 E-2.4 F1200
;WIPE_START
G1 F8640
G1 X108.109 Y135.458 E-1.52
;WIPE_END
G1 E-.08 F1200
G1 Z.525 F10800
G1 X129.853 Y103.443
G1 Z.25
G1 E4 F1800
M204 S800
G1 F720
G1 X134.488 Y103.443 E.17651
G1 X134.488 Y106.395 E.11241
G1 X134.988 Y106.895 E.02692
G1 X134.988 Y108.079 E.04506
G1 X136.806 Y108.079 E.06922
G1 X136.806 Y117.612 E.36301
G1 X134.988 Y117.612 E.06922
M73 P3 R85
G1 X134.988 Y118.795 E.04506
G1 X134.488 Y119.295 E.02692
G1 X134.488 Y122.248 E.11241
G1 X129.853 Y122.248 E.17651
G1 X129.853 Y124.565 E.08826
G1 X120.319 Y124.565 E.36301
G1 X120.319 Y122.248 E.08826
G1 X115.684 Y122.248 E.17651
G1 X115.684 Y119.295 E.11241
G1 X115.184 Y118.795 E.02693
G1 X115.184 Y117.612 E.04506
G1 X113.366 Y117.612 E.06922
G1 X113.366 Y108.079 E.36301
G1 X115.184 Y108.079 E.06922
G1 X115.184 Y106.895 E.04506
G1 X115.684 Y106.395 E.02693
G1 X115.684 Y103.443 E.11241
G1 X120.319 Y103.443 E.17651
G1 X120.319 Y101.125 E.08826
G1 X129.853 Y101.125 E.36301
G1 X129.853 Y103.388 E.08616
M204 S1000
G1 E-2.4 F1200
;WIPE_START
G1 F8640
G1 X129.853 Y101.125 E-.29857
G1 X120.596 Y101.125 E-1.22143
;WIPE_END
G1 E-.08 F1200
G1 Z.525 F10800
G1 X134.659 Y107.24
G1 Z.25
G1 E4 F1800
M204 S800
G1 F720
G1 X134.659 Y108.408 E.04448
M204 S1000
G1 E-2.4 F1200
;WIPE_START
G1 F8640
G1 X134.659 Y107.24 E-.15414
;WIPE_END
G1 E-1.44586 F1200
G1 Z.525 F10800
G1 X115.513 Y118.45
G1 Z.25
G1 E4 F1800
M204 S800
G1 F720
G1 X115.513 Y117.282 E.04448
M204 S1000
G1 E-2.4 F1200
;WIPE_START
G1 F8640
G1 X115.513 Y118.45 E-.15414
;WIPE_END
G1 E-1.44586 F1200
G1 Z.525 F10800
G1 X136.26 Y117.282
G1 Z.25
G1 E4 F1800
M204 S800
G1 F720
G1 X136.476 Y117.282 E.00825
G1 X136.476 Y108.408 E.3379
G1 X136.076 Y108.408 E.01523
G1 X136.076 Y117.282 E.3379
G1 X135.669 Y117.282 E.0155
G1 X135.669 Y108.408 E.3379
G1 X135.262 Y108.408 E.0155
G1 X135.262 Y117.282 E.3379
G1 X134.855 Y117.282 E.0155
G1 X134.855 Y108.408 E.3379
M204 S1000
G1 E-2.4 F1200
;WIPE_START
G1 F8640
G1 X134.855 Y117.282 E-1.17088
G1 X135.262 Y117.282 E-.05371
G1 X135.262 Y115.043 E-.29541
;WIPE_END
G1 E-.08 F1200
G1 Z.525 F10800
G1 X134.659 Y118.45
G1 Z.25
G1 E4 F1800
M204 S800
G1 F720
G1 X134.659 Y118.659 E.00793
G1 X134.448 Y118.869 E.01133
G1 X134.448 Y106.821 E.45876
G1 X134.659 Y107.032 E.01133
G1 X134.659 Y107.24 E.00793
M204 S1000
G1 E-2.4 F1200
;WIPE_START
G1 F8640
G1 X134.659 Y107.032 E-.02749
G1 X134.448 Y106.821 E-.03925
G1 X134.448 Y117.835 E-1.45325
;WIPE_END
G1 E-.08 F1200
G1 Z.525 F10800
G1 X129.747 Y121.918
G1 Z.25
G1 E4 F1800
M204 S800
G1 F720
G1 X129.971 Y121.918 E.00852
G1 X129.971 Y103.773 E.69093
G1 X130.378 Y103.773 E.0155
G1 X130.378 Y121.918 E.69093
G1 X130.785 Y121.918 E.0155
G1 X130.785 Y103.773 E.69093
G1 X131.192 Y103.773 E.0155
G1 X131.192 Y121.918 E.69093
G1 X131.599 Y121.918 E.0155
G1 X131.599 Y103.773 E.69093
G1 X132.006 Y103.773 E.0155
G1 X132.006 Y121.918 E.69093
G1 X132.413 Y121.918 E.0155
M73 P3 R84
G1 X132.413 Y103.773 E.69093
G1 X132.82 Y103.773 E.0155
G1 X132.82 Y121.918 E.69093
G1 X133.227 Y121.918 E.0155
G1 X133.227 Y103.773 E.69093
G1 X133.634 Y103.773 E.0155
G1 X133.634 Y121.918 E.69093
G1 X134.041 Y121.918 E.0155
G1 X134.041 Y103.773 E.69093
M204 S1000
G1 E-2.4 F1200
;WIPE_START
G1 F8640
G1 X134.041 Y115.293 E-1.52
;WIPE_END
G1 E-.08 F1200
G1 Z.525 F10800
G1 X120.649 Y124.236
G1 Z.25
G1 E4 F1800
M204 S800
G1 F720
G1 X120.649 Y121.918 E.08826
G1 X120.608 Y121.918 E.00155
G1 X120.608 Y103.773 E.69093
G1 X120.649 Y103.773 E.00155
G1 X120.649 Y101.455 E.08826
G1 X121.015 Y101.455 E.01395
G1 X121.015 Y124.236 E.86744
G1 X121.422 Y124.236 E.0155
G1 X121.422 Y101.455 E.86744
G1 X121.83 Y101.455 E.0155
G1 X121.83 Y124.236 E.86744
G1 X122.237 Y124.236 E.0155
G1 X122.237 Y101.455 E.86744
G1 X122.644 Y101.455 E.0155
G1 X122.644 Y124.236 E.86744
G1 X123.051 Y124.236 E.0155
G1 X123.051 Y101.455 E.86744
G1 X123.458 Y101.455 E.0155
G1 X123.458 Y124.236 E.86744
G1 X123.865 Y124.236 E.0155
G1 X123.865 Y101.455 E.86744
G1 X124.272 Y101.455 E.0155
G1 X124.272 Y124.236 E.86744
G1 X124.679 Y124.236 E.0155
M73 P4 R84
G1 X124.679 Y101.455 E.86744
G1 X125.086 Y101.455 E.0155
G1 X125.086 Y124.236 E.86744
G1 X125.493 Y124.236 E.0155
G1 X125.493 Y101.455 E.86744
G1 X125.9 Y101.455 E.0155
G1 X125.9 Y124.236 E.86744
G1 X126.307 Y124.236 E.0155
G1 X126.307 Y101.455 E.86744
G1 X126.714 Y101.455 E.0155
G1 X126.714 Y124.236 E.86744
G1 X127.121 Y124.236 E.0155
G1 X127.121 Y101.455 E.86744
G1 X127.528 Y101.455 E.0155
G1 X127.528 Y124.236 E.86744
G1 X127.935 Y124.236 E.0155
G1 X127.935 Y101.455 E.86744
G1 X128.342 Y101.455 E.0155
G1 X128.342 Y124.236 E.86744
G1 X128.749 Y124.236 E.0155
G1 X128.749 Y101.455 E.86744
G1 X129.157 Y101.455 E.0155
G1 X129.157 Y124.236 E.86744
G1 X129.523 Y124.236 E.01395
G1 X129.523 Y121.918 E.08826
G1 X129.564 Y121.918 E.00155
G1 X129.564 Y103.773 E.69093
G1 X129.523 Y103.773 E.00155
G1 X129.523 Y101.455 E.08826
M204 S1000
G1 E-2.4 F1200
;WIPE_START
G1 F8640
G1 X129.523 Y103.773 E-.30582
G1 X129.564 Y103.773 E-.00536
G1 X129.564 Y112.934 E-1.20882
;WIPE_END
G1 E-.08 F1200
G1 Z.525 F10800
G1 X116.131 Y121.918
G1 Z.25
G1 E4 F1800
M204 S800
G1 F720
G1 X116.131 Y103.773 E.69093
G1 X116.538 Y103.773 E.0155
G1 X116.538 Y121.918 E.69093
G1 X116.945 Y121.918 E.0155
G1 X116.945 Y103.773 E.69093
G1 X117.352 Y103.773 E.0155
G1 X117.352 Y121.918 E.69093
G1 X117.759 Y121.918 E.0155
M73 P4 R83
G1 X117.759 Y103.773 E.69093
G1 X118.166 Y103.773 E.0155
G1 X118.166 Y121.918 E.69093
G1 X118.573 Y121.918 E.0155
G1 X118.573 Y103.773 E.69093
G1 X118.98 Y103.773 E.0155
G1 X118.98 Y121.918 E.69093
G1 X119.387 Y121.918 E.0155
G1 X119.387 Y103.773 E.69093
G1 X119.794 Y103.773 E.0155
G1 X119.794 Y121.918 E.69093
G1 X120.201 Y121.918 E.0155
G1 X120.201 Y103.773 E.69093
G1 X120.425 Y103.773 E.00852
M204 S1000
G1 E-2.4 F1200
;WIPE_START
G1 F8640
G1 X120.201 Y103.773 E-.02954
G1 X120.201 Y115.069 E-1.49046
;WIPE_END
G1 E-.08 F1200
G1 Z.525 F10800
G1 X115.513 Y118.45
G1 Z.25
G1 E4 F1800
M204 S800
G1 F720
G1 X115.513 Y118.659 E.00793
G1 X115.724 Y118.869 E.01133
G1 X115.724 Y106.821 E.45876
G1 X115.513 Y107.032 E.01133
G1 X115.513 Y107.24 E.00793
M204 S1000
G1 X115.317 Y108.408 F10800
M204 S800
G1 F720
G1 X115.317 Y117.282 E.3379
G1 X114.91 Y117.282 E.0155
G1 X114.91 Y108.408 E.3379
G1 X114.503 Y108.408 E.0155
G1 X114.503 Y117.282 E.3379
G1 X114.095 Y117.282 E.0155
G1 X114.095 Y108.408 E.3379
G1 X113.696 Y108.408 E.01523
G1 X113.696 Y117.282 E.3379
G1 X113.912 Y117.282 E.00825
M204 S1000
; stop printing object battarey.stl id:1 copy 0
M106 S252.45
;LAYER_CHANGE
;Z:0.55
;HEIGHT:0.3
;BEFORE_LAYER_CHANGE
G92 E0.0
;0.55
G1 E-2.4 F1200
;WIPE_START
G1 F8640
G1 X113.696 Y117.282 E-.0286
G1 X113.696 Y108.408 E-1.17088
G1 X114.095 Y108.408 E-.05277
G1 X114.095 Y110.437 E-.26775
;WIPE_END
G1 E-.08 F1200
G1 Z.525 F10800
G1 Z.55
;AFTER_LAYER_CHANGE
;0.55
; printing object battarey2.stl id:0 copy 0
G1 Z.825
G1 X127.321 Y122.56
G1 Z.55
G1 E4 F1800
;WIDTH:0.35
G1 F1432
G1 X127.161 Y122.4 E.00807
G1 X112.667 Y122.4 E.51633
G1 X112.477 Y122.59 E.00959
G1 X112.477 Y124.717 E.07579
G1 X110.349 Y124.717 E.07579
G1 X110.159 Y124.908 E.00959
G1 X110.159 Y139.402 E.51633
G1 X110.349 Y139.592 E.00959
G1 X112.477 Y139.592 E.07579
G1 X112.477 Y141.72 E.07579
G1 X112.667 Y141.91 E.00959
G1 X127.161 Y141.91 E.51633
G1 X127.351 Y141.72 E.00959
G1 X127.351 Y139.592 E.07579
G1 X129.479 Y139.592 E.07579
M73 P5 R83
G1 X129.669 Y139.402 E.00959
G1 X129.669 Y124.908 E.51633
G1 X129.479 Y124.717 E.00959
G1 X127.351 Y124.717 E.07579
G1 X127.351 Y122.59 E.07579
G1 X127.221 Y122.884 F10800
G1 F1432
G1 X112.75 Y122.884 E.51553
G1 X112.75 Y124.991 E.07506
G1 X110.462 Y124.991 E.08149
G1 X110.432 Y125.021 E.00153
G1 X110.432 Y125.201 E.00643
G1 X129.396 Y125.201 E.67557
G1 X129.396 Y127.519 E.08257
G1 X110.432 Y127.519 E.67557
G1 X110.432 Y129.837 E.08257
G1 X129.396 Y129.837 E.67557
G1 X129.396 Y132.155 E.08257
G1 X110.432 Y132.155 E.67557
G1 X110.432 Y134.473 E.08257
G1 X129.396 Y134.473 E.67557
G1 X129.396 Y136.79 E.08257
G1 X110.432 Y136.79 E.67557
G1 X110.432 Y139.108 E.08257
G1 X129.396 Y139.108 E.67557
G1 X129.396 Y139.289 E.00643
G1 X129.366 Y139.319 E.00153
G1 X127.078 Y139.319 E.08149
G1 X127.078 Y141.426 E.07506
G1 X112.607 Y141.426 E.51553
; stop printing object battarey2.stl id:0 copy 0
; printing object battarey.stl id:1 copy 0
G1 E-2.4 F1200
;WIPE_START
G1 F8640
G1 X124.127 Y141.426 E-1.52
;WIPE_END
G1 E-.08 F1200
G1 Z.825 F10800
G1 X122.914 Y119.799
G1 Z.55
G1 E4 F1800
G1 F1432
G1 X127.115 Y119.799 E.14963
G1 X127.115 Y119.509 E.0103
G1 X131.75 Y119.509 E.16514
G1 X131.75 Y117.692 E.06476
G1 X132.22 Y117.692 E.01673
G1 X132.25 Y117.661 E.00153
G1 X132.25 Y117.481 E.00643
G1 X117.922 Y117.481 E.51043
G1 X117.922 Y115.163 E.08257
G1 X132.25 Y115.163 E.51043
G1 X132.25 Y114.874 E.0103
G1 X134.068 Y114.874 E.06476
G1 X134.068 Y112.845 E.07227
G1 X116.104 Y112.845 E.63995
G1 X116.104 Y110.817 E.07227
G1 X117.922 Y110.817 E.06476
G1 X117.922 Y110.527 E.0103
G1 X132.25 Y110.527 E.51043
G1 X132.25 Y108.21 E.08257
G1 X117.922 Y108.21 E.51043
G1 X117.922 Y108.029 E.00643
G1 X117.952 Y107.999 E.00153
G1 X118.422 Y107.999 E.01673
G1 X118.422 Y106.181 E.06476
G1 X123.057 Y106.181 E.16514
G1 X123.057 Y105.892 E.0103
G1 X127.258 Y105.892 E.14963
G1 X127.388 Y105.908 F10800
G1 F1432
G1 X132.023 Y105.908 E.16514
G1 X132.023 Y107.726 E.06476
G1 X132.333 Y107.726 E.01103
G1 X132.523 Y107.916 E.00959
G1 X132.523 Y110.544 E.0936
G1 X134.341 Y110.544 E.06476
G1 X134.341 Y115.147 E.16399
