; generated by PrusaSlicer 2.5.0 on 2022-09-19 at 09:01:39 UTC


;
;

;
;
; 

; external perimeters extrusion width = 0.45mm
; perimeters extrusion width = 0.45mm
; infill extrusion width = 0.45mm
; solid infill extrusion width = 0.45mm
; top infill extrusion width = 0.40mm
; first layer extrusion width = 0.42mm

; external perimeters extrusion width = 0.45mm
; perimeters extrusion width = 0.45mm
; infill extrusion width = 0.45mm
; solid infill extrusion width = 0.45mm
; top infill extrusion width = 0.40mm
; first layer extrusion width = 0.42mm

; external perimeters extrusion width = 0.45mm
; perimeters extrusion width = 0.45mm
; infill extrusion width = 0.45mm
; solid infill extrusion width = 0.45mm
; top infill extrusion width = 0.40mm
; first layer extrusion width = 0.42mm

M73 P0 R104
M107
;TYPE:Custom
G90 ; use absolute coordinates
M83 ; extruder relative mode
M204 S1250 T1250
M104 S215 ; set extruder temp
M140 S80 ; set bed temp
G28 ; home all
G1 Y1.0 Z0.3 F1000 ; move print head up
M190 S80 ; wait for bed temp
M109 S215 ; wait for extruder temp
G92 E0.0
; initial load
G1 X205.0 E19 F1000
G1 Y1.6
G1 X5.0 E19 F1000
G92 E0.0
; intro line
G1 Y2.0 Z0.2 F1000
G1 X65.0 E9.0 F1000
G1 X105.0 E12.5 F1000
G92 E0.0
G21 ; set units to millimeters
G90 ; use absolute coordinates
M83 ; use relative distances for extrusion
; Filament gcode
M107
;LAYER_CHANGE
;Z:0.25
;HEIGHT:0.25
;BEFORE_LAYER_CHANGE
G92 E0.0
;0.25
M73 P0 R103
G1 E-4 F1200
G1 Z.275 F10800
;AFTER_LAYER_CHANGE
;0.25
G1 X126.771 Y96.923
G1 Z.25
G1 E4 F1800
M204 S800
;TYPE:Skirt/Brim
;WIDTH:0.42
G1 F720
G1 X127.414 Y96.082 E.04034
G1 X128.144 Y95.202 E.04355
G1 X128.894 Y94.367 E.04271
G1 X129.56 Y93.675 E.03658
G1 X130.377 Y92.887 E.04322
G1 X131.235 Y92.122 E.04377
G1 X131.975 Y91.509 E.03659
G1 X132.863 Y90.824 E.04271
G1 X133.79 Y90.166 E.04328
G1 X134.742 Y89.545 E.04328
G1 X135.728 Y88.957 E.04372
G1 X136.563 Y88.495 E.03636
G1 X137.416 Y88.065 E.03636
G1 X138.604 Y87.517 E.04982
G1 X139.668 Y87.082 E.04378
G1 X140.563 Y86.75 E.03636
G1 X141.47 Y86.451 E.03636
G1 X142.572 Y86.128 E.04371
G1 X143.675 Y85.853 E.04327
G1 X144.773 Y85.624 E.04272
G1 X145.721 Y85.462 E.03662
G1 X146.852 Y85.309 E.04345
G1 X147.99 Y85.201 E.04355
G1 X149.124 Y85.138 E.04323
G1 X150.084 Y85.12 E.03658
G1 X151.206 Y85.138 E.04271
G1 X152.34 Y85.201 E.04328
G1 X153.485 Y85.31 E.04377
G1 X154.437 Y85.435 E.03659
G1 X155.544 Y85.621 E.04271
G1 X156.656 Y85.853 E.04328
G1 X157.758 Y86.128 E.04326
G1 X158.682 Y86.394 E.03659
G1 X159.76 Y86.747 E.04321
G1 X160.832 Y87.146 E.04355
G1 X161.886 Y87.586 E.04346
G1 X162.759 Y87.987 E.03661
G1 X163.761 Y88.492 E.04272
G1 X164.755 Y89.043 E.04328
G1 X165.737 Y89.639 E.04373
G1 X166.535 Y90.162 E.03636
G1 X167.314 Y90.715 E.03636
G1 X168.354 Y91.508 E.0498
G1 X169.237 Y92.246 E.0438
G1 X169.949 Y92.882 E.03635
G1 X170.636 Y93.544 E.03635
G1 X171.437 Y94.367 E.0437
G1 X172.196 Y95.213 E.04328
G1 X172.921 Y96.088 E.04328
G1 X173.603 Y96.979 E.04271
G1 X174.159 Y97.762 E.0366
G1 X174.79 Y98.722 E.04376
G1 X175.376 Y99.696 E.04328
G1 X175.917 Y100.679 E.04271
G1 X176.35 Y101.537 E.03659
G1 X176.824 Y102.568 E.04322
G1 X177.263 Y103.63 E.04377
G1 X177.597 Y104.531 E.03658
G1 X177.951 Y105.596 E.04271
G1 X178.266 Y106.687 E.04328
G1 X178.541 Y107.803 E.04376
G1 X178.737 Y108.744 E.03659
G1 X178.927 Y109.85 E.04271
G1 X179.077 Y110.991 E.04383
G1 X179.179 Y112.108 E.04271
G1 X179.233 Y113.067 E.03658
G1 X179.255 Y114.202 E.04322
G1 X179.233 Y115.338 E.04327
G1 X179.179 Y116.311 E.03709
G1 X179.077 Y117.428 E.04271
G1 X178.929 Y118.554 E.04327
G1 X178.735 Y119.682 E.04355
G1 X178.498 Y120.798 E.04344
G1 X178.266 Y121.731 E.03662
G1 X177.955 Y122.809 E.04272
G1 X177.597 Y123.888 E.04327
G1 X177.193 Y124.962 E.04371
G1 X176.827 Y125.844 E.03635
G1 X176.429 Y126.712 E.03635
G1 X175.92 Y127.733 E.04344
G1 X175.369 Y128.735 E.04355
G1 X174.783 Y129.708 E.04328
G1 X174.166 Y130.646 E.04271
G1 X173.61 Y131.429 E.03659
G1 X172.917 Y132.337 E.04348
G1 X172.186 Y133.217 E.04355
G1 X171.437 Y134.051 E.04271
G1 X170.771 Y134.743 E.03658
G1 X169.949 Y135.537 E.0435
G1 X169.096 Y136.297 E.04349
G1 X168.356 Y136.909 E.03659
G1 X167.468 Y137.594 E.04271
G1 X166.541 Y138.252 E.04328
G1 X165.589 Y138.873 E.04328
G1 X164.603 Y139.462 E.04372
G1 X163.767 Y139.923 E.03636
G1 X162.915 Y140.354 E.03636
G1 X161.727 Y140.902 E.04982
G1 X160.663 Y141.337 E.04378
G1 X159.767 Y141.669 E.03636
G1 X158.86 Y141.967 E.03636
G1 X157.759 Y142.29 E.04371
G1 X156.656 Y142.566 E.04327
G1 X155.558 Y142.795 E.04272
G1 X154.61 Y142.956 E.03662
G1 X153.479 Y143.109 E.04345
G1 X152.341 Y143.218 E.04355
G1 X151.207 Y143.28 E.04323
G1 X150.247 Y143.298 E.03658
G1 X149.111 Y143.28 E.04326
G1 X147.983 Y143.217 E.043
G1 X146.846 Y143.109 E.04349
G1 X145.893 Y142.983 E.03659
G1 X144.787 Y142.798 E.04271
G1 X143.668 Y142.564 E.04355
G1 X142.572 Y142.29 E.04298
G1 X141.649 Y142.024 E.03659
G1 X140.57 Y141.671 E.04321
G1 X139.498 Y141.273 E.04355
G1 X138.445 Y140.833 E.04346
G1 X137.571 Y140.432 E.03661
G1 X136.57 Y139.927 E.04272
G1 X135.576 Y139.376 E.04328
G1 X134.594 Y138.779 E.04372
G1 X133.796 Y138.256 E.03636
G1 X133.017 Y137.704 E.03636
G1 X131.977 Y136.911 E.0498
G1 X131.094 Y136.173 E.0438
G1 X130.382 Y135.537 E.03635
G1 X129.695 Y134.874 E.03635
G1 X128.894 Y134.052 E.0437
G1 X128.135 Y133.206 E.04328
G1 X127.41 Y132.331 E.04328
G1 X126.728 Y131.44 E.04271
G1 X126.172 Y130.656 E.0366
G1 X125.54 Y129.696 E.04376
G1 X124.954 Y128.722 E.04328
G1 X124.414 Y127.739 E.04271
G1 X123.981 Y126.882 E.03659
G1 X123.506 Y125.851 E.04322
G1 X123.067 Y124.788 E.04377
G1 X122.733 Y123.887 E.03658
G1 X122.38 Y122.823 E.04271
G1 X122.065 Y121.731 E.04328
G1 X121.79 Y120.615 E.04376
G1 X121.594 Y119.674 E.03659
G1 X121.404 Y118.569 E.04271
G1 X121.254 Y117.428 E.04383
G1 X121.152 Y116.311 E.04271
G1 X121.098 Y115.351 E.03658
G1 X121.075 Y114.217 E.04322
G1 X121.098 Y113.08 E.04327
G1 X121.152 Y112.108 E.03709
G1 X121.254 Y110.991 E.04271
G1 X121.402 Y109.864 E.04327
G1 X121.595 Y108.737 E.04355
G1 X121.833 Y107.621 E.04344
G1 X122.065 Y106.687 E.03662
G1 X122.376 Y105.609 E.04272
G1 X122.734 Y104.531 E.04327
G1 X123.138 Y103.456 E.04371
G1 X123.503 Y102.575 E.03635
G1 X123.901 Y101.707 E.03635
G1 X124.411 Y100.686 E.04344
G1 X124.962 Y99.684 E.04355
G1 X125.548 Y98.71 E.04328
G1 X126.164 Y97.773 E.04271
G1 X126.734 Y96.971 E.03746
M204 S1000
G1 X127.025 Y97.194 F10800
M204 S800
G1 F720
G1 X127.698 Y96.313 E.04221
G1 X128.419 Y95.444 E.043
G1 X129.164 Y94.615 E.04245
G1 X129.822 Y93.932 E.03609
G1 X130.629 Y93.153 E.0427
G1 X131.471 Y92.402 E.04298
G1 X132.201 Y91.797 E.0361
G1 X133.084 Y91.117 E.04245
G1 X133.999 Y90.467 E.04273
G1 X134.939 Y89.854 E.04272
G1 X135.908 Y89.276 E.04295
G1 X136.732 Y88.821 E.03585
G1 X137.578 Y88.393 E.03611
G1 X138.754 Y87.851 E.04929
G1 X139.798 Y87.424 E.04297
G1 X140.688 Y87.094 E.03612
G1 X141.582 Y86.8 E.03585
G1 X142.665 Y86.483 E.04295
G1 X143.753 Y86.211 E.04272
G1 X144.844 Y85.983 E.04245
G1 X145.779 Y85.824 E.03611
G1 X146.89 Y85.673 E.04268
G1 X148.014 Y85.566 E.043
G1 X149.134 Y85.504 E.0427
G1 X150.082 Y85.487 E.03609
G1 X151.196 Y85.504 E.04245
G1 X152.317 Y85.566 E.04273
G1 X153.44 Y85.673 E.04297
G1 X154.38 Y85.797 E.0361
G1 X155.479 Y85.981 E.04245
G1 X156.578 Y86.211 E.04272
G1 X157.666 Y86.483 E.04272
G1 X158.577 Y86.745 E.0361
G1 X159.643 Y87.094 E.0427
G1 X160.701 Y87.488 E.043
G1 X161.736 Y87.92 E.04269
G1 X162.598 Y88.316 E.03611
G1 X163.593 Y88.817 E.04245
G1 X164.574 Y89.362 E.04272
G1 X165.538 Y89.947 E.04296
G1 X166.332 Y90.467 E.03611
G1 X167.1 Y91.012 E.03585
G1 X168.129 Y91.797 E.04928
G1 X168.995 Y92.521 E.04299
G1 X169.702 Y93.153 E.03611
G1 X170.38 Y93.806 E.03585
G1 X171.166 Y94.615 E.04295
G1 X171.916 Y95.449 E.04272
G1 X172.633 Y96.313 E.04273
G1 X173.31 Y97.198 E.04245
G1 X173.858 Y97.972 E.0361
G1 X174.478 Y98.915 E.04297
G1 X175.057 Y99.876 E.04272
G1 X175.594 Y100.853 E.04245
G1 X176.021 Y101.699 E.03609
G1 X176.49 Y102.718 E.0427
G1 X176.921 Y103.761 E.04298
G1 X177.251 Y104.65 E.03609
G1 X177.602 Y105.708 E.04245
G1 X177.913 Y106.786 E.04272
G1 X178.183 Y107.881 E.04297
G1 X178.376 Y108.809 E.0361
G1 X178.565 Y109.908 E.04245
G1 X178.712 Y111.028 E.043
G1 X178.813 Y112.138 E.04245
G1 X178.867 Y113.084 E.03609
G1 X178.889 Y114.206 E.0427
G1 X178.867 Y115.327 E.04272
G1 X178.813 Y116.28 E.03635
G1 X178.712 Y117.391 E.04245
G1 X178.566 Y118.503 E.04272
G1 X178.375 Y119.616 E.043
G1 X178.142 Y120.712 E.04268
G1 X177.913 Y121.633 E.03611
G1 X177.604 Y122.704 E.04245
G1 X177.251 Y123.769 E.04272
G1 X176.853 Y124.825 E.04295
G1 X176.493 Y125.694 E.03585
G1 X176.098 Y126.556 E.03611
G1 X175.594 Y127.566 E.04295
G1 X175.053 Y128.549 E.04272
G1 X174.475 Y129.51 E.04272
G1 X173.862 Y130.442 E.04245
G1 X173.313 Y131.215 E.0361
G1 X172.633 Y132.106 E.04269
G1 X171.912 Y132.975 E.043
G1 X171.166 Y133.804 E.04245
G1 X170.509 Y134.487 E.03609
G1 X169.702 Y135.266 E.0427
G1 X168.86 Y136.017 E.04298
G1 X168.13 Y136.621 E.0361
G1 X167.247 Y137.302 E.04245
G1 X166.332 Y137.951 E.04273
G1 X165.392 Y138.564 E.04272
G1 X164.423 Y139.142 E.04295
G1 X163.599 Y139.598 E.03585
G1 X162.753 Y140.025 E.03611
G1 X161.577 Y140.568 E.04929
G1 X160.532 Y140.994 E.04297
G1 X159.643 Y141.324 E.03612
G1 X158.749 Y141.619 E.03585
G1 X157.666 Y141.936 E.04295
G1 X156.578 Y142.208 E.04272
G1 X155.487 Y142.436 E.04245
G1 X154.552 Y142.595 E.03611
G1 X153.441 Y142.745 E.04268
G1 X152.317 Y142.852 E.043
G1 X151.197 Y142.914 E.0427
G1 X150.249 Y142.932 E.03609
G1 X149.127 Y142.914 E.04272
G1 X148.007 Y142.852 E.04272
G1 X146.891 Y142.745 E.0427
G1 X145.951 Y142.621 E.0361
G1 X144.851 Y142.437 E.04245
G1 X143.753 Y142.208 E.04272
G1 X142.665 Y141.936 E.04272
G1 X141.754 Y141.673 E.0361
G1 X140.688 Y141.324 E.0427
G1 X139.629 Y140.931 E.043
G1 X138.595 Y140.498 E.04269
G1 X137.733 Y140.103 E.03611
G1 X136.738 Y139.601 E.04245
G1 X135.757 Y139.057 E.04272
G1 X134.792 Y138.471 E.04296
G1 X134.005 Y137.955 E.03585
G1 X133.231 Y137.407 E.03611
G1 X132.202 Y136.622 E.04928
G1 X131.336 Y135.898 E.04299
G1 X130.629 Y135.266 E.03611
G1 X129.951 Y134.613 E.03585
G1 X129.164 Y133.804 E.04295
G1 X128.415 Y132.969 E.04272
G1 X127.698 Y132.106 E.04273
G1 X127.021 Y131.22 E.04245
G1 X126.472 Y130.447 E.0361
G1 X125.852 Y129.504 E.04297
G1 X125.274 Y128.543 E.04272
G1 X124.737 Y127.566 E.04245
G1 X124.31 Y126.72 E.03609
G1 X123.841 Y125.701 E.0427
G1 X123.41 Y124.658 E.04298
G1 X123.08 Y123.769 E.03609
G1 X122.729 Y122.711 E.04245
G1 X122.418 Y121.633 E.04272
G1 X122.148 Y120.537 E.04297
G1 X121.954 Y119.609 E.0361
G1 X121.766 Y118.51 E.04245
G1 X121.619 Y117.391 E.043
G1 X121.517 Y116.28 E.04245
G1 X121.464 Y115.334 E.03609
G1 X121.442 Y114.213 E.0427
G1 X121.464 Y113.091 E.04272
G1 X121.517 Y112.138 E.03635
G1 X121.619 Y111.028 E.04245
G1 X121.765 Y109.915 E.04272
G1 X121.956 Y108.802 E.043
G1 X122.189 Y107.706 E.04268
G1 X122.418 Y106.786 E.03611
G1 X122.727 Y105.715 E.04245
G1 X123.08 Y104.65 E.04272
G1 X123.478 Y103.594 E.04295
G1 X123.838 Y102.724 E.03585
G1 X124.233 Y101.862 E.03611
G1 X124.737 Y100.853 E.04295
G1 X125.277 Y99.87 E.04272
G1 X125.856 Y98.908 E.04272
G1 X126.469 Y97.977 E.04245
G1 X126.99 Y97.242 E.0343
M204 S1000
G1 E-2.4 F1200
;WIPE_START
G1 F8640
G1 X127.698 Y96.313 E-.15416
G1 X128.419 Y95.444 E-.14901
G1 X129.164 Y94.615 E-.14709
G1 X129.822 Y93.932 E-.12506
G1 X130.629 Y93.153 E-.14797
G1 X131.471 Y92.402 E-.14892
G1 X132.201 Y91.797 E-.12508
G1 X133.084 Y91.117 E-.14709
G1 X133.999 Y90.467 E-.14805
G1 X134.939 Y89.854 E-.14804
G1 X135.457 Y89.545 E-.07953
;WIPE_END
G1 E-.08 F1200
G1 Z.525 F10800
G1 X114.809 Y98.032
G1 Z.25
M73 P1 R103
G1 E4 F1800
M204 S800
G1 F720
G1 X114.874 Y99.267 E.04708
G1 X114.897 Y100.473 E.04594
G1 X114.881 Y101.667 E.04548
G1 X114.824 Y102.885 E.0464
G1 X114.727 Y104.081 E.04571
G1 X114.592 Y105.274 E.04571
G1 X114.393 Y106.63 E.05218
G1 X114.362 Y106.687 E.00248
G1 X114.111 Y106.907 E.0127
G1 X114.051 Y106.931 E.00248
G1 X102.106 Y107.161 E.45491
G1 X101.488 Y107.154 E.02351
G1 X100.859 Y107.108 E.02405
G1 X100.232 Y107.022 E.02407
G1 X99.519 Y106.873 E.02776
G1 X98.982 Y106.729 E.02118
G1 X98.383 Y106.527 E.02405
G1 X97.799 Y106.288 E.02405
G1 X97.23 Y106.013 E.02405
G1 X96.68 Y105.703 E.02405
G1 X96.159 Y105.365 E.02362
G1 X95.661 Y104.997 E.02361
G1 X95.177 Y104.591 E.02404
G1 X94.712 Y104.147 E.02449
G1 X94.275 Y103.675 E.02448
G1 X93.884 Y103.194 E.02361
G1 X93.523 Y102.69 E.02361
G1 X93.187 Y102.155 E.02405
G1 X92.886 Y101.6 E.02405
G1 X92.615 Y101.017 E.02449
G1 X92.386 Y100.428 E.02405
G1 X92.194 Y99.826 E.02404
G1 X92.037 Y99.203 E.02448
G1 X91.923 Y98.582 E.02404
G1 X91.848 Y97.966 E.02361
G1 X91.811 Y97.335 E.02409
G1 X91.784 Y95.956 E.05252
G1 X91.711 Y95.586 E.01434
G1 X91.6 Y95.2 E.01531
G1 X91.456 Y94.825 E.01531
G1 X91.281 Y94.462 E.01531
G1 X91.104 Y94.162 E.01327
G1 X90.842 Y93.787 E.01743
G1 X90.584 Y93.482 E.01521
G1 X90.299 Y93.198 E.01531
G1 X89.991 Y92.94 E.01531
G1 X89.663 Y92.708 E.01531
G1 X89.316 Y92.505 E.01531
G1 X88.953 Y92.332 E.01531
G1 X88.577 Y92.19 E.01531
G1 X88.191 Y92.08 E.01531
G1 X87.796 Y92.003 E.01531
G1 X87.401 Y91.961 E.01512
G1 X86.665 Y91.957 E.02803
G1 X86.017 Y91.988 E.02471
G1 X85.372 Y92.054 E.02467
G1 X84.733 Y92.157 E.02467
G1 X84.1 Y92.296 E.02467
G1 X83.476 Y92.47 E.02467
G1 X82.862 Y92.679 E.02467
G1 X82.262 Y92.921 E.02467
G1 X81.751 Y93.162 E.02151
G1 X81.104 Y93.507 E.0279
G1 X80.554 Y93.846 E.02461
G1 X80.022 Y94.216 E.02467
G1 X79.512 Y94.616 E.02467
G1 X79.025 Y95.043 E.02467
G1 X78.563 Y95.497 E.02467
G1 X78.127 Y95.976 E.02467
G1 X77.719 Y96.479 E.02467
G1 X77.339 Y97.005 E.02467
G1 X76.99 Y97.55 E.02467
G1 X76.671 Y98.114 E.02467
G1 X76.385 Y98.696 E.02467
G1 X76.132 Y99.292 E.02467
G1 X75.913 Y99.902 E.02467
G1 X75.728 Y100.523 E.02467
G1 X75.578 Y101.153 E.02467
G1 X75.464 Y101.791 E.02467
G1 X75.386 Y102.434 E.02467
G1 X75.344 Y103.079 E.0246
G1 X75.34 Y104.836 E.0669
G1 X75.287 Y105.327 E.01881
G1 X75.189 Y105.818 E.01905
G1 X75.047 Y106.297 E.01903
G1 X74.876 Y106.732 E.01782
G1 X74.669 Y107.152 E.01783
G1 X74.4 Y107.593 E.01966
G1 X74.122 Y107.969 E.01781
G1 X73.801 Y108.332 E.01844
G1 X73.463 Y108.656 E.01784
G1 X73.085 Y108.959 E.01843
G1 X72.669 Y109.236 E.01904
G1 X72.23 Y109.475 E.01905
G1 X71.781 Y109.669 E.01859
G1 X71.3 Y109.826 E.01929
G1 X70.855 Y109.934 E.01741
G1 X70.377 Y110.005 E.01843
G1 X69.893 Y110.034 E.01844
G1 X69.425 Y110.022 E.01784
G1 X68.944 Y109.968 E.01844
G1 X68.469 Y109.872 E.01843
G1 X68.005 Y109.735 E.01844
G1 X67.554 Y109.559 E.01843
G1 X67.12 Y109.343 E.01843
G1 X66.707 Y109.091 E.01843
G1 X66.318 Y108.804 E.0184
G1 X65.955 Y108.484 E.01843
G1 X65.621 Y108.134 E.01844
G1 X65.328 Y107.768 E.01783
G1 X65.049 Y107.35 E.01915
G1 X64.796 Y106.875 E.0205
G1 X64.619 Y106.468 E.01688
G1 X64.466 Y106.009 E.01843
G1 X64.354 Y105.539 E.01842
G1 X64.284 Y105.076 E.01782
G1 X64.254 Y104.596 E.01829
G1 X64.181 Y100.836 E.14322
G1 X64.187 Y100.083 E.02865
G1 X64.234 Y99.325 E.02893
G1 X64.321 Y98.57 E.02893
G1 X64.448 Y97.821 E.02893
G1 X64.616 Y97.08 E.02893
G1 X64.823 Y96.349 E.02893
G1 X65.065 Y95.639 E.02855
G1 X65.353 Y94.925 E.0293
G1 X65.675 Y94.237 E.02892
G1 X66.033 Y93.567 E.02893
G1 X66.427 Y92.917 E.02893
G1 X66.854 Y92.29 E.02893
G1 X67.315 Y91.686 E.02893
G1 X67.808 Y91.107 E.02893
G1 X68.331 Y90.556 E.02893
G1 X68.883 Y90.034 E.02893
G1 X69.455 Y89.548 E.02856
G1 X70.059 Y89.088 E.02893
G1 X70.626 Y88.703 E.0261
G1 X71.345 Y88.264 E.03207
G1 X72.017 Y87.906 E.02899
G1 X72.706 Y87.585 E.02893
G1 X73.42 Y87.299 E.0293
G1 X74.139 Y87.055 E.02893
G1 X74.861 Y86.852 E.02855
G1 X75.6 Y86.686 E.02884
G1 X90.149 Y83.83 E.56455
G1 X90.621 Y83.76 E.01819
G1 X91.052 Y83.736 E.01644
G1 X91.464 Y83.749 E.01569
G1 X91.974 Y83.808 E.01954
G1 X92.433 Y83.909 E.01788
G1 X92.892 Y84.056 E.01836
G1 X93.335 Y84.246 E.01835
G1 X93.743 Y84.468 E.0177
G1 X94.133 Y84.729 E.01788
G1 X94.506 Y85.037 E.01841
G1 X94.8 Y85.32 E.01555
G1 X95.103 Y85.672 E.0177
G1 X95.382 Y86.065 E.01834
G1 X95.615 Y86.468 E.01771
G1 X95.817 Y86.906 E.01836
