; generated by PrusaSlicer 2.5.0 on 2022-09-18 at 16:15:28 UTC


;
;

;
;
; 

; external perimeters extrusion width = 0.45mm
; perimeters extrusion width = 0.45mm
; infill extrusion width = 0.45mm
; solid infill extrusion width = 0.45mm
; top infill extrusion width = 0.40mm
; first layer extrusion width = 0.42mm

M73 P0 R3
M107
;TYPE:Custom
G90 ; use absolute coordinates
M83 ; extruder relative mode
M204 S1250 T1250
M104 S250 ; set extruder temp
M140 S80 ; set bed temp
G28 ; home all
G1 Y1.0 Z0.3 F1000 ; move print head up
M190 S80 ; wait for bed temp
M109 S250 ; wait for extruder temp
G92 E0.0
; initial load
G1 X205.0 E19 F1000
G1 Y1.6
M73 P5 R3
G1 X5.0 E19 F1000
G92 E0.0
; intro line
G1 Y2.0 Z0.2 F1000
M73 P10 R3
G1 X65.0 E9.0 F1000
G1 X105.0 E12.5 F1000
G92 E0.0
G21 ; set units to millimeters
G90 ; use absolute coordinates
M83 ; use relative distances for extrusion
; Filament gcode
M107
;LAYER_CHANGE
;Z:0.25
;HEIGHT:0.25
;BEFORE_LAYER_CHANGE
G92 E0.0
;0.25
M73 P12 R3
G1 E-4 F1200
M73 P13 R3
G1 Z.275 F10800
;AFTER_LAYER_CHANGE
;0.25
G1 X111.012 Y111.623
G1 Z.25
M73 P14 R3
G1 E4 F1800
M204 S800
;TYPE:Skirt/Brim
;WIDTH:0.42
G1 F720
G1 X111.529 Y111.159 E.02647
G1 X112.057 Y110.771 E.02494
G1 X112.634 Y110.426 E.02562
G1 X113.252 Y110.135 E.02598
G1 X113.991 Y109.879 E.0298
G1 X114.608 Y109.735 E.02412
G1 X115.317 Y109.641 E.02724
G1 X115.942 Y109.62 E.0238
G1 X116.658 Y109.664 E.02732
G1 X117.251 Y109.759 E.02287
G1 X117.873 Y109.917 E.02442
G1 X118.531 Y110.155 E.02665
G1 X119.163 Y110.459 E.02669
G1 X119.733 Y110.807 E.02544
G1 X120.256 Y111.2 E.02493
G1 X120.722 Y111.622 E.02395
G1 X121.207 Y112.157 E.02746
G1 X121.554 Y112.623 E.02214
G1 X121.917 Y113.219 E.02655
G1 X122.208 Y113.823 E.02556
G1 X122.418 Y114.389 E.02296
G1 X122.582 Y114.99 E.02373
G1 X122.703 Y115.699 E.02739
G1 X122.749 Y116.415 E.02733
G1 X122.726 Y117.065 E.02477
G1 X122.639 Y117.732 E.0256
G1 X122.47 Y118.441 E.02773
G1 X122.274 Y119.015 E.02312
G1 X121.935 Y119.747 E.03073
G1 X121.616 Y120.284 E.02377
G1 X121.233 Y120.808 E.02471
G1 X120.812 Y121.287 E.02431
G1 X120.376 Y121.701 E.02289
G1 X119.777 Y122.164 E.02882
G1 X119.221 Y122.51 E.02494
G1 X118.637 Y122.801 E.02485
G1 X118.07 Y123.02 E.02314
M73 P15 R3
G1 X117.348 Y123.221 E.02854
G1 X116.699 Y123.332 E.02506
G1 X115.945 Y123.383 E.02879
G1 X115.345 Y123.362 E.02287
G1 X114.602 Y123.265 E.02853
G1 X113.961 Y123.113 E.02507
G1 X113.287 Y122.88 E.02714
G1 X112.65 Y122.583 E.02676
G1 X112.086 Y122.249 E.02498
G1 X111.55 Y121.859 E.02524
G1 X111.033 Y121.398 E.02637
G1 X110.528 Y120.841 E.02861
G1 X110.138 Y120.312 E.02504
G1 X109.794 Y119.734 E.02562
G1 X109.504 Y119.118 E.02595
G1 X109.272 Y118.463 E.02643
G1 X109.105 Y117.77 E.02714
G1 X109.009 Y117.06 E.02727
G1 X108.986 Y116.514 E.02082
G1 X109.019 Y115.832 E.026
G1 X109.126 Y115.122 E.02735
G1 X109.302 Y114.441 E.02677
G1 X109.528 Y113.825 E.02501
G1 X109.851 Y113.162 E.02806
G1 X110.175 Y112.634 E.0236
G1 X110.567 Y112.112 E.02487
G1 X110.971 Y111.668 E.02286
M204 S1000
G1 X111.242 Y111.915 F10800
M204 S800
G1 F720
G1 X111.767 Y111.438 E.02699
G1 X112.266 Y111.071 E.02359
G1 X112.814 Y110.745 E.02428
G1 X113.398 Y110.471 E.02458
G1 X114.102 Y110.228 E.02833
G1 X114.682 Y110.094 E.02268
G1 X115.356 Y110.005 E.02589
G1 X115.928 Y109.986 E.02179
G1 X116.626 Y110.03 E.02664
G1 X117.185 Y110.119 E.02153
G1 X117.757 Y110.265 E.02249
G1 X118.381 Y110.489 E.02524
G1 X118.995 Y110.785 E.02597
G1 X119.534 Y111.114 E.02405
M73 P16 R3
G1 X120.029 Y111.487 E.0236
G1 X120.469 Y111.887 E.02264
G1 X120.929 Y112.396 E.02611
G1 X121.245 Y112.822 E.0202
G1 X121.591 Y113.386 E.0252
G1 X121.867 Y113.96 E.02424
G1 X122.067 Y114.494 E.0217
G1 X122.222 Y115.061 E.0224
G1 X122.338 Y115.733 E.02596
G1 X122.383 Y116.412 E.02592
G1 X122.362 Y117.026 E.02341
G1 X122.277 Y117.675 E.02489
G1 X122.116 Y118.347 E.02631
G1 X121.931 Y118.887 E.02175
G1 X121.607 Y119.584 E.02927
G1 X121.306 Y120.089 E.02237
G1 X120.953 Y120.573 E.02282
G1 X120.553 Y121.028 E.02306
G1 X120.144 Y121.417 E.02152
G1 X119.575 Y121.858 E.0274
G1 X119.049 Y122.186 E.02359
G1 X118.496 Y122.462 E.02356
G1 X117.962 Y122.67 E.02179
G1 X117.276 Y122.862 E.02712
G1 X116.665 Y122.967 E.02364
G1 X115.947 Y123.016 E.02737
G1 X115.383 Y122.998 E.02151
G1 X114.676 Y122.906 E.02712
G1 X114.072 Y122.763 E.02365
G1 X113.416 Y122.537 E.02642
G1 X112.814 Y122.255 E.02532
G1 X112.28 Y121.939 E.02361
G1 X111.773 Y121.569 E.0239
G1 X111.285 Y121.131 E.02496
G1 X110.806 Y120.603 E.02715
G1 X110.439 Y120.102 E.02363
G1 X110.113 Y119.555 E.02427
G1 X109.839 Y118.97 E.02458
G1 X109.626 Y118.368 E.02434
G1 X109.463 Y117.694 E.02641
G1 X109.374 Y117.021 E.02585
G1 X109.353 Y116.508 E.01956
M73 P17 R3
G1 X109.383 Y115.877 E.02402
G1 X109.487 Y115.186 E.02663
G1 X109.654 Y114.542 E.02532
G1 X109.868 Y113.96 E.02362
G1 X110.176 Y113.331 E.02665
G1 X110.482 Y112.834 E.02225
G1 X110.855 Y112.339 E.02357
G1 X111.202 Y111.959 E.0196
M204 S1000
; printing object Jogurt.stl id:0 copy 0
G1 E-2.4 F1200
;WIPE_START
G1 F8640
G1 X111.767 Y111.438 E-.10141
G1 X112.266 Y111.071 E-.08173
G1 X112.814 Y110.745 E-.08412
G1 X113.398 Y110.471 E-.08518
G1 X114.102 Y110.228 E-.09817
G1 X114.682 Y110.094 E-.07859
G1 X115.356 Y110.005 E-.08973
G1 X115.928 Y109.986 E-.07552
G1 X116.626 Y110.03 E-.0923
G1 X117.185 Y110.119 E-.07461
G1 X117.757 Y110.265 E-.07794
G1 X118.381 Y110.489 E-.08745
G1 X118.995 Y110.785 E-.08997
G1 X119.534 Y111.114 E-.08332
G1 X120.029 Y111.487 E-.08178
G1 X120.469 Y111.887 E-.07845
G1 X120.929 Y112.396 E-.09047
G1 X121.242 Y112.817 E-.06925
;WIPE_END
G1 E-.08 F1200
G1 Z.525 F10800
G1 X115.407 Y111.504
G1 Z.25
G1 E4 F1800
M204 S800
;TYPE:Perimeter
;WIDTH:0.419999
G1 F720
G1 X116.186 Y111.497 E.02966
G1 X116.692 Y111.551 E.01937
G1 X117.312 Y111.691 E.02419
G1 X117.811 Y111.87 E.02022
G1 X118.287 Y112.1 E.02011
G1 X118.906 Y112.509 E.02825
G1 X119.416 Y112.947 E.0256
G1 X119.778 Y113.348 E.02059
G1 X120.156 Y113.9 E.02548
G1 X120.491 Y114.539 E.02744
G1 X120.701 Y115.154 E.02474
G1 X120.809 Y115.644 E.01911
G1 X120.873 Y116.196 E.02117
G1 X120.874 Y116.896 E.02665
G1 X120.806 Y117.412 E.01981
G1 X120.614 Y118.128 E.02823
G1 X120.399 Y118.645 E.02132
G1 X120.164 Y119.091 E.01921
G1 X119.783 Y119.644 E.02558
G1 X119.338 Y120.125 E.02492
M73 P18 R3
G1 X118.921 Y120.478 E.02085
G1 X118.326 Y120.88 E.02732
G1 X117.704 Y121.17 E.02614
G1 X117.181 Y121.339 E.02092
G1 X116.494 Y121.483 E.02675
G1 X115.928 Y121.523 E.0216
G1 X115.226 Y121.473 E.02677
G1 X114.724 Y121.384 E.01944
G1 X114.217 Y121.234 E.02013
G1 X113.725 Y121.035 E.02021
G1 X113.097 Y120.688 E.02732
G1 X112.529 Y120.242 E.0275
G1 X112.124 Y119.835 E.02187
G1 X111.68 Y119.271 E.02732
G1 X111.332 Y118.64 E.02746
G1 X111.141 Y118.178 E.01904
G1 X110.981 Y117.622 E.02201
G1 X110.865 Y116.916 E.02724
G1 X110.872 Y116.008 E.03457
G1 X111.01 Y115.254 E.0292
G1 X111.162 Y114.764 E.01952
G1 X111.387 Y114.25 E.02137
G1 X111.719 Y113.671 E.02543
G1 X112.164 Y113.117 E.02703
G1 X112.534 Y112.753 E.01977
G1 X113.097 Y112.312 E.02724
G1 X113.728 Y111.965 E.02744
G1 X114.302 Y111.738 E.02348
G1 X114.954 Y111.563 E.02573
G1 X115.348 Y111.511 E.01512
M204 S1000
G1 X116.261 Y111.135 F10800
M204 S800
G1 F720
G1 X116.751 Y111.19 E.01875
G1 X117.419 Y111.34 E.02608
G1 X117.953 Y111.532 E.02162
G1 X118.463 Y111.778 E.02154
G1 X118.906 Y112.05 E.01981
G1 X119.491 Y112.519 E.02854
G1 X119.915 Y112.953 E.0231
G1 X120.316 Y113.458 E.02454
G1 X120.605 Y113.933 E.02119
G1 X120.828 Y114.395 E.01952
G1 X121.054 Y115.056 E.02662
G1 X121.17 Y115.581 E.02047
G1 X121.239 Y116.171 E.02263
M73 P19 R3
G1 X121.248 Y116.675 E.0192
G1 X121.203 Y117.201 E.02009
G1 X121.083 Y117.826 E.02425
G1 X120.883 Y118.474 E.02581
G1 X120.607 Y119.064 E.0248
G1 X120.206 Y119.687 E.02823
G1 X119.886 Y120.082 E.01935
G1 X119.415 Y120.558 E.02549
G1 X118.937 Y120.929 E.02304
G1 X118.505 Y121.199 E.0194
G1 X117.837 Y121.511 E.02808
G1 X117.28 Y121.692 E.02229
G1 X116.786 Y121.804 E.01928
G1 X116.167 Y121.873 E.02372
G1 X115.481 Y121.875 E.02613
G1 X114.886 Y121.799 E.02284
G1 X114.394 Y121.683 E.01926
G1 X113.831 Y121.489 E.02267
G1 X113.334 Y121.256 E.02091
G1 X112.894 Y120.994 E.01947
G1 X112.489 Y120.698 E.01909
G1 X112.073 Y120.326 E.02126
G1 X111.675 Y119.884 E.02266
G1 X111.374 Y119.474 E.01938
G1 X111.113 Y119.035 E.01945
G1 X110.878 Y118.535 E.02103
G1 X110.709 Y118.056 E.01933
G1 X110.569 Y117.478 E.02265
G1 X110.498 Y116.939 E.02071
G1 X110.506 Y115.979 E.03652
G1 X110.593 Y115.403 E.02219
G1 X110.731 Y114.872 E.0209
G1 X110.908 Y114.396 E.01934
G1 X111.166 Y113.868 E.02236
G1 X111.556 Y113.279 E.0269
G1 X111.894 Y112.87 E.0202
G1 X112.29 Y112.48 E.02118
G1 X112.693 Y112.154 E.01972
G1 X113.11 Y111.878 E.01905
G1 X113.573 Y111.633 E.01995
G1 X114.182 Y111.391 E.02497
G1 X114.666 Y111.253 E.01914
G1 X115.172 Y111.165 E.01957
G1 X115.681 Y111.12 E.01946
G1 X116.202 Y111.133 E.01982
M204 S1000
G1 E-2.4 F1200
;WIPE_START
M73 P20 R3
G1 F8640
G1 X116.751 Y111.19 E-.07286
G1 X117.419 Y111.34 E-.09037
G1 X117.953 Y111.532 E-.07492
G1 X118.463 Y111.778 E-.07465
G1 X118.906 Y112.05 E-.06864
G1 X119.491 Y112.519 E-.09889
G1 X119.915 Y112.953 E-.08006
G1 X120.316 Y113.458 E-.08503
G1 X120.605 Y113.933 E-.07343
G1 X120.828 Y114.395 E-.06765
G1 X121.054 Y115.056 E-.09223
G1 X121.17 Y115.581 E-.07092
G1 X121.239 Y116.171 E-.07841
G1 X121.248 Y116.675 E-.06652
G1 X121.203 Y117.201 E-.06961
G1 X121.083 Y117.826 E-.08403
G1 X120.883 Y118.474 E-.08942
G1 X120.607 Y119.064 E-.08595
G1 X120.211 Y119.678 E-.09643
;WIPE_END
G1 E-.08 F1200
G1 Z.525 F10800
G1 X115.213 Y122.21
G1 Z.25
G1 E4 F1800
M204 S800
G1 F720
G1 X114.821 Y122.159 E.01507
G1 X114.292 Y122.036 E.02069
G1 X113.693 Y121.829 E.02412
G1 X113.162 Y121.58 E.02233
G1 X112.692 Y121.3 E.02082
G1 X112.259 Y120.984 E.02044
G1 X111.815 Y120.586 E.0227
G1 X111.39 Y120.116 E.02412
G1 X111.068 Y119.676 E.02076
G1 X110.789 Y119.207 E.0208
G1 X110.539 Y118.674 E.02241
G1 X110.357 Y118.16 E.02073
M73 P20 R2
G1 X110.209 Y117.545 E.02411
G1 X110.132 Y116.961 E.02243
G1 X110.14 Y115.951 E.03848
G1 X110.193 Y115.596 E.01366
G1 X110.314 Y115.022 E.02232
G1 X110.475 Y114.51 E.02044
G1 X110.729 Y113.928 E.0242
G1 X110.984 Y113.467 E.02004
G1 X111.285 Y113.03 E.02019
G1 X111.623 Y112.623 E.02017
G1 X112.046 Y112.207 E.0226
G1 X112.476 Y111.859 E.02107
G1 X112.923 Y111.564 E.02037
G1 X113.417 Y111.301 E.02132
G1 X114.063 Y111.045 E.02646
G1 X114.584 Y110.896 E.02061
G1 X115.186 Y110.793 E.02326
G1 X115.909 Y110.746 E.02757
G1 X116.551 Y110.786 E.0245
G1 X117.274 Y110.925 E.02804
M73 P21 R2
G1 X117.813 Y111.092 E.0215
G1 X118.383 Y111.332 E.02353
G1 X118.881 Y111.605 E.02163
G1 X119.347 Y111.924 E.02152
G1 X119.738 Y112.248 E.01932
G1 X120.187 Y112.707 E.02447
G1 X120.62 Y113.253 E.0265
G1 X120.928 Y113.757 E.02251
G1 X121.165 Y114.251 E.02085
G1 X121.407 Y114.959 E.02849
G1 X121.531 Y115.518 E.02182
G1 X121.604 Y116.147 E.02409
G1 X121.614 Y116.687 E.02058
G1 X121.567 Y117.249 E.02147
G1 X121.439 Y117.912 E.02571
G1 X121.223 Y118.611 E.02787
G1 X120.931 Y119.236 E.02626
G1 X120.525 Y119.871 E.02868
G1 X120.191 Y120.29 E.02042
G1 X119.844 Y120.655 E.01916
G1 X119.37 Y121.057 E.02368
G1 X118.908 Y121.38 E.02148
G1 X118.442 Y121.641 E.02033
G1 X117.97 Y121.852 E.01968
G1 X117.379 Y122.045 E.02366
G1 X116.849 Y122.165 E.02071
G1 X116.193 Y122.239 E.02514
G1 X115.452 Y122.241 E.02822
G1 X115.273 Y122.218 E.00688
M204 S1000
G1 E-2.4 F1200
;WIPE_START
G1 F8640
G1 X114.821 Y122.159 E-.06013
G1 X114.292 Y122.036 E-.07168
G1 X113.693 Y121.829 E-.08358
G1 X113.162 Y121.58 E-.07739
G1 X112.692 Y121.3 E-.07213
G1 X112.259 Y120.984 E-.07083
G1 X111.815 Y120.586 E-.07866
G1 X111.39 Y120.116 E-.08356
G1 X111.068 Y119.676 E-.07192
G1 X110.789 Y119.207 E-.07207
G1 X110.539 Y118.674 E-.07765
G1 X110.357 Y118.16 E-.07183
G1 X110.209 Y117.545 E-.08355
G1 X110.132 Y116.961 E-.07771
G1 X110.14 Y115.951 E-.13334
G1 X110.193 Y115.596 E-.04733
G1 X110.314 Y115.022 E-.07735
G1 X110.475 Y114.51 E-.07084
G1 X110.729 Y113.928 E-.08384
G1 X110.929 Y113.565 E-.0546
;WIPE_END
G1 E-.08 F1200
G1 Z.525 F10800
G1 X113.646 Y110.817
G1 Z.25
G1 E4 F1800
M204 S800
;TYPE:External perimeter
G1 F720
M73 P22 R2
G1 X113.944 Y110.698 E.01222
G1 X114.502 Y110.539 E.02209
G1 X115.139 Y110.43 E.02461
G1 X115.657 Y110.388 E.01979
G1 X116.311 Y110.404 E.02493
G1 X116.869 Y110.466 E.02135
G1 X117.364 Y110.57 E.01928
G1 X117.937 Y110.748 E.02285
G1 X118.542 Y111.003 E.02499
G1 X119.073 Y111.293 E.02303
G1 X119.568 Y111.632 E.02286
G1 X119.985 Y111.977 E.02061
G1 X120.459 Y112.462 E.02583
G1 X120.924 Y113.048 E.02847
G1 X121.25 Y113.582 E.02382
G1 X121.503 Y114.106 E.02217
G1 X121.69 Y114.607 E.02037
G1 X121.837 Y115.139 E.02098
G1 X121.946 Y115.77 E.02442
G1 X121.989 Y116.41 E.02441
G1 X121.971 Y116.986 E.02192
G1 X121.888 Y117.612 E.02407
G1 X121.736 Y118.245 E.02477
G1 X121.563 Y118.748 E.02028
G1 X121.256 Y119.408 E.02771
G1 X120.974 Y119.878 E.02086
G1 X120.641 Y120.333 E.02145
G1 X120.275 Y120.75 E.02114
G1 X119.894 Y121.114 E.02006
G1 X119.357 Y121.531 E.02588
G1 X118.864 Y121.839 E.02214
G1 X118.344 Y122.1 E.02217
G1 X117.846 Y122.294 E.02035
G1 X117.198 Y122.476 E.02561
G1 X116.626 Y122.575 E.02211
G1 X115.949 Y122.623 E.02585
G1 X115.423 Y122.606 E.02005
G1 X114.755 Y122.52 E.02562
G1 X114.19 Y122.388 E.02212
G1 X113.555 Y122.169 E.02557
G1 X112.99 Y121.904 E.02376
G1 X112.49 Y121.606 E.02216
G1 X112.028 Y121.269 E.02179
G1 X111.556 Y120.846 E.02413
G1 X111.106 Y120.347 E.02557
G1 X110.762 Y119.878 E.02213
M73 P23 R2
G1 X110.465 Y119.379 E.02215
G1 X110.2 Y118.813 E.02379
G1 X110.006 Y118.265 E.02213
G1 X109.848 Y117.612 E.02557
G1 X109.765 Y116.984 E.02414
G1 X109.774 Y115.922 E.04044
G1 X109.831 Y115.541 E.01465
G1 X109.959 Y114.929 E.0238
G1 X110.131 Y114.383 E.02182
G1 X110.4 Y113.766 E.02561
G1 X110.672 Y113.274 E.02141
G1 X110.992 Y112.81 E.02148
G1 X111.353 Y112.376 E.02148
G1 X111.802 Y111.933 E.02401
G1 X112.26 Y111.563 E.02242
G1 X112.735 Y111.249 E.02169
G1 X113.262 Y110.97 E.0227
G1 X113.59 Y110.839 E.01345
M204 S1000
G1 X113.902 Y111.01 F10800
G1 X114.148 Y112.081
M204 S800
;TYPE:Solid infill
;WIDTH:0.42
G1 F720
G1 X114.132 Y112.097 E.00085
G1 X114.392 Y112.356 E.01395
G1 X114.651 Y112.097 E.01395
G1 X114.91 Y112.356 E.01395
G1 X114.392 Y112.874 E.0279
G1 X114.132 Y112.615 E.01395
G1 X113.873 Y112.874 E.01395
G1 X114.392 Y113.392 E.0279
G1 X114.651 Y113.133 E.01395
G1 X114.91 Y113.392 E.01395
G1 X114.651 Y113.651 E.01395
G1 X115.169 Y114.169 E.0279
G1 X115.428 Y113.91 E.01395
G1 X115.169 Y113.651 E.01395
G1 X115.428 Y113.392 E.01395
G1 X115.687 Y113.651 E.01395
G1 X115.946 Y113.392 E.01395
G1 X115.428 Y112.874 E.0279
G1 X115.169 Y113.133 E.01395
G1 X114.91 Y112.874 E.01395
G1 X115.687 Y112.097 E.04185
G1 X115.946 Y112.356 E.01395
G1 X115.687 Y112.615 E.01395
G1 X116.205 Y113.133 E.0279
G1 X116.464 Y112.874 E.01395
G1 X116.205 Y112.615 E.01395
G1 X116.464 Y112.356 E.01395
G1 X116.723 Y112.615 E.01395
G1 X116.982 Y112.356 E.01395
G1 X116.464 Y111.838 E.0279
G1 X116.205 Y112.097 E.01395
G1 X115.946 Y111.838 E.01395
G1 X116.017 Y111.767 E.00382
M204 S1000
G1 X115.496 Y111.769 F10800
M204 S800
G1 F720
M73 P24 R2
G1 X115.169 Y112.097 E.01764
G1 X114.924 Y111.852 E.0132
M204 S1000
G1 X113.768 Y112.25 F10800
M204 S800
G1 F720
G1 X113.873 Y112.356 E.0057
G1 X113.614 Y112.615 E.01395
G1 X113.432 Y112.433 E.00981
M204 S1000
G1 X113.119 Y112.637 F10800
M204 S800
G1 F720
G1 X113.355 Y112.874 E.01274
G1 X113.096 Y113.133 E.01395
G1 X112.837 Y112.874 E.01395
G1 X112.319 Y113.392 E.0279
G1 X112.578 Y113.651 E.01395
G1 X112.837 Y113.392 E.01395
G1 X113.096 Y113.651 E.01395
G1 X112.837 Y113.91 E.01395
G1 X113.096 Y114.169 E.01395
G1 X113.614 Y113.651 E.0279
G1 X113.355 Y113.392 E.01395
G1 X113.614 Y113.133 E.01395
G1 X114.132 Y113.651 E.0279
G1 X113.873 Y113.91 E.01395
G1 X114.132 Y114.169 E.01395
G1 X114.392 Y113.91 E.01395
G1 X114.91 Y114.428 E.0279
G1 X114.651 Y114.687 E.01395
G1 X114.392 Y114.428 E.01395
G1 X114.132 Y114.687 E.01395
G1 X114.392 Y114.946 E.01395
G1 X114.132 Y115.205 E.01395
