; generated by PrusaSlicer 2.5.0 on 2022-09-19 at 11:44:16 UTC


;
;

;
;
; 

; external perimeters extrusion width = 0.45mm
; perimeters extrusion width = 0.45mm
; infill extrusion width = 0.45mm
; solid infill extrusion width = 0.45mm
; top infill extrusion width = 0.40mm
; first layer extrusion width = 0.42mm

; external perimeters extrusion width = 0.45mm
; perimeters extrusion width = 0.45mm
; infill extrusion width = 0.45mm
; solid infill extrusion width = 0.45mm
; top infill extrusion width = 0.40mm
; first layer extrusion width = 0.42mm

; external perimeters extrusion width = 0.45mm
; perimeters extrusion width = 0.45mm
; infill extrusion width = 0.45mm
; solid infill extrusion width = 0.45mm
; top infill extrusion width = 0.40mm
; first layer extrusion width = 0.42mm

M73 P0 R132
M107
;TYPE:Custom
G90 ; use absolute coordinates
M83 ; extruder relative mode
M204 S1250 T1250
M104 S215 ; set extruder temp
M140 S80 ; set bed temp
G28 ; home all
G1 Y1.0 Z0.3 F1000 ; move print head up
M190 S80 ; wait for bed temp
M109 S215 ; wait for extruder temp
G92 E0.0
; initial load
G1 X205.0 E19 F1000
G1 Y1.6
M73 P0 R131
G1 X5.0 E19 F1000
G92 E0.0
; intro line
G1 Y2.0 Z0.2 F1000
G1 X65.0 E9.0 F1000
G1 X105.0 E12.5 F1000
G92 E0.0
G21 ; set units to millimeters
G90 ; use absolute coordinates
M83 ; use relative distances for extrusion
; Filament gcode
M107
;LAYER_CHANGE
;Z:0.25
;HEIGHT:0.25
;BEFORE_LAYER_CHANGE
G92 E0.0
;0.25
G1 E-4 F1200
G1 Z.275 F10800
;AFTER_LAYER_CHANGE
;0.25
G1 X123.752 Y93.725
G1 Z.25
G1 E4 F1800
M204 S800
;TYPE:Skirt/Brim
;WIDTH:0.42
G1 F720
G1 X124.477 Y92.801 E.04474
G1 X125.23 Y91.907 E.0445
G1 X126.022 Y91.031 E.04498
G1 X126.804 Y90.221 E.04288
G1 X127.679 Y89.374 E.04635
G1 X128.556 Y88.582 E.04499
G1 X129.449 Y87.829 E.0445
G1 X130.373 Y87.103 E.04474
G1 X131.327 Y86.406 E.04498
G1 X132.298 Y85.745 E.04474
G1 X133.286 Y85.121 E.0445
G1 X134.306 Y84.524 E.04498
G1 X135.339 Y83.966 E.04474
G1 X136.386 Y83.446 E.0445
G1 X137.456 Y82.96 E.04474
G1 X138.547 Y82.507 E.04499
G1 X139.688 Y82.082 E.04635
G1 X140.755 Y81.723 E.04288
G1 X141.887 Y81.385 E.04498
G1 X143.023 Y81.087 E.04474
G1 X144.163 Y80.83 E.0445
G1 X145.318 Y80.611 E.04474
G1 X146.485 Y80.43 E.04498
G1 X147.652 Y80.29 E.04474
G1 X148.816 Y80.19 E.0445
G1 X149.996 Y80.13 E.04498
G1 X151.164 Y80.11 E.0445
G1 X152.29 Y80.129 E.04289
G1 X153.512 Y80.19 E.04658
G1 X154.689 Y80.29 E.04499
G1 X155.85 Y80.43 E.0445
G1 X157.011 Y80.609 E.04474
G1 X158.171 Y80.83 E.04497
G1 X159.311 Y81.087 E.0445
G1 X160.401 Y81.373 E.04289
G1 X161.58 Y81.723 E.04683
G1 X162.733 Y82.112 E.04635
G1 X163.788 Y82.508 E.04288
G1 X164.879 Y82.96 E.04498
G1 X165.943 Y83.443 E.0445
G1 X166.952 Y83.944 E.04289
G1 X168.034 Y84.527 E.04682
G1 X169.049 Y85.121 E.04474
G1 X170.037 Y85.745 E.0445
G1 X171.013 Y86.409 E.04498
G1 X171.956 Y87.1 E.0445
G1 X172.88 Y87.825 E.04474
G1 X173.784 Y88.586 E.04498
G1 X174.656 Y89.374 E.04474
G1 X175.496 Y90.186 E.0445
G1 X176.313 Y91.031 E.04474
G1 X177.1 Y91.903 E.04474
G1 X177.861 Y92.806 E.04498
G1 X178.587 Y93.73 E.04474
G1 X179.277 Y94.673 E.0445
G1 X179.942 Y95.65 E.04498
G1 X180.566 Y96.638 E.0445
G1 X181.159 Y97.652 E.04474
G1 X181.72 Y98.691 E.04498
G1 X182.243 Y99.744 E.04474
G1 X182.727 Y100.807 E.0445
G1 X183.179 Y101.899 E.04498
G1 X183.589 Y102.993 E.0445
G1 X183.948 Y104.061 E.04289
G1 X184.302 Y105.239 E.04682
G1 X184.598 Y106.369 E.0445
G1 X184.846 Y107.468 E.04289
G1 X185.077 Y108.676 E.04682
G1 X185.257 Y109.837 E.04474
G1 X185.397 Y111.003 E.04474
G1 X185.496 Y112.168 E.0445
G1 X185.557 Y113.347 E.04498
G1 X185.577 Y114.516 E.0445
G1 X185.557 Y115.691 E.04474
G1 X185.496 Y116.87 E.04498
G1 X185.397 Y118.035 E.0445
G1 X185.257 Y119.201 E.04474
G1 X185.076 Y120.369 E.04498
G1 X184.856 Y121.523 E.04475
G1 X184.587 Y122.71 E.04635
G1 X184.302 Y123.8 E.04288
G1 X183.964 Y124.931 E.04498
G1 X183.591 Y126.039 E.0445
G1 X183.179 Y127.139 E.04474
G1 X182.727 Y128.231 E.04498
G1 X182.243 Y129.295 E.0445
G1 X181.742 Y130.303 E.04289
G1 X181.159 Y131.386 E.04682
G1 X180.566 Y132.4 E.04474
G1 X179.942 Y133.388 E.0445
G1 X179.277 Y134.365 E.04498
G1 X178.587 Y135.308 E.0445
G1 X177.861 Y136.232 E.04474
G1 X177.1 Y137.135 E.04498
G1 X176.317 Y138.003 E.0445
G1 X175.534 Y138.813 E.04289
G1 X174.651 Y139.669 E.04683
G1 X173.784 Y140.452 E.0445
G1 X172.885 Y141.209 E.04474
G1 X171.956 Y141.939 E.04498
G1 X171.013 Y142.629 E.0445
G1 X170.042 Y143.29 E.04474
G1 X169.049 Y143.918 E.04474
G1 X168.034 Y144.511 E.04474
G1 X166.995 Y145.072 E.04498
G1 X165.943 Y145.595 E.04474
G1 X164.879 Y146.079 E.0445
G1 X163.788 Y146.531 E.04498
G1 X162.687 Y146.943 E.04474
G1 X161.58 Y147.315 E.0445
G1 X160.448 Y147.653 E.04498
G1 X159.317 Y147.949 E.0445
G1 X158.219 Y148.198 E.04289
G1 X157.011 Y148.429 E.04682
G1 X155.85 Y148.608 E.04474
G1 X154.683 Y148.748 E.04474
G1 X153.519 Y148.848 E.0445
G1 X152.339 Y148.909 E.04498
G1 X151.17 Y148.929 E.0445
G1 X149.996 Y148.909 E.04474
G1 X148.816 Y148.848 E.04498
G1 X147.645 Y148.748 E.04474
G1 X146.485 Y148.609 E.0445
G1 X145.324 Y148.429 E.04474
G1 X144.163 Y148.208 E.04497
G1 X143.023 Y147.951 E.0445
G1 X141.934 Y147.666 E.04289
G1 X140.755 Y147.315 E.04682
G1 X139.647 Y146.943 E.0445
G1 X138.547 Y146.531 E.04474
G1 X137.456 Y146.079 E.04498
G1 X136.392 Y145.595 E.0445
G1 X135.383 Y145.094 E.04289
G1 X134.3 Y144.511 E.04682
G1 X133.286 Y143.918 E.04474
G1 X132.298 Y143.293 E.0445
G1 X131.321 Y142.629 E.04498
G1 X130.378 Y141.939 E.0445
G1 X129.454 Y141.213 E.04474
G1 X128.551 Y140.452 E.04498
G1 X127.683 Y139.669 E.0445
G1 X126.873 Y138.886 E.04289
G1 X126.017 Y138.003 E.04683
G1 X125.235 Y137.135 E.0445
G1 X124.477 Y136.237 E.04474
G1 X123.748 Y135.308 E.04498
G1 X123.058 Y134.365 E.0445
G1 X122.396 Y133.394 E.04474
G1 X121.769 Y132.4 E.04474
G1 X121.175 Y131.386 E.04474
G1 X120.614 Y130.347 E.04498
G1 X120.092 Y129.295 E.04474
G1 X119.608 Y128.231 E.0445
G1 X119.156 Y127.139 E.04498
G1 X118.744 Y126.039 E.04474
G1 X118.371 Y124.931 E.0445
G1 X118.033 Y123.8 E.04498
G1 X117.737 Y122.669 E.0445
G1 X117.489 Y121.57 E.04289
G1 X117.258 Y120.363 E.04682
G1 X117.078 Y119.201 E.04474
G1 X116.938 Y118.035 E.04474
G1 X116.838 Y116.87 E.0445
G1 X116.778 Y115.691 E.04498
G1 X116.758 Y114.522 E.0445
G1 X116.778 Y113.347 E.04474
G1 X116.838 Y112.168 E.04498
G1 X116.939 Y110.997 E.04475
G1 X117.085 Y109.789 E.04635
G1 X117.258 Y108.676 E.04288
G1 X117.478 Y107.515 E.04499
G1 X117.748 Y106.328 E.04635
G1 X118.033 Y105.239 E.04288
G1 X118.371 Y104.107 E.04498
G1 X118.744 Y102.999 E.0445
G1 X119.156 Y101.899 E.04474
G1 X119.608 Y100.807 E.04498
G1 X120.092 Y99.744 E.0445
G1 X120.614 Y98.691 E.04474
G1 X121.175 Y97.652 E.04498
G1 X121.769 Y96.638 E.04474
G1 X122.393 Y95.65 E.0445
G1 X123.054 Y94.678 E.04474
G1 X123.716 Y93.774 E.04269
M204 S1000
G1 E-2.4 F1200
;WIPE_START
G1 F8640
G1 X124.477 Y92.801 E-.16293
G1 X125.23 Y91.907 E-.15421
G1 X126.022 Y91.031 E-.15585
G1 X126.804 Y90.221 E-.14859
G1 X127.679 Y89.374 E-.16061
G1 X128.556 Y88.582 E-.15588
G1 X129.449 Y87.829 E-.1542
G1 X130.373 Y87.103 E-.15502
G1 X131.327 Y86.406 E-.15586
G1 X132.059 Y85.908 E-.11684
;WIPE_END
G1 E-.08 F1200
G1 Z.525 F10800
G1 X114.547 Y93.774
G1 Z.25
G1 E4 F1800
M204 S800
G1 F720
G1 X114.547 Y95.945 E.08268
G1 X114.527 Y96.63 E.0261
G1 X114.47 Y97.308 E.02591
G1 X114.375 Y97.982 E.02591
G1 X114.243 Y98.649 E.02591
G1 X114.076 Y99.298 E.02552
G1 X113.871 Y99.947 E.02591
G1 X113.625 Y100.592 E.02629
G1 X113.353 Y101.205 E.02552
G1 X113.042 Y101.81 E.02591
G1 X112.698 Y102.397 E.0259
G1 X112.316 Y102.972 E.02632
G1 X111.887 Y103.541 E.02711
G1 X111.471 Y104.038 E.02468
G1 X111.012 Y104.526 E.02552
G1 X110.519 Y104.995 E.02591
G1 X110.001 Y105.437 E.0259
G1 X109.451 Y105.854 E.02629
G1 X108.887 Y106.234 E.02591
G1 X108.312 Y106.577 E.02552
G1 X107.709 Y106.893 E.02591
G1 X107.089 Y107.174 E.02591
G1 X106.455 Y107.421 E.02591
G1 X105.758 Y107.645 E.02788
G1 X105.141 Y107.807 E.02431
G1 X104.479 Y107.943 E.02571
G1 X93.696 Y109.844 E.41693
G1 X93.078 Y109.934 E.02378
G1 X92.461 Y109.986 E.02358
G1 X91.842 Y110.001 E.02358
G1 X91.222 Y109.978 E.02361
G1 X90.579 Y109.914 E.02461
G1 X89.995 Y109.822 E.02252
G1 X89.39 Y109.689 E.02358
G1 X88.805 Y109.523 E.02316
G1 X88.21 Y109.315 E.024
G1 X87.649 Y109.08 E.02316
G1 X87.093 Y108.808 E.02358
G1 X86.513 Y108.476 E.02544
G1 X86.026 Y108.159 E.02213
G1 X85.537 Y107.797 E.02316
G1 X85.058 Y107.396 E.02379
G1 X83.939 Y106.402 E.05699
G1 X83.544 Y106.075 E.01952
G1 X83.129 Y105.78 E.01939
G1 X82.694 Y105.516 E.01939
G1 X82.24 Y105.284 E.01939
G1 X81.771 Y105.086 E.01939
G1 X81.319 Y104.933 E.01816
G1 X80.796 Y104.794 E.02063
G1 X80.295 Y104.702 E.01938
G1 X79.789 Y104.647 E.01939
G1 X79.277 Y104.628 E.01952
G1 X63.638 Y104.628 E.59547
G1 X63.538 Y104.547 E.00494
G1 X63.274 Y103.315 E.04798
G1 X63.062 Y102.144 E.04529
G1 X62.886 Y100.962 E.04551
G1 X62.747 Y99.769 E.04573
G1 X62.646 Y98.579 E.04551
G1 X62.582 Y97.385 E.04551
G1 X62.556 Y96.206 E.0449
G1 X62.566 Y94.995 E.04612
G1 X62.615 Y93.801 E.04551
G1 X62.7 Y92.615 E.04529
G1 X62.831 Y91.356 E.04819
G1 X62.935 Y91.262 E.00536
G1 X78.772 Y91.262 E.603
G1 X79.324 Y91.281 E.02105
G1 X79.893 Y91.34 E.02179
G1 X80.476 Y91.443 E.02255
G1 X80.986 Y91.569 E.01999
G1 X81.507 Y91.735 E.02081
G1 X82.027 Y91.94 E.02129
G1 X82.542 Y92.187 E.02176
G1 X83.029 Y92.462 E.02128
G1 X83.495 Y92.77 E.02129
G1 X83.939 Y93.109 E.02129
G1 X84.35 Y93.47 E.02081
G1 X84.753 Y93.875 E.02176
G1 X85.118 Y94.298 E.02128
G1 X85.454 Y94.745 E.02129
G1 X85.752 Y95.204 E.02081
G1 X86.024 Y95.692 E.02129
G1 X86.262 Y96.198 E.02129
G1 X86.465 Y96.719 E.02129
G1 X86.631 Y97.252 E.02128
G1 X86.763 Y97.808 E.02176
G1 X86.855 Y98.36 E.02129
G1 X86.907 Y98.904 E.02081
G1 X86.908 Y100.52 E.06155
G1 X86.99 Y100.921 E.01557
G1 X87.109 Y101.324 E.01599
G1 X87.26 Y101.715 E.01599
G1 X87.443 Y102.093 E.01599
G1 X87.657 Y102.455 E.01599
G1 X87.9 Y102.797 E.01598
G1 X88.171 Y103.118 E.016
G1 X88.467 Y103.416 E.01599
G1 X88.787 Y103.688 E.01599
G1 X89.128 Y103.932 E.01599
G1 X89.489 Y104.148 E.01599
G1 X89.866 Y104.333 E.01599
G1 X90.257 Y104.486 E.01599
G1 X90.659 Y104.606 E.01599
G1 X91.07 Y104.692 E.01599
G1 X91.487 Y104.744 E.01599
G1 X91.909 Y104.762 E.01609
G1 X93.397 Y104.742 E.05666
G1 X94.059 Y104.684 E.02531
G1 X94.718 Y104.588 E.02536
G1 X95.37 Y104.453 E.02536
G1 X96.014 Y104.281 E.02536
G1 X96.646 Y104.071 E.02536
G1 X97.265 Y103.825 E.02536
G1 X97.869 Y103.544 E.02536
G1 X98.455 Y103.228 E.02536
G1 X99.022 Y102.878 E.02536
G1 X99.567 Y102.496 E.02536
G1 X100.09 Y102.083 E.02536
G1 X100.587 Y101.64 E.02536
G1 X101.058 Y101.169 E.02536
G1 X101.501 Y100.671 E.02536
G1 X101.914 Y100.149 E.02536
G1 X102.296 Y99.604 E.02535
G1 X102.666 Y98.999 E.02697
G1 X102.962 Y98.45 E.02376
G1 X103.244 Y97.846 E.02536
G1 X103.49 Y97.227 E.02536
G1 X103.699 Y96.595 E.02536
G1 X103.872 Y95.952 E.02536
G1 X104.006 Y95.299 E.02536
G1 X104.103 Y94.64 E.02536
G1 X104.161 Y93.978 E.02532
G1 X104.199 Y91.756 E.08462
G1 X104.258 Y91.303 E.0174
G1 X104.355 Y90.861 E.01721
G1 X104.49 Y90.43 E.01721
G1 X104.669 Y89.997 E.01781
G1 X104.879 Y89.597 E.01721
G1 X105.122 Y89.216 E.01722
G1 X105.388 Y88.869 E.01662
G1 X105.693 Y88.536 E.01722
G1 X106.048 Y88.212 E.01829
G1 X106.384 Y87.954 E.01614
G1 X106.78 Y87.702 E.01786
G1 X107.192 Y87.49 E.01765
G1 X107.583 Y87.327 E.01614
G1 X108.03 Y87.187 E.01782
G1 X108.471 Y87.089 E.01722
G1 X108.904 Y87.032 E.01662
G1 X109.399 Y87.013 E.01885
G1 X109.823 Y87.032 E.01617
G1 X110.271 Y87.092 E.01722
G1 X110.697 Y87.187 E.01662
G1 X111.129 Y87.322 E.01722
G1 X111.561 Y87.501 E.01782
G1 X111.948 Y87.702 E.01661
G1 X112.33 Y87.945 E.01722
G1 X112.701 Y88.23 E.01781
G1 X113.034 Y88.536 E.01722
G1 X113.329 Y88.857 E.01661
G1 X113.614 Y89.229 E.01782
G1 X113.856 Y89.61 E.01722
G1 X114.058 Y89.997 E.01662
G1 X114.231 Y90.415 E.01722
G1 X114.372 Y90.861 E.01782
G1 X114.469 Y91.303 E.01721
G1 X114.527 Y91.751 E.01722
G1 X114.547 Y92.195 E.01692
G1 X114.547 Y93.714 E.05782
M204 S1000
G1 E-2.4 F1200
;WIPE_START
G1 F8640
G1 X114.547 Y95.945 E-.29442
G1 X114.527 Y96.63 E-.09044
G1 X114.47 Y97.308 E-.08977
G1 X114.375 Y97.982 E-.08977
G1 X114.243 Y98.649 E-.08977
G1 X114.076 Y99.298 E-.08843
G1 X113.871 Y99.947 E-.08976
G1 X113.625 Y100.592 E-.09111
G1 X113.353 Y101.205 E-.08842
G1 X113.042 Y101.81 E-.08977
G1 X112.698 Y102.397 E-.08976
G1 X112.316 Y102.972 E-.09119
G1 X111.887 Y103.541 E-.09394
G1 X111.471 Y104.038 E-.08551
G1 X111.17 Y104.358 E-.05792
;WIPE_END
G1 E-.08 F1200
G1 Z.525 F10800
G1 X107.964 Y114.702
G1 Z.25
G1 E4 F1800
M204 S800
G1 F720
G1 X108.429 Y114.891 E.01914
G1 X108.816 Y115.093 E.01661
G1 X109.198 Y115.335 E.01722
G1 X109.569 Y115.62 E.01781
G1 X109.902 Y115.926 E.01722
G1 X110.197 Y116.247 E.01661
G1 X110.482 Y116.619 E.01782
G1 X110.724 Y117 E.01722
G1 X110.926 Y117.388 E.01662
G1 X111.099 Y117.805 E.01722
G1 X111.24 Y118.251 E.01782
G1 X111.337 Y118.693 E.01721
G1 X111.395 Y119.141 E.01722
G1 X111.415 Y119.585 E.01692
G1 X111.415 Y123.335 E.14279
G1 X111.395 Y124.02 E.0261
G1 X111.338 Y124.698 E.02591
G1 X111.243 Y125.372 E.02591
G1 X111.111 Y126.039 E.02591
G1 X110.944 Y126.688 E.02552
G1 X110.739 Y127.337 E.02591
G1 X110.493 Y127.982 E.02629
G1 X110.221 Y128.595 E.02552
G1 X109.91 Y129.2 E.02591
G1 X109.566 Y129.787 E.0259
G1 X109.184 Y130.362 E.02632
G1 X108.755 Y130.931 E.02711
G1 X108.339 Y131.428 E.02468
G1 X107.88 Y131.916 E.02552
G1 X107.387 Y132.386 E.02591
G1 X106.869 Y132.827 E.0259
G1 X106.319 Y133.244 E.02629
G1 X105.755 Y133.624 E.02591
G1 X105.18 Y133.968 E.02552
G1 X104.577 Y134.283 E.02591
G1 X103.957 Y134.564 E.02591
G1 X103.323 Y134.811 E.02591
G1 X102.626 Y135.035 E.02788
G1 X102.009 Y135.197 E.02431
G1 X101.347 Y135.333 E.02571
G1 X90.564 Y137.235 E.41693
G1 X89.946 Y137.324 E.02378
G1 X89.329 Y137.376 E.02358
G1 X88.71 Y137.391 E.02358
G1 X88.09 Y137.368 E.02361
G1 X87.447 Y137.304 E.02461
G1 X86.863 Y137.212 E.02252
G1 X86.258 Y137.079 E.02358
G1 X85.673 Y136.913 E.02316
G1 X85.078 Y136.705 E.024
G1 X84.517 Y136.47 E.02316
G1 X83.961 Y136.198 E.02358
G1 X83.381 Y135.866 E.02544
G1 X82.894 Y135.549 E.02213
G1 X82.405 Y135.187 E.02316
G1 X81.926 Y134.786 E.02379
G1 X80.807 Y133.792 E.05699
G1 X80.412 Y133.465 E.01952
M73 P0 R130
G1 X79.997 Y133.17 E.01939
G1 X79.562 Y132.906 E.01939
G1 X79.108 Y132.674 E.01939
G1 X78.639 Y132.476 E.01939
G1 X78.187 Y132.323 E.01816
G1 X77.664 Y132.184 E.02063
G1 X77.163 Y132.092 E.01938
G1 X76.657 Y132.037 E.01939
G1 X76.145 Y132.018 E.01952
G1 X60.506 Y132.018 E.59547
G1 X60.406 Y131.937 E.00494
G1 X60.142 Y130.705 E.04798
G1 X59.93 Y129.534 E.04529
G1 X59.754 Y128.352 E.04551
G1 X59.615 Y127.159 E.04573
G1 X59.514 Y125.969 E.04551
G1 X59.45 Y124.775 E.04551
G1 X59.424 Y123.596 E.0449
G1 X59.434 Y122.385 E.04612
G1 X59.483 Y121.191 E.04551
G1 X59.568 Y120.005 E.04529
G1 X59.699 Y118.746 E.04819
G1 X59.803 Y118.652 E.00536
G1 X75.64 Y118.652 E.603
G1 X76.192 Y118.671 E.02105
G1 X76.761 Y118.73 E.02179
G1 X77.344 Y118.833 E.02255
G1 X77.854 Y118.959 E.01999
G1 X78.375 Y119.125 E.02081
G1 X78.895 Y119.33 E.02129
G1 X79.41 Y119.577 E.02176
G1 X79.897 Y119.852 E.02128
G1 X80.363 Y120.16 E.02129
G1 X80.807 Y120.5 E.02129
G1 X81.218 Y120.86 E.02081
G1 X81.621 Y121.265 E.02176
G1 X81.986 Y121.688 E.02128
G1 X82.322 Y122.135 E.02129
G1 X82.62 Y122.594 E.02081
G1 X82.892 Y123.082 E.02129
G1 X83.13 Y123.588 E.02129
G1 X83.333 Y124.109 E.02129
G1 X83.499 Y124.643 E.02128
G1 X83.631 Y125.198 E.02176
G1 X83.723 Y125.75 E.02129
G1 X83.775 Y126.294 E.02081
G1 X83.776 Y127.911 E.06155
G1 X83.858 Y128.311 E.01557
G1 X83.977 Y128.714 E.01599
G1 X84.128 Y129.106 E.01599
G1 X84.311 Y129.483 E.01599
G1 X84.525 Y129.845 E.01599
G1 X84.768 Y130.187 E.01598
G1 X85.039 Y130.508 E.016
G1 X85.335 Y130.806 E.01599
G1 X85.655 Y131.078 E.01599
G1 X85.996 Y131.322 E.01599
G1 X86.357 Y131.538 E.01599
G1 X86.734 Y131.723 E.01599
G1 X87.125 Y131.876 E.01599
G1 X87.527 Y131.996 E.01599
G1 X87.938 Y132.082 E.01599
G1 X88.355 Y132.134 E.01599
G1 X88.777 Y132.152 E.01609
G1 X90.265 Y132.132 E.05666
G1 X90.927 Y132.074 E.02531
