; generated by PrusaSlicer 2.5.0 on 2022-09-12 at 20:20:17 UTC


;
;

;
;
; 

; external perimeters extrusion width = 0.45mm
; perimeters extrusion width = 0.45mm
; infill extrusion width = 0.45mm
; solid infill extrusion width = 0.45mm
; top infill extrusion width = 0.40mm
; first layer extrusion width = 0.42mm

M73 P0 R33
M107
;TYPE:Custom
G90 ; use absolute coordinates
M83 ; extruder relative mode
M204 S1250 T1250
M104 S215 ; set extruder temp
M140 S80 ; set bed temp
G28 ; home all
G1 Y1.0 Z0.3 F1000 ; move print head up
M190 S80 ; wait for bed temp
M109 S215 ; wait for extruder temp
G92 E0.0
; initial load
G1 X205.0 E19 F1000
G1 Y1.6
G1 X5.0 E19 F1000
G92 E0.0
; intro line
G1 Y2.0 Z0.2 F1000
M73 P1 R33
G1 X65.0 E9.0 F1000
G1 X105.0 E12.5 F1000
G92 E0.0
G21 ; set units to millimeters
G90 ; use absolute coordinates
M83 ; use relative distances for extrusion
; Filament gcode
M107
;LAYER_CHANGE
;Z:0.2
;HEIGHT:0.2
;BEFORE_LAYER_CHANGE
G92 E0.0
;0.2
G1 E-6 F2400
M73 P1 R32
G1 Z.075 F10800
G1 Z.2
;AFTER_LAYER_CHANGE
;0.2
G1 Z.275
G1 X90.168 Y90.126
G1 Z.2
G1 E6 F3000
M204 S800
;TYPE:Skirt/Brim
;WIDTH:0.42
G1 F1200
G1 X91.244 Y89.049 E.04775
G1 X92.476 Y88.213 E.04668
G1 X93.527 Y87.73 E.03626
G1 X96.531 Y86.925 E.09749
G1 X98.006 Y86.817 E.04637
G1 X99.167 Y86.924 E.03658
G1 X102.171 Y87.728 E.09748
G1 X103.463 Y88.349 E.04495
G1 X104.454 Y89.046 E.03799
G1 X120.951 Y105.542 E.73148
G1 X121.787 Y106.774 E.04666
G1 X122.27 Y107.825 E.03626
G1 X123.075 Y110.828 E.09749
G1 X123.168 Y111.46 E.02003
G1 X123.168 Y112.834 E.04308
G1 X123.076 Y113.465 E.01999
G1 X122.272 Y116.468 E.09748
G1 X121.651 Y117.76 E.04495
G1 X120.954 Y118.752 E.03799
G1 X118.756 Y120.951 E.09749
G1 X117.524 Y121.787 E.04668
G1 X116.473 Y122.27 E.03626
G1 X113.469 Y123.075 E.09749
G1 X112.837 Y123.168 E.02003
G1 X111.463 Y123.168 E.04308
G1 X110.833 Y123.076 E.01999
G1 X107.829 Y122.272 E.09748
G1 X107.235 Y122.036 E.02004
G1 X106.047 Y121.35 E.04302
G1 X105.546 Y120.954 E.02004
G1 X89.049 Y104.458 E.73148
G1 X88.213 Y103.226 E.04666
G1 X87.73 Y102.175 E.03626
G1 X86.925 Y99.172 E.09749
G1 X86.817 Y97.682 E.04684
G1 X86.924 Y96.535 E.03611
G1 X87.728 Y93.532 E.09748
G1 X88.377 Y92.192 E.04668
G1 X89.046 Y91.248 E.03627
G1 X90.125 Y90.169 E.04786
M204 S1000
G1 X90.392 Y90.435 F10800
M204 S800
G1 F1200
G1 X91.511 Y89.316 E.04964
G1 X92.647 Y88.55 E.04297
G1 X93.625 Y88.094 E.03381
G1 X96.628 Y87.289 E.09749
G1 X98 Y87.194 E.04312
G1 X99.07 Y87.289 E.03367
G1 X102.073 Y88.093 E.09748
G1 X103.275 Y88.676 E.04187
G1 X104.188 Y89.313 E.03491
G1 X120.685 Y105.809 E.73148
G1 X121.45 Y106.945 E.04296
G1 X121.905 Y107.922 E.03381
G1 X122.711 Y110.926 E.09749
G1 X122.791 Y111.471 E.01729
G1 X122.791 Y112.823 E.04238
G1 X122.711 Y113.367 E.01726
G1 X121.907 Y116.371 E.09748
G1 X121.324 Y117.572 E.04188
G1 X120.687 Y118.485 E.03491
G1 X118.489 Y120.684 E.09749
G1 X117.353 Y121.45 E.04297
M73 P2 R32
G1 X116.375 Y121.906 E.03381
G1 X113.372 Y122.711 E.09749
G1 X112.826 Y122.791 E.01729
G1 X111.475 Y122.791 E.04238
G1 X110.93 Y122.711 E.01726
G1 X107.927 Y121.907 E.09748
G1 X107.414 Y121.704 E.01729
G1 X106.245 Y121.029 E.04232
G1 X105.812 Y120.687 E.0173
G1 X89.315 Y104.191 E.73148
G1 X88.55 Y103.055 E.04295
G1 X88.095 Y102.078 E.03381
G1 X87.289 Y99.074 E.09749
G1 X87.194 Y97.702 E.04312
G1 X87.289 Y96.633 E.03367
G1 X88.093 Y93.629 E.09748
G1 X88.694 Y92.398 E.04297
G1 X89.313 Y91.515 E.03381
G1 X90.349 Y90.478 E.04598
M204 S1000
G1 E-3.6 F2400
;WIPE_START
G1 F8640
G1 X91.511 Y89.316 E-.43358
G1 X92.647 Y88.55 E-.36165
G1 X93.625 Y88.094 E-.28457
G1 X96.628 Y87.289 E-.82053
G1 X98 Y87.194 E-.36291
G1 X98.063 Y87.199 E-.01676
;WIPE_END
G1 E-.12 F2400
G1 Z.275 F10800
G1 X105.618 Y107.807
G1 Z.2
G1 E6 F3000
M204 S800
G1 F1200
G1 X105.881 Y107.668 E.00935
G1 X106.522 Y107.665 E.02008
G1 X106.955 Y107.712 E.01367
G1 X107.316 Y107.795 E.01161
G1 X108.109 Y108.11 E.02674
G1 X107.793 Y107.306 E.02707
G1 X107.699 Y106.867 E.0141
G1 X107.66 Y106.418 E.01413
G1 X107.669 Y105.877 E.01695
G1 X107.843 Y105.582 E.01073
G1 X108.664 Y105.123 E.0295
G1 X108.962 Y105.135 E.00935
G1 X109.518 Y105.452 E.02008
G1 X109.869 Y105.71 E.01366
G1 X110.155 Y105.978 E.01229
G1 X110.674 Y106.64 E.02638
G1 X110.785 Y105.828 E.02568
G1 X110.954 Y105.305 E.01726
G1 X111.127 Y104.942 E.01261
G1 X111.405 Y104.478 E.01696
G1 X111.703 Y104.309 E.01073
G1 X112.591 Y104.309 E.02785
G1 X112.854 Y104.444 E.00928
G1 X112.89 Y104.478 E.00154
G1 X113.218 Y105.032 E.02018
G1 X113.394 Y105.433 E.01373
G1 X113.503 Y105.787 E.0116
G1 X113.627 Y106.634 E.02686
G1 X114.146 Y105.975 E.02631
G1 X114.517 Y105.639 E.01569
G1 X114.868 Y105.396 E.01338
G1 X115.34 Y105.133 E.01695
G1 X115.682 Y105.136 E.01073
G1 X116.456 Y105.583 E.028
G1 X116.617 Y105.834 E.00934
G1 X116.63 Y105.881 E.00155
G1 X116.634 Y106.499 E.01937
G1 X116.585 Y106.954 E.01436
G1 X116.496 Y107.337 E.01231
G1 X116.185 Y108.11 E.02613
G1 X116.991 Y107.793 E.02716
G1 X117.431 Y107.699 E.0141
G1 X117.88 Y107.66 E.01413
G1 X118.42 Y107.669 E.01695
G1 X118.715 Y107.843 E.01073
G1 X119.175 Y108.664 E.0295
G1 X119.163 Y108.962 E.00935
G1 X118.845 Y109.518 E.02008
G1 X118.588 Y109.869 E.01366
G1 X118.32 Y110.155 E.01229
G1 X117.661 Y110.671 E.02624
G1 X118.496 Y110.791 E.02647
G1 X118.971 Y110.945 E.01564
G1 X119.356 Y111.127 E.01335
G1 X119.82 Y111.405 E.01695
G1 X119.989 Y111.703 E.01073
G1 X119.989 Y112.596 E.028
G1 X119.852 Y112.86 E.00934
G1 X119.817 Y112.896 E.00155
G1 X119.284 Y113.208 E.01936
G1 X118.823 Y113.409 E.01578
G1 X118.488 Y113.508 E.01095
G1 X117.662 Y113.626 E.02616
G1 X118.325 Y114.147 E.02642
G1 X118.644 Y114.498 E.01487
G1 X118.901 Y114.868 E.01412
G1 X119.164 Y115.34 E.01695
G1 X119.161 Y115.682 E.01073
G1 X118.715 Y116.456 E.028
G1 X118.464 Y116.617 E.00934
G1 X118.416 Y116.63 E.00155
G1 X117.776 Y116.633 E.02008
G1 X117.342 Y116.585 E.01367
G1 X116.981 Y116.502 E.01161
G1 X116.189 Y116.188 E.02674
G1 X116.505 Y116.991 E.02707
G1 X116.599 Y117.431 E.0141
G1 X116.637 Y117.88 E.01413
G1 X116.628 Y118.42 E.01695
G1 X116.455 Y118.715 E.01073
G1 X115.634 Y119.175 E.0295
G1 X115.336 Y119.163 E.00935
G1 X114.78 Y118.845 E.02008
G1 X114.429 Y118.588 E.01366
G1 X114.142 Y118.32 E.01229
G1 X113.626 Y117.661 E.02624
G1 X113.506 Y118.497 E.02647
G1 X113.352 Y118.971 E.01564
G1 X113.17 Y119.356 E.01335
G1 X112.892 Y119.82 E.01695
G1 X112.595 Y119.989 E.01073
G1 X111.702 Y119.989 E.028
G1 X111.437 Y119.852 E.00934
G1 X111.402 Y119.817 E.00155
G1 X111.089 Y119.284 E.01936
G1 X110.888 Y118.823 E.01578
G1 X110.789 Y118.488 E.01095
G1 X110.671 Y117.662 E.02616
G1 X110.15 Y118.325 E.02642
G1 X109.799 Y118.644 E.01487
G1 X109.43 Y118.901 E.01412
G1 X108.957 Y119.164 E.01695
G1 X108.615 Y119.161 E.01073
G1 X107.842 Y118.715 E.028
G1 X107.681 Y118.464 E.00934
G1 X107.668 Y118.416 E.00155
G1 X107.665 Y117.776 E.02008
G1 X107.712 Y117.342 E.01367
G1 X107.795 Y116.982 E.01161
G1 X108.11 Y116.189 E.02674
G1 X107.306 Y116.505 E.02707
G1 X106.867 Y116.599 E.0141
G1 X106.418 Y116.637 E.01413
G1 X105.877 Y116.628 E.01695
G1 X105.582 Y116.455 E.01073
G1 X105.123 Y115.634 E.0295
G1 X105.134 Y115.336 E.00935
G1 X105.452 Y114.78 E.02008
G1 X105.71 Y114.429 E.01366
G1 X105.978 Y114.142 E.01229
G1 X106.637 Y113.626 E.02624
G1 X105.801 Y113.506 E.02647
G1 X105.326 Y113.352 E.01564
G1 X104.941 Y113.17 E.01335
G1 X104.477 Y112.892 E.01695
G1 X104.309 Y112.595 E.01073
G1 X104.309 Y111.702 E.028
G1 X104.321 Y111.654 E.00155
G1 X104.48 Y111.402 E.00934
G1 X105.013 Y111.09 E.01936
G1 X105.474 Y110.888 E.01578
G1 X105.809 Y110.789 E.01095
G1 X106.635 Y110.671 E.02616
G1 X105.973 Y110.15 E.02642
G1 X105.654 Y109.799 E.01487
G1 X105.396 Y109.43 E.01412
G1 X105.133 Y108.957 E.01695
G1 X105.136 Y108.615 E.01073
G1 X105.577 Y107.851 E.02767
M204 S1000
G1 X105.872 Y108.095 F10800
M204 S800
G1 F1200
G1 X105.958 Y108.045 E.00314
G1 X106.512 Y108.042 E.01737
G1 X106.901 Y108.086 E.01228
G1 X107.222 Y108.16 E.01033
G1 X107.447 Y108.242 E.00751
G1 X107.628 Y108.335 E.00637
G1 X108.236 Y108.791 E.02384
G1 X108.662 Y108.389 E.01836
G1 X108.759 Y108.24 E.00559
G1 X108.688 Y108.079 E.0055
G1 X108.335 Y107.626 E.01802
G1 X108.242 Y107.448 E.00631
G1 X108.159 Y107.218 E.00765
G1 X108.07 Y106.8 E.01341
G1 X108.037 Y106.414 E.01212
G1 X108.045 Y105.957 E.01433
G1 X108.095 Y105.872 E.00312
G1 X108.74 Y105.5 E.02333
G1 X108.84 Y105.499 E.00314
G1 X109.321 Y105.774 E.01737
G1 X109.636 Y106.006 E.01228
G1 X109.876 Y106.232 E.01033
G1 X110.031 Y106.415 E.00751
G1 X110.139 Y106.584 E.00631
G1 X110.357 Y107.123 E.01821
G1 X110.49 Y107.283 E.00653
G1 X111.198 Y107.084 E.02304
G1 X111.107 Y106.327 E.02392
G1 X111.116 Y106.123 E.00638
G1 X111.153 Y105.909 E.00681
G1 X111.3 Y105.455 E.01497
G1 X111.455 Y105.127 E.01137
G1 X111.69 Y104.735 E.01435
G1 X111.777 Y104.686 E.00312
G1 X112.517 Y104.686 E.0232
G1 X112.603 Y104.735 E.00312
G1 X112.887 Y105.214 E.01746
G1 X113.044 Y105.573 E.01228
G1 X113.139 Y105.888 E.01033
G1 X113.182 Y106.124 E.00751
G1 X113.191 Y106.325 E.00631
G1 X113.111 Y106.894 E.01802
G1 X113.13 Y107.069 E.0055
G1 X113.289 Y107.149 E.00559
G1 X113.859 Y107.285 E.01836
G1 X114.157 Y106.586 E.02384
G1 X114.267 Y106.414 E.00638
G1 X114.406 Y106.247 E.00681
G1 X114.76 Y105.927 E.01497
G1 X115.059 Y105.721 E.01137
G1 X115.459 Y105.499 E.01435
G1 X115.558 Y105.5 E.00312
G1 X116.203 Y105.872 E.02333
G1 X116.253 Y105.959 E.00315
G1 X116.257 Y106.49 E.01667
G1 X116.212 Y106.902 E.01297
G1 X116.137 Y107.222 E.01032
G1 X116.056 Y107.448 E.00751
G1 X115.962 Y107.628 E.00637
G1 X115.504 Y108.239 E.02394
G1 X116.047 Y108.791 E.02428
G1 X116.67 Y108.335 E.02421
G1 X116.85 Y108.242 E.00635
G1 X117.079 Y108.159 E.00765
G1 X117.498 Y108.07 E.01341
G1 X117.883 Y108.037 E.01212
G1 X118.34 Y108.045 E.01433
G1 X118.426 Y108.095 E.00312
G1 X118.798 Y108.74 E.02333
G1 X118.798 Y108.84 E.00314
G1 X118.524 Y109.321 E.01737
G1 X118.291 Y109.636 E.01228
G1 X118.066 Y109.876 E.01033
G1 X117.883 Y110.031 E.00751
G1 X117.712 Y110.14 E.00637
G1 X117.012 Y110.439 E.02384
G1 X117.148 Y111.009 E.01836
G1 X117.229 Y111.168 E.00559
G1 X117.403 Y111.186 E.0055
G1 X117.972 Y111.107 E.01802
G1 X118.173 Y111.116 E.00631
G1 X118.413 Y111.159 E.00764
G1 X118.842 Y111.3 E.01415
G1 X119.17 Y111.455 E.01138
G1 X119.563 Y111.69 E.01435
G1 X119.612 Y111.777 E.00312
G1 X119.612 Y112.521 E.02333
G1 X119.562 Y112.608 E.00315
G1 X119.103 Y112.877 E.01666
G1 X118.704 Y113.051 E.01367
G1 X118.41 Y113.139 E.0096
G1 X118.151 Y113.184 E.00826
G1 X117.942 Y113.189 E.00653
G1 X117.204 Y113.107 E.02331
G1 X117.01 Y113.857 E.0243
G1 X117.712 Y114.157 E.02394
G1 X117.883 Y114.267 E.00636
G1 X118.069 Y114.424 E.00765
G1 X118.355 Y114.742 E.01341
G1 X118.576 Y115.059 E.01212
G1 X118.798 Y115.459 E.01433
G1 X118.798 Y115.558 E.00312
G1 X118.426 Y116.203 E.02333
G1 X118.339 Y116.253 E.00314
G1 X117.785 Y116.256 E.01737
G1 X117.396 Y116.212 E.01228
G1 X117.075 Y116.137 E.01033
G1 X116.85 Y116.056 E.00751
G1 X116.67 Y115.962 E.00637
G1 X116.061 Y115.506 E.02384
G1 X115.636 Y115.908 E.01836
G1 X115.538 Y116.058 E.00559
G1 X115.609 Y116.218 E.0055
G1 X115.963 Y116.671 E.01802
G1 X116.056 Y116.85 E.00631
G1 X116.138 Y117.079 E.00765
G1 X116.227 Y117.498 E.01341
G1 X116.26 Y117.883 E.01212
G1 X116.253 Y118.34 E.01433
G1 X116.202 Y118.426 E.00312
G1 X115.558 Y118.798 E.02333
G1 X115.458 Y118.798 E.00314
G1 X114.977 Y118.524 E.01737
G1 X114.662 Y118.291 E.01228
G1 X114.421 Y118.066 E.01033
G1 X114.267 Y117.883 E.00751
G1 X114.157 Y117.712 E.00637
G1 X113.858 Y117.012 E.02384
G1 X113.289 Y117.148 E.01836
G1 X113.13 Y117.229 E.00559
G1 X113.111 Y117.403 E.0055
G1 X113.191 Y117.973 E.01802
G1 X113.182 Y118.173 E.00631
G1 X113.138 Y118.413 E.00764
G1 X112.998 Y118.842 E.01415
G1 X112.842 Y119.17 E.01138
G1 X112.607 Y119.563 E.01435
G1 X112.521 Y119.612 E.00312
G1 X111.776 Y119.612 E.02333
G1 X111.689 Y119.562 E.00315
G1 X111.42 Y119.103 E.01666
G1 X111.246 Y118.704 E.01367
G1 X111.158 Y118.41 E.0096
G1 X111.113 Y118.151 E.00826
G1 X111.108 Y117.943 E.00653
G1 X111.19 Y117.204 E.02331
G1 X110.44 Y117.01 E.0243
G1 X110.14 Y117.712 E.02394
G1 X110.031 Y117.883 E.00636
G1 X109.873 Y118.069 E.00765
G1 X109.556 Y118.355 E.01341
G1 X109.238 Y118.576 E.01212
G1 X108.839 Y118.798 E.01433
G1 X108.739 Y118.798 E.00312
G1 X108.095 Y118.426 E.02333
G1 X108.044 Y118.339 E.00314
G1 X108.042 Y117.785 E.01737
G1 X108.086 Y117.396 E.01228
G1 X108.16 Y117.075 E.01033
G1 X108.242 Y116.85 E.00751
G1 X108.335 Y116.67 E.00637
G1 X108.791 Y116.061 E.02384
G1 X108.389 Y115.636 E.01836
G1 X108.24 Y115.538 E.00559
G1 X108.079 Y115.609 E.0055
G1 X107.626 Y115.963 E.01802
G1 X107.448 Y116.056 E.00631
G1 X107.218 Y116.138 E.00765
G1 X106.8 Y116.227 E.01341
G1 X106.414 Y116.26 E.01212
G1 X105.957 Y116.253 E.01433
G1 X105.872 Y116.202 E.00312
G1 X105.5 Y115.558 E.02333
G1 X105.499 Y115.458 E.00314
G1 X105.774 Y114.977 E.01737
G1 X106.006 Y114.662 E.01228
G1 X106.232 Y114.421 E.01033
G1 X106.415 Y114.267 E.00751
G1 X106.586 Y114.157 E.00637
G1 X107.285 Y113.859 E.02384
G1 X107.149 Y113.289 E.01836
G1 X107.068 Y113.13 E.00559
G1 X106.894 Y113.111 E.0055
G1 X106.325 Y113.191 E.01802
G1 X106.124 Y113.182 E.00631
G1 X105.884 Y113.138 E.00764
G1 X105.455 Y112.998 E.01415
G1 X105.127 Y112.842 E.01138
G1 X104.735 Y112.607 E.01435
G1 X104.686 Y112.521 E.00312
G1 X104.686 Y111.776 E.02333
G1 X104.736 Y111.689 E.00315
G1 X105.194 Y111.42 E.01666
G1 X105.594 Y111.246 E.01367
G1 X105.887 Y111.158 E.0096
G1 X106.147 Y111.114 E.00826
G1 X106.355 Y111.108 E.00653
G1 X107.094 Y111.19 E.02331
G1 X107.288 Y110.44 E.0243
G1 X106.586 Y110.14 E.02394
G1 X106.415 Y110.031 E.00636
G1 X106.229 Y109.873 E.00765
G1 X105.942 Y109.556 E.01341
G1 X105.721 Y109.238 E.01212
G1 X105.499 Y108.839 E.01433
G1 X105.5 Y108.739 E.00312
G1 X105.842 Y108.147 E.02145
M204 S1000
G1 E-3.6 F2400
;WIPE_START
G1 F8640
G1 X105.958 Y108.045 E-.04092
G1 X106.512 Y108.042 E-.14617
G1 X106.901 Y108.086 E-.10332
G1 X107.222 Y108.16 E-.08694
G1 X107.447 Y108.242 E-.06319
G1 X107.628 Y108.335 E-.05359
G1 X108.236 Y108.791 E-.20067
G1 X108.662 Y108.389 E-.15452
G1 X108.759 Y108.24 E-.04708
G1 X108.688 Y108.079 E-.04626
G1 X108.335 Y107.626 E-.15169
G1 X108.242 Y107.448 E-.05308
G1 X108.159 Y107.218 E-.06435
G1 X108.07 Y106.8 E-.11289
G1 X108.037 Y106.414 E-.10204
G1 X108.045 Y105.957 E-.12064
G1 X108.095 Y105.872 E-.02623
G1 X108.74 Y105.5 E-.19638
G1 X108.84 Y105.499 E-.02642
G1 X109.321 Y105.774 E-.14617
G1 X109.636 Y106.006 E-.10332
G1 X109.876 Y106.232 E-.08694
G1 X110.031 Y106.415 E-.06319
G1 X110.139 Y106.584 E-.05311
G1 X110.183 Y106.693 E-.03088
;WIPE_END
G1 E-.12 F2400
G1 Z.275 F10800
G1 X102.157 Y104.418
G1 Z.2
G1 E6 F3000
M204 S800
G1 F1200
G1 X101.384 Y104.864 E.028
G1 X101.086 Y104.878 E.00934
G1 X101.038 Y104.866 E.00155
G1 X100.482 Y104.548 E.02008
G1 X100.131 Y104.29 E.01366
G1 X99.845 Y104.022 E.01229
G1 X99.329 Y103.363 E.02624
G1 X99.209 Y104.199 E.02647
G1 X99.055 Y104.674 E.01564
G1 X98.873 Y105.059 E.01335
G1 X98.595 Y105.523 E.01695
G1 X98.297 Y105.691 E.01073
G1 X97.404 Y105.691 E.028
G1 X97.14 Y105.554 E.00934
G1 X97.105 Y105.52 E.00155
G1 X96.792 Y104.987 E.01936
G1 X96.591 Y104.526 E.01578
G1 X96.492 Y104.191 E.01095
G1 X96.374 Y103.365 E.02616
G1 X95.853 Y104.027 E.02642
G1 X95.502 Y104.346 E.01487
G1 X95.132 Y104.604 E.01412
G1 X94.66 Y104.867 E.01695
G1 X94.365 Y104.877 E.00926
G1 X93.544 Y104.417 E.02949
G1 X93.383 Y104.166 E.00934
G1 X93.37 Y104.119 E.00155
G1 X93.367 Y103.478 E.02008
G1 X93.415 Y103.045 E.01367
G1 X93.498 Y102.684 E.01161
G1 X93.812 Y101.891 E.02674
G1 X93.009 Y102.207 E.02707
G1 X92.569 Y102.301 E.0141
G1 X92.12 Y102.34 E.01413
G1 X91.58 Y102.331 E.01695
G1 X91.285 Y102.157 E.01073
G1 X90.838 Y101.384 E.028
G1 X90.824 Y101.086 E.00934
G1 X90.837 Y101.038 E.00155
G1 X91.155 Y100.482 E.02008
G1 X91.412 Y100.131 E.01366
G1 X91.68 Y99.845 E.01229
G1 X92.339 Y99.329 E.02624
G1 X91.504 Y99.209 E.02647
G1 X91.029 Y99.055 E.01564
G1 X90.644 Y98.873 E.01335
G1 X90.18 Y98.595 E.01695
G1 X90.011 Y98.297 E.01073
G1 X90.011 Y97.404 E.028
G1 X90.024 Y97.356 E.00155
