; generated by PrusaSlicer 2.5.0 on 2022-09-12 at 17:03:47 UTC


;
;

;
;
; 

; external perimeters extrusion width = 0.45mm
; perimeters extrusion width = 0.45mm
; infill extrusion width = 0.45mm
; solid infill extrusion width = 0.45mm
; top infill extrusion width = 0.40mm
; first layer extrusion width = 0.42mm

M73 P0 R46
M107
;TYPE:Custom
G90 ; use absolute coordinates
M83 ; extruder relative mode
M204 S1250 T1250
M104 S215 ; set extruder temp
M140 S75 ; set bed temp
G28 ; home all
G1 Y1.0 Z0.3 F1000 ; move print head up
M190 S75 ; wait for bed temp
M109 S215 ; wait for extruder temp
G92 E0.0
; initial load
G1 X205.0 E19 F1000
G1 Y1.6
G1 X5.0 E19 F1000
G92 E0.0
; intro line
G1 Y2.0 Z0.2 F1000
G1 X65.0 E9.0 F1000
G1 X105.0 E12.5 F1000
G92 E0.0
G21 ; set units to millimeters
G90 ; use absolute coordinates
M83 ; use relative distances for extrusion
; Filament gcode
M107
;LAYER_CHANGE
;Z:0.2
;HEIGHT:0.2
;BEFORE_LAYER_CHANGE
G92 E0.0
;0.2
M73 P1 R46
G1 E-6 F2400
G1 Z.075 F10800
G1 Z.2
;AFTER_LAYER_CHANGE
;0.2
; printing object InternalInvoluteGear (Meshed).stl id:0 copy 0
G1 Z.275
G1 X76.199 Y46.963
G1 Z.2
G1 E6 F3000
M204 S800
;TYPE:External perimeter
;WIDTH:0.419999
G1 F1200
G1 X77.648 Y46.267 E.05039
G1 X79.113 Y45.606 E.05039
G1 X80.594 Y44.983 E.05039
G1 X82.09 Y44.396 E.05039
G1 X83.6 Y43.846 E.05039
G1 X85.101 Y43.342 E.04964
G1 X86.66 Y42.86 E.05115
G1 X88.183 Y42.431 E.04964
G1 X89.725 Y42.036 E.04989
G1 X91.33 Y41.669 E.05165
G1 X92.905 Y41.349 E.05039
G1 X94.464 Y41.072 E.04964
G1 X96.077 Y40.827 E.05115
G1 X97.671 Y40.626 E.05039
G1 X99.27 Y40.464 E.05039
G1 X100.873 Y40.342 E.0504
G1 X102.454 Y40.26 E.04963
G1 X104.044 Y40.217 E.04988
G1 X105.812 Y40.217 E.05545
G1 X107.298 Y40.251 E.0466
G1 X108.904 Y40.328 E.05039
G1 X110.506 Y40.444 E.05039
G1 X112.082 Y40.598 E.04964
G1 X113.701 Y40.797 E.05115
G1 X115.291 Y41.033 E.05039
G1 X116.874 Y41.307 E.05039
G1 X118.45 Y41.622 E.05039
G1 X120.018 Y41.975 E.0504
G1 X121.554 Y42.36 E.04963
G1 X123.125 Y42.797 E.05115
G1 X124.663 Y43.266 E.05039
G1 X126.188 Y43.772 E.05039
G1 X127.677 Y44.308 E.04963
G1 X129.198 Y44.898 E.05115
G1 X130.682 Y45.517 E.05039
G1 X132.127 Y46.162 E.04963
G1 X133.6 Y46.864 E.05115
G1 X135.033 Y47.591 E.05039
G1 X136.448 Y48.354 E.05039
G1 X137.843 Y49.152 E.0504
G1 X139.085 Y49.901 E.04547
G1 X140.289 Y50.664 E.04468
G1 X141.481 Y51.457 E.0449
G1 X142.697 Y52.306 E.04649
G1 X143.864 Y53.16 E.04535
G1 X145.011 Y54.041 E.04536
G1 X146.139 Y54.947 E.04535
G1 X147.246 Y55.878 E.04536
G1 X148.316 Y56.818 E.04467
G1 X149.371 Y57.788 E.0449
G1 X150.413 Y58.79 E.04536
G1 X151.459 Y59.841 E.04649
G1 X152.441 Y60.874 E.04468
G1 X153.405 Y61.933 E.0449
G1 X154.377 Y63.052 E.04649
G1 X155.302 Y64.165 E.04536
G1 X156.188 Y65.281 E.04468
G1 X157.075 Y66.452 E.04604
G1 X157.922 Y67.624 E.04536
G1 X158.731 Y68.797 E.04468
G1 X159.519 Y69.993 E.04491
G1 X160.287 Y71.219 E.04536
G1 X161.045 Y72.493 E.0465
G1 X161.747 Y73.734 E.04468
G1 X162.424 Y74.996 E.0449
G1 X163.096 Y76.318 E.0465
G1 X163.721 Y77.622 E.04536
G1 X164.318 Y78.94 E.04536
G1 X164.885 Y80.271 E.04536
G1 X165.422 Y81.615 E.04536
G1 X165.93 Y82.97 E.04537
G1 X166.399 Y84.315 E.04468
G1 X166.853 Y85.712 E.04605
G1 X167.262 Y87.077 E.04468
G1 X167.652 Y88.493 E.04605
G1 X168.005 Y89.897 E.04537
G1 X168.327 Y91.307 E.04537
G1 X168.617 Y92.725 E.04537
G1 X168.875 Y94.149 E.04537
G1 X169.101 Y95.578 E.04537
G1 X169.293 Y96.99 E.04469
G1 X169.458 Y98.45 E.04605
G1 X169.588 Y99.891 E.04537
G1 X169.686 Y101.335 E.04537
G1 X169.753 Y102.818 E.04653
G1 X169.79 Y105.167 E.07369
G1 X169.732 Y107.732 E.08044
G1 X169.645 Y109.335 E.05034
G1 X169.517 Y110.937 E.05037
G1 X169.35 Y112.534 E.05037
G1 X169.144 Y114.128 E.05037
G1 X168.898 Y115.715 E.05038
G1 X168.612 Y117.296 E.05037
G1 X168.288 Y118.87 E.05037
G1 X167.925 Y120.435 E.05038
G1 X167.523 Y121.99 E.05037
G1 X167.082 Y123.536 E.05038
G1 X166.611 Y125.046 E.04962
G1 X166.087 Y126.591 E.05114
G1 X165.533 Y128.099 E.05038
G1 X164.941 Y129.593 E.05038
G1 X164.313 Y131.072 E.05038
G1 X163.648 Y132.535 E.05038
G1 X162.947 Y133.981 E.05038
G1 X162.211 Y135.409 E.05038
G1 X161.439 Y136.818 E.05038
G1 X160.632 Y138.208 E.05039
G1 X159.792 Y139.578 E.05038
G1 X158.917 Y140.926 E.05039
G1 X158.01 Y142.252 E.05038
G1 X157.07 Y143.555 E.05039
G1 X156.097 Y144.835 E.05039
G1 X155.094 Y146.09 E.05039
G1 X154.059 Y147.32 E.05039
G1 X152.994 Y148.523 E.05039
G1 X151.9 Y149.7 E.05039
G1 X150.777 Y150.85 E.05039
G1 X149.643 Y151.955 E.04963
G1 X148.477 Y153.037 E.04988
G1 X147.272 Y154.1 E.05039
G1 X146.01 Y155.159 E.05165
G1 X144.753 Y156.161 E.05039
G1 X143.491 Y157.117 E.04963
G1 X142.167 Y158.069 E.05115
G1 X140.839 Y158.975 E.05039
G1 X139.489 Y159.847 E.05039
G1 X138.118 Y160.686 E.05039
G1 X136.727 Y161.49 E.05039
G1 X135.316 Y162.26 E.0504
G1 X134.026 Y162.924 E.04548
G1 X132.746 Y163.548 E.04467
G1 X131.412 Y164.162 E.04604
G1 X130.105 Y164.729 E.04467
G1 X128.745 Y165.282 E.04604
G1 X127.393 Y165.797 E.04535
G1 X126.03 Y166.282 E.04535
G1 X124.657 Y166.736 E.04536
G1 X123.274 Y167.16 E.04535
G1 X121.881 Y167.552 E.04535
G1 X120.481 Y167.913 E.04536
G1 X119.093 Y168.239 E.04467
G1 X117.692 Y168.535 E.0449
G1 X116.235 Y168.808 E.04649
G1 X114.829 Y169.04 E.04467
G1 X113.376 Y169.246 E.04604
G1 X111.961 Y169.415 E.04467
G1 X110.499 Y169.556 E.04604
G1 X109.057 Y169.663 E.04536
G1 X107.634 Y169.736 E.04467
G1 X106.166 Y169.779 E.04604
G1 X104.72 Y169.789 E.04535
G1 X103.273 Y169.767 E.04536
G1 X101.828 Y169.712 E.04536
G1 X100.405 Y169.627 E.04467
G1 X98.942 Y169.506 E.04604
G1 X97.525 Y169.357 E.04467
G1 X96.033 Y169.166 E.04717
G1 X94.638 Y168.956 E.04422
G1 X93.234 Y168.713 E.04467
G1 X91.829 Y168.437 E.0449
G1 X90.381 Y168.119 E.04649
G1 X88.976 Y167.777 E.04535
G1 X87.599 Y167.409 E.04467
G1 X86.189 Y166.999 E.04604
G1 X84.81 Y166.564 E.04535
G1 X83.461 Y166.105 E.04467
G1 X82.082 Y165.601 E.04604
G1 X80.755 Y165.082 E.04467
G1 X79.399 Y164.518 E.04604
G1 X78.077 Y163.931 E.04536
G1 X76.788 Y163.325 E.04467
G1 X75.473 Y162.671 E.04603
G1 X74.193 Y161.997 E.04535
G1 X72.928 Y161.295 E.04536
G1 X71.698 Y160.576 E.04468
G1 X70.478 Y159.827 E.0449
G1 X69.232 Y159.022 E.04649
G1 X68.053 Y158.223 E.04467
G1 X66.857 Y157.372 E.04603
G1 X65.697 Y156.507 E.04536
G1 X64.574 Y155.631 E.04467
G1 X63.437 Y154.702 E.04603
G1 X62.354 Y153.776 E.04468
G1 X61.26 Y152.797 E.04603
G1 X60.204 Y151.808 E.04536
G1 X59.17 Y150.797 E.04535
G1 X58.159 Y149.762 E.04536
G1 X57.186 Y148.721 E.04467
G1 X56.208 Y147.627 E.04603
G1 X55.268 Y146.527 E.04535
G1 X54.353 Y145.406 E.04536
G1 X53.477 Y144.283 E.04466
G1 X52.508 Y142.978 E.05096
G1 X51.582 Y141.664 E.05039
G1 X50.702 Y140.348 E.04964
G1 X49.83 Y138.97 E.05115
G1 X49.004 Y137.591 E.0504
G1 X48.225 Y136.213 E.04963
G1 X47.457 Y134.774 E.05115
G1 X46.736 Y133.337 E.05039
G1 X46.051 Y131.884 E.05039
G1 X45.402 Y130.413 E.0504
G1 X44.799 Y128.949 E.04963
G1 X44.215 Y127.426 E.05115
G1 X43.685 Y125.934 E.04963
G1 X43.178 Y124.384 E.05115
G1 X42.716 Y122.845 E.05039
G1 X42.293 Y121.294 E.05039
G1 X41.908 Y119.734 E.05039
G1 X41.562 Y118.164 E.0504
G1 X41.259 Y116.61 E.04963
G1 X40.987 Y115.002 E.05115
G1 X40.758 Y113.411 E.05039
G1 X40.57 Y111.815 E.05039
G1 X40.42 Y110.215 E.05039
G1 X40.311 Y108.611 E.05039
G1 X40.242 Y107.03 E.04964
G1 X40.211 Y105.399 E.05115
G1 X40.221 Y103.791 E.05039
G1 X40.271 Y102.185 E.05039
G1 X40.361 Y100.58 E.0504
G1 X40.491 Y98.978 E.05039
G1 X40.657 Y97.404 E.04964
G1 X40.869 Y95.786 E.05115
G1 X41.113 Y94.222 E.04963
G1 X41.404 Y92.617 E.05115
G1 X41.726 Y91.067 E.04964
G1 X42.097 Y89.479 E.05115
G1 X42.495 Y87.946 E.04964
G1 X42.944 Y86.378 E.05115
G1 X43.425 Y84.845 E.05039
G1 X43.944 Y83.323 E.05039
G1 X44.5 Y81.816 E.05039
G1 X45.094 Y80.322 E.05039
G1 X45.715 Y78.866 E.04963
G1 X46.392 Y77.381 E.05115
G1 X47.084 Y75.958 E.04964
G1 X47.833 Y74.509 E.05115
G1 X48.607 Y73.1 E.05039
G1 X49.416 Y71.711 E.05039
G1 X50.259 Y70.343 E.05039
G1 X51.135 Y68.996 E.05039
G1 X52.031 Y67.69 E.04964
G1 X52.987 Y66.369 E.05115
G1 X53.946 Y65.109 E.04964
G1 X54.967 Y63.837 E.05115
G1 X56.003 Y62.608 E.05039
G1 X57.054 Y61.424 E.04964
G1 X58.166 Y60.231 E.05115
G1 X59.291 Y59.083 E.05039
G1 X60.444 Y57.963 E.0504
G1 X61.606 Y56.889 E.04963
G1 X62.831 Y55.811 E.05115
G1 X64.064 Y54.78 E.05039
G1 X65.303 Y53.795 E.04963
G1 X66.605 Y52.812 E.05115
G1 X67.912 Y51.876 E.05039
G1 X69.241 Y50.972 E.05039
G1 X70.592 Y50.102 E.0504
G1 X71.964 Y49.265 E.05039
G1 X73.357 Y48.463 E.05039
G1 X74.769 Y47.696 E.05039
G1 X76.146 Y46.991 E.04851
M204 S1000
G1 E-3.6 F2400
;WIPE_START
M73 P1 R45
G1 F8640
G1 X77.648 Y46.267 E-.43994
G1 X79.113 Y45.606 E-.42412
G1 X80.594 Y44.983 E-.42411
G1 X82.09 Y44.396 E-.42412
G1 X83.6 Y43.846 E-.42408
G1 X84.116 Y43.673 E-.14363
;WIPE_END
G1 E-.12 F2400
G1 Z.275 F10800
G1 X76.76 Y50.412
G1 Z.2
G1 E6 F3000
M204 S800
G1 F1200
G1 X76.922 Y50.406 E.00511
G1 X77.633 Y51.005 E.02913
G1 X78.349 Y51.681 E.0309
G1 X79.109 Y51.308 E.02654
G1 X79.053 Y50.795 E.0162
G1 X78.968 Y49.458 E.042
G1 X79.022 Y49.314 E.00481
G1 X79.655 Y49.009 E.02205
G1 X79.818 Y49.012 E.00511
G1 X80.496 Y49.647 E.02913
G1 X81.176 Y50.36 E.0309
G1 X81.955 Y50.027 E.02654
G1 X81.925 Y49.511 E.0162
G1 X81.911 Y48.172 E.042
G1 X81.934 Y48.079 E.00299
G1 X82.03 Y47.994 E.00401
G1 X82.621 Y47.759 E.01996
G1 X82.783 Y47.77 E.00508
G1 X83.426 Y48.44 E.02913
G1 X84.069 Y49.188 E.0309
G1 X84.863 Y48.896 E.02654
G1 X84.861 Y48.379 E.0162
G1 X84.917 Y47.041 E.042
G1 X84.945 Y46.95 E.00299
G1 X85.045 Y46.87 E.00401
G1 X85.647 Y46.666 E.01995
G1 X85.808 Y46.686 E.0051
G1 X86.416 Y47.389 E.02912
G1 X87.018 Y48.169 E.0309
G1 X87.827 Y47.919 E.02654
G1 X87.852 Y47.403 E.0162
G1 X87.977 Y46.069 E.042
G1 X88.063 Y45.929 E.00517
G1 X88.726 Y45.734 E.02167
G1 X88.887 Y45.762 E.00511
G1 X89.457 Y46.495 E.02912
G1 X90.017 Y47.305 E.0309
G1 X90.838 Y47.098 E.02654
G1 X90.89 Y46.585 E.0162
G1 X91.085 Y45.259 E.042
G1 X91.16 Y45.135 E.00457
G1 X91.85 Y44.963 E.02229
G1 X92.009 Y44.999 E.00511
G1 X92.54 Y45.762 E.02913
G1 X93.057 Y46.6 E.0309
G1 X93.888 Y46.437 E.02654
G1 X93.966 Y45.926 E.0162
G1 X94.231 Y44.613 E.042
G1 X94.302 Y44.5 E.0042
G1 X95.01 Y44.357 E.02266
G1 X95.167 Y44.402 E.00511
G1 X95.657 Y45.191 E.02913
G1 X96.13 Y46.055 E.0309
G1 X96.968 Y45.935 E.02654
G1 X97.073 Y45.43 E.0162
G1 X97.406 Y44.132 E.042
G1 X97.47 Y44.033 E.00371
G1 X97.566 Y43.992 E.00329
G1 X98.201 Y43.917 E.02003
G1 X98.352 Y43.97 E.00502
G1 X98.8 Y44.784 E.02913
G1 X99.227 Y45.672 E.0309
G1 X100.07 Y45.596 E.02654
G1 X100.202 Y45.096 E.0162
G1 X100.602 Y43.818 E.042
G1 X100.709 Y43.701 E.00498
G1 X101.404 Y43.645 E.02187
G1 X101.555 Y43.706 E.00511
G1 X101.96 Y44.542 E.02913
G1 X102.34 Y45.451 E.0309
G1 X103.186 Y45.419 E.02654
G1 X103.343 Y44.927 E.0162
G1 X103.81 Y43.672 E.042
G1 X103.919 Y43.561 E.00486
G1 X104.62 Y43.541 E.022
G1 X104.768 Y43.61 E.00511
G1 X105.129 Y44.466 E.02913
G1 X105.46 Y45.394 E.0309
G1 X106.307 Y45.406 E.02654
G1 X106.49 Y44.923 E.0162
G1 X107.021 Y43.693 E.042
G1 X107.134 Y43.59 E.00482
G1 X107.837 Y43.605 E.02204
G1 X107.981 Y43.682 E.00511
G1 X108.296 Y44.555 E.02913
G1 X108.579 Y45.499 E.0309
G1 X109.424 Y45.556 E.02654
G1 X109.632 Y45.083 E.0162
G1 X110.227 Y43.883 E.042
G1 X110.29 Y43.811 E.00299
G1 X110.413 Y43.779 E.00401
G1 X111.047 Y43.838 E.01996
G1 X111.186 Y43.922 E.00508
G1 X111.455 Y44.811 E.02913
G1 X111.688 Y45.768 E.0309
G1 X112.529 Y45.869 E.02654
G1 X112.761 Y45.408 E.0162
G1 X113.418 Y44.241 E.042
G1 X113.485 Y44.172 E.00299
M73 P2 R45
G1 X113.61 Y44.147 E.00401
G1 X114.239 Y44.238 E.01995
G1 X114.374 Y44.329 E.0051
G1 X114.597 Y45.231 E.02912
G1 X114.779 Y46.199 E.0309
G1 X115.613 Y46.344 E.02654
G1 X115.869 Y45.896 E.0162
G1 X116.587 Y44.764 E.042
G1 X116.728 Y44.678 E.00519
G1 X117.406 Y44.805 E.02165
G1 X117.537 Y44.903 E.00511
G1 X117.712 Y45.815 E.02912
G1 X117.843 Y46.792 E.0309
G1 X118.668 Y46.98 E.02654
G1 X118.948 Y46.545 E.0162
G1 X119.723 Y45.453 E.042
G1 X119.851 Y45.376 E.0047
G1 X120.54 Y45.537 E.02216
G1 X120.665 Y45.641 E.00511
G1 X120.792 Y46.562 E.02913
G1 X120.872 Y47.544 E.0309
G1 X121.686 Y47.775 E.02654
G1 X121.988 Y47.356 E.0162
G1 X122.82 Y46.306 E.042
G1 X122.935 Y46.237 E.00421
G1 X123.63 Y46.432 E.02265
G1 X123.75 Y46.542 E.00511
G1 X123.828 Y47.468 E.02913
G1 X123.857 Y48.453 E.0309
G1 X124.658 Y48.727 E.02654
G1 X124.982 Y48.324 E.0162
G1 X125.867 Y47.319 E.042
G1 X125.97 Y47.259 E.00372
G1 X126.517 Y47.43 E.01798
G1 X126.728 Y47.521 E.00721
G1 X126.794 Y47.676 E.00528
G1 X126.814 Y48.532 E.02687
G1 X126.791 Y49.517 E.0309
G1 X127.577 Y49.833 E.02654
G1 X127.92 Y49.447 E.0162
G1 X128.857 Y48.49 E.042
G1 X129.006 Y48.434 E.00498
G1 X129.65 Y48.7 E.02186
G1 X129.758 Y48.823 E.00511
G1 X129.739 Y49.751 E.02913
G1 X129.665 Y50.734 E.0309
G1 X130.433 Y51.09 E.02654
G1 X130.796 Y50.723 E.0162
G1 X131.782 Y49.816 E.042
G1 X131.929 Y49.767 E.00486
G1 X132.563 Y50.067 E.022
G1 X132.664 Y50.195 E.00511
G1 X132.597 Y51.122 E.02913
G1 X132.471 Y52.099 E.0309
G1 X133.219 Y52.495 E.02654
G1 X133.602 Y52.147 E.0162
G1 X134.633 Y51.293 E.042
G1 X134.782 Y51.252 E.00482
G1 X135.4 Y51.585 E.02203
G1 X135.494 Y51.718 E.00511
G1 X135.378 Y52.64 E.02913
G1 X135.202 Y53.609 E.0309
G1 X135.929 Y54.043 E.02654
G1 X136.329 Y53.717 E.01619
G1 X137.404 Y52.918 E.042
G1 X137.492 Y52.882 E.00299
G1 X137.617 Y52.909 E.00401
G1 X138.154 Y53.249 E.01994
G1 X138.241 Y53.387 E.0051
G1 X138.077 Y54.302 E.02913
G1 X137.85 Y55.26 E.0309
G1 X138.553 Y55.732 E.02654
G1 X138.97 Y55.426 E.0162
G1 X140.085 Y54.685 E.042
G1 X140.218 Y54.655 E.00428
G1 X140.766 Y55.019 E.02061
G1 X140.89 Y55.16 E.00591
G1 X140.685 Y56.102 E.03022
G1 X140.408 Y57.048 E.0309
G1 X141.086 Y57.556 E.02654
G1 X141.518 Y57.272 E.0162
G1 X142.67 Y56.59 E.042
G1 X142.825 Y56.573 E.00487
G1 X143.382 Y56.998 E.02198
G1 X143.454 Y57.144 E.00511
G1 X143.195 Y58.037 E.02913
G1 X142.869 Y58.967 E.0309
G1 X143.519 Y59.509 E.02654
G1 X143.965 Y59.249 E.0162
G1 X145.152 Y58.628 E.042
G1 X145.245 Y58.606 E.00299
G1 X145.364 Y58.653 E.00401
G1 X145.842 Y59.073 E.01994
G1 X145.906 Y59.223 E.0051
G1 X145.601 Y60.1 E.02913
G1 X145.227 Y61.012 E.0309
G1 X145.847 Y61.587 E.02654
G1 X146.306 Y61.351 E.0162
G1 X147.524 Y60.793 E.042
G1 X147.656 Y60.783 E.00414
G1 X148.083 Y61.169 E.01806
G1 X148.227 Y61.326 E.00667
G1 X148.225 Y61.496 E.00533
G1 X147.895 Y62.287 E.02687
G1 X147.474 Y63.177 E.0309
G1 X148.063 Y63.785 E.02654
G1 X148.534 Y63.572 E.0162
G1 X149.779 Y63.079 E.042
G1 X149.934 Y63.086 E.00486
G1 X150.419 Y63.593 E.022
G1 X150.467 Y63.749 E.00511
G1 X150.072 Y64.59 E.02913
G1 X149.604 Y65.457 E.0309
G1 X150.161 Y66.095 E.02654
G1 X150.643 Y65.908 E.0162
G1 X151.912 Y65.48 E.042
G1 X152.084 Y65.507 E.00547
G1 X152.523 Y66.027 E.02135
G1 X152.563 Y66.185 E.00511
G1 X152.125 Y67.004 E.02913
G1 X151.613 Y67.846 E.0309
G1 X152.136 Y68.512 E.02654
G1 X152.626 Y68.35 E.0162
G1 X153.916 Y67.989 E.042
G1 X154.044 Y67.999 E.00404
G1 X154.401 Y68.438 E.01773
G1 X154.527 Y68.623 E.00703
G1 X154.507 Y68.779 E.00493
G1 X154.049 Y69.523 E.02738
G1 X153.493 Y70.336 E.0309
G1 X153.981 Y71.029 E.02654
G1 X154.479 Y70.893 E.0162
G1 X155.786 Y70.6 E.042
G1 X155.936 Y70.63 E.00481
G1 X156.337 Y71.208 E.02204
G1 X156.36 Y71.37 E.00511
G1 X155.838 Y72.138 E.02913
G1 X155.241 Y72.922 E.0309
G1 X155.691 Y73.639 E.02654
G1 X156.196 Y73.529 E.0162
G1 X157.517 Y73.305 E.042
G1 X157.677 Y73.353 E.00523
G1 X158.035 Y73.941 E.02161
G1 X158.05 Y74.104 E.00511
G1 X157.489 Y74.844 E.02913
G1 X156.851 Y75.595 E.0309
G1 X157.263 Y76.335 E.02654
G1 X157.773 Y76.251 E.0162
G1 X159.104 Y76.097 E.042
G1 X159.225 Y76.124 E.0039
G1 X159.588 Y76.76 E.02294
G1 X159.594 Y76.922 E.00511
G1 X158.995 Y77.632 E.02913
G1 X158.319 Y78.349 E.0309
G1 X158.692 Y79.109 E.02654
G1 X159.205 Y79.053 E.0162
G1 X160.542 Y78.968 E.042
G1 X160.685 Y79.021 E.00477
G1 X160.991 Y79.655 E.02208
G1 X160.988 Y79.818 E.00511
G1 X160.353 Y80.496 E.02913
G1 X159.64 Y81.176 E.0309
G1 X159.973 Y81.955 E.02654
G1 X160.489 Y81.925 E.0162
G1 X161.828 Y81.911 E.042
G1 X161.978 Y81.982 E.00519
