; generated by PrusaSlicer 2.5.0 on 2022-09-12 at 14:33:20 UTC


;
;

;
;
; 

; external perimeters extrusion width = 0.45mm
; perimeters extrusion width = 0.45mm
; infill extrusion width = 0.45mm
; solid infill extrusion width = 0.45mm
; top infill extrusion width = 0.40mm
; first layer extrusion width = 0.42mm

M73 P0 R37
M107
;TYPE:Custom
G90 ; use absolute coordinates
M83 ; extruder relative mode
M204 S1250 T1250
M104 S215 ; set extruder temp
M140 S75 ; set bed temp
G28 ; home all
G1 Y1.0 Z0.3 F1000 ; move print head up
M190 S75 ; wait for bed temp
M109 S215 ; wait for extruder temp
G92 E0.0
; initial load
G1 X205.0 E19 F1000
G1 Y1.6
G1 X5.0 E19 F1000
G92 E0.0
; intro line
G1 Y2.0 Z0.2 F1000
M73 P1 R36
G1 X65.0 E9.0 F1000
G1 X105.0 E12.5 F1000
G92 E0.0
G21 ; set units to millimeters
G90 ; use absolute coordinates
M83 ; use relative distances for extrusion
; Filament gcode
M107
;LAYER_CHANGE
;Z:0.2
;HEIGHT:0.2
;BEFORE_LAYER_CHANGE
G92 E0.0
;0.2
G1 Z.2 F10800
;AFTER_LAYER_CHANGE
;0.2
G1 E-6 F2400
G1 Z.275 F10800
G1 X81.735 Y83.26
G1 Z.2
G1 E6 F3000
M204 S800
;TYPE:Skirt/Brim
;WIDTH:0.42
G1 F1200
G1 X81.784 Y83.234 E.00175
G1 X82.062 Y83.179 E.00889
G1 X82.118 Y83.184 E.00175
G1 X82.816 Y83.474 E.02371
G1 X83.925 Y84.022 E.03879
G1 X83.61 Y83.182 E.02814
G1 X83.306 Y82.142 E.03396
G1 X83.307 Y82.086 E.00177
G1 X83.395 Y81.812 E.00902
G1 X83.427 Y81.765 E.00177
G1 X84.266 Y81.108 E.03341
G1 X84.317 Y81.088 E.00175
G1 X84.6 Y81.065 E.00889
G1 X84.655 Y81.077 E.00175
G1 X85.305 Y81.44 E.02335
G1 X86.353 Y82.12 E.03915
G1 X86.137 Y81.248 E.02816
G1 X85.956 Y80.18 E.03397
G1 X85.963 Y80.124 E.00177
G1 X86.083 Y79.862 E.00902
G1 X86.12 Y79.82 E.00177
G1 X87.029 Y79.264 E.03341
G1 X87.083 Y79.25 E.00175
G1 X87.366 Y79.261 E.00889
G1 X87.419 Y79.279 E.00175
G1 X88.023 Y79.715 E.02335
G1 X88.985 Y80.512 E.03916
G1 X88.873 Y79.635 E.02771
G1 X88.816 Y78.539 E.03442
G1 X88.83 Y78.484 E.00177
G1 X88.978 Y78.238 E.00902
G1 X89.02 Y78.2 E.00177
G1 X89.988 Y77.754 E.03341
G1 X90.043 Y77.746 E.00175
G1 X90.323 Y77.79 E.00889
G1 X90.374 Y77.814 E.00175
G1 X90.931 Y78.325 E.02371
G1 X91.785 Y79.219 E.03879
G1 X91.776 Y78.322 E.02814
G1 X91.847 Y77.241 E.03397
G1 X91.867 Y77.188 E.00177
G1 X92.043 Y76.961 E.00902
G1 X92.089 Y76.928 E.00177
G1 X93.102 Y76.597 E.03341
G1 X93.158 Y76.596 E.00175
G1 X93.431 Y76.672 E.00889
G1 X93.478 Y76.701 E.00175
G1 X93.965 Y77.265 E.02335
G1 X94.717 Y78.262 E.03915
G1 X94.812 Y77.369 E.02816
G1 X95.008 Y76.303 E.03397
G1 X95.034 Y76.253 E.00177
G1 X95.235 Y76.048 E.00902
G1 X95.285 Y76.021 E.00177
G1 X96.329 Y75.81 E.03341
G1 X96.385 Y75.815 E.00175
G1 X96.648 Y75.922 E.00889
G1 X96.691 Y75.957 E.00175
G1 X97.109 Y76.573 E.02335
G1 X97.74 Y77.651 E.03916
G1 X97.935 Y76.789 E.02771
G1 X98.257 Y75.739 E.03442
G1 X98.288 Y75.693 E.00177
G1 X98.512 Y75.512 E.00902
G1 X98.565 Y75.491 E.00177
G1 X99.626 Y75.402 E.03341
G1 X99.681 Y75.414 E.00175
G1 X99.929 Y75.551 E.00889
G1 X99.968 Y75.591 E.00175
G1 X100.317 Y76.261 E.02371
G1 X100.814 Y77.394 E.0388
G1 X101.107 Y76.561 E.02769
G1 X101.549 Y75.556 E.03441
G1 X101.585 Y75.514 E.00177
G1 X101.828 Y75.36 E.009
G1 X101.883 Y75.346 E.00177
G1 X102.75 Y75.372 E.02721
G1 X103.011 Y75.403 E.00824
G1 X103.234 Y75.567 E.00868
G1 X103.267 Y75.61 E.00171
G1 X103.534 Y76.312 E.02355
G1 X103.895 Y77.501 E.03895
G1 X104.292 Y76.691 E.0283
G1 X104.84 Y75.756 E.03397
G1 X104.881 Y75.718 E.00177
G1 X105.141 Y75.594 E.00902
G1 X105.197 Y75.586 E.00177
G1 X106.251 Y75.745 E.03341
G1 X106.301 Y75.768 E.00175
G1 X106.511 Y75.959 E.00889
G1 X106.54 Y76.007 E.00175
G1 X106.722 Y76.729 E.02335
G1 X106.947 Y77.957 E.03916
G1 X107.424 Y77.214 E.02771
G1 X108.085 Y76.337 E.03442
G1 X108.131 Y76.304 E.00177
G1 X108.403 Y76.211 E.00902
G1 X108.46 Y76.21 E.00177
G1 X109.488 Y76.489 E.03341
G1 X109.535 Y76.519 E.00175
G1 X109.722 Y76.733 E.00889
G1 X109.745 Y76.783 E.00175
G1 X109.842 Y77.522 E.02335
G1 X109.923 Y78.767 E.03914
G1 X110.483 Y78.085 E.02768
G1 X111.242 Y77.291 E.03442
G1 X111.291 Y77.264 E.00177
G1 X111.572 Y77.203 E.00902
G1 X111.628 Y77.208 E.00177
G1 X112.617 Y77.605 E.03341
G1 X112.661 Y77.64 E.00175
G1 X112.821 Y77.874 E.00889
G1 X112.838 Y77.927 E.00175
G1 X112.849 Y78.683 E.0237
G1 X112.785 Y79.918 E.03879
G1 X113.431 Y79.296 E.02814
G1 X114.266 Y78.605 E.03397
G1 X114.318 Y78.584 E.00177
G1 X114.604 Y78.556 E.00902
G1 X114.66 Y78.567 E.00177
G1 X115.596 Y79.076 E.03341
G1 X115.635 Y79.116 E.00175
G1 X115.767 Y79.367 E.00889
G1 X115.778 Y79.422 E.00175
G1 X115.702 Y80.163 E.02335
G1 X115.493 Y81.394 E.03915
G1 X116.208 Y80.85 E.02816
G1 X117.117 Y80.261 E.03397
G1 X117.171 Y80.246 E.00177
G1 X117.459 Y80.252 E.00902
G1 X117.513 Y80.269 E.00177
G1 X118.383 Y80.884 E.03341
G1 X118.417 Y80.928 E.00175
G1 X118.52 Y81.192 E.00889
G1 X118.524 Y81.248 E.00175
G1 X118.363 Y81.975 E.02335
G1 X118.012 Y83.174 E.03916
G1 X118.772 Y82.723 E.02771
G1 X119.757 Y82.237 E.03442
G1 X119.812 Y82.228 E.00177
G1 X120.097 Y82.267 E.00902
G1 X120.149 Y82.291 E.00177
G1 X120.942 Y83.002 E.03341
G1 X120.971 Y83.05 E.00175
G1 X121.042 Y83.325 E.00889
G1 X121.039 Y83.38 E.00175
G1 X120.791 Y84.094 E.0237
G1 X120.308 Y85.233 E.03879
G1 X121.129 Y84.869 E.02814
G1 X122.149 Y84.506 E.03396
G1 X122.205 Y84.504 E.00177
G1 X122.483 Y84.575 E.00901
G1 X122.532 Y84.605 E.00178
G1 X123.241 Y85.412 E.03367
G1 X123.264 Y85.464 E.00178
G1 X123.298 Y85.74 E.00872
G1 X123.289 Y85.793 E.00171
G1 X122.967 Y86.46 E.02322
G1 X122.344 Y87.547 E.03928
G1 X123.206 Y87.28 E.02829
G1 X124.262 Y87.037 E.03397
G1 X124.318 Y87.041 E.00177
G1 X124.587 Y87.145 E.00902
G1 X124.631 Y87.18 E.00177
G1 X125.239 Y88.055 E.03341
G1 X125.256 Y88.108 E.00175
G1 X125.262 Y88.392 E.00889
G1 X125.246 Y88.446 E.00175
G1 X124.847 Y89.074 E.02335
G1 X124.107 Y90.08 E.03915
G1 X124.99 Y89.915 E.02816
G1 X126.067 Y89.797 E.03397
G1 X126.122 Y89.807 E.00177
G1 X126.376 Y89.942 E.00902
G1 X126.417 Y89.982 E.00177
G1 X126.919 Y90.921 E.03341
G1 X126.929 Y90.976 E.00175
G1 X126.902 Y91.258 E.00889
G1 X126.881 Y91.31 E.00175
G1 X126.411 Y91.887 E.02335
G1 X125.559 Y92.801 E.03916
G1 X126.441 Y92.74 E.02771
G1 X127.539 Y92.747 E.03442
G1 X127.593 Y92.764 E.00177
G1 X127.83 Y92.927 E.00902
G1 X127.865 Y92.971 E.00177
G1 X128.254 Y93.963 E.03341
G1 X128.259 Y94.019 E.00175
G1 X128.199 Y94.296 E.00889
G1 X128.172 Y94.345 E.00175
G1 X127.63 Y94.871 E.0237
G1 X126.687 Y95.672 E.03879
G1 X127.583 Y95.715 E.02814
G1 X128.658 Y95.849 E.03397
G1 X128.71 Y95.872 E.00177
G1 X128.926 Y96.061 E.00902
G1 X128.956 Y96.109 E.00177
G1 X129.228 Y97.139 E.03341
G1 X129.226 Y97.195 E.00175
G1 X129.134 Y97.463 E.00889
G1 X129.102 Y97.509 E.00175
G1 X128.511 Y97.962 E.02335
G1 X127.472 Y98.655 E.03915
G1 X128.358 Y98.802 E.02815
G1 X129.41 Y99.059 E.03397
G1 X129.459 Y99.088 E.00177
G1 X129.652 Y99.301 E.00902
G1 X129.676 Y99.352 E.00177
G1 X129.826 Y100.407 E.03341
G1 X129.818 Y100.462 E.00175
G1 X129.696 Y100.718 E.00889
G1 X129.658 Y100.759 E.00175
G1 X129.019 Y101.141 E.02335
G1 X127.906 Y101.708 E.03916
G1 X128.755 Y101.953 E.02771
G1 X129.785 Y102.335 E.03442
G1 X129.829 Y102.369 E.00177
G1 X129.997 Y102.603 E.00902
G1 X130.014 Y102.657 E.00177
G1 X130.041 Y103.722 E.03341
G1 X130.026 Y103.776 E.00175
G1 X129.875 Y104.016 E.00889
G1 X129.833 Y104.052 E.00175
G1 X129.144 Y104.362 E.0237
G1 X127.984 Y104.792 E.03879
G1 X128.811 Y105.139 E.02814
G1 X129.776 Y105.632 E.03397
G1 X129.817 Y105.671 E.00177
G1 X129.955 Y105.923 E.00902
G1 X129.967 Y105.979 E.00177
G1 X129.87 Y107.04 E.03341
G1 X129.849 Y107.091 E.00175
G1 X129.671 Y107.312 E.00889
G1 X129.625 Y107.344 E.00175
G1 X128.915 Y107.568 E.02335
G1 X127.701 Y107.863 E.03916
G1 X128.471 Y108.297 E.02771
G1 X129.385 Y108.906 E.03442
G1 X129.42 Y108.95 E.00177
G1 X129.529 Y109.216 E.00902
G1 X129.534 Y109.272 E.00177
G1 X129.314 Y110.315 E.03341
G1 X129.288 Y110.364 E.00175
G1 X129.085 Y110.563 E.00889
G1 X129.036 Y110.588 E.00175
G1 X128.305 Y110.729 E.02335
G1 X127.066 Y110.882 E.03914
G1 X127.779 Y111.401 E.02768
G1 X128.616 Y112.112 E.03442
G1 X128.646 Y112.16 E.00177
G1 X128.723 Y112.437 E.00902
G1 X128.722 Y112.494 E.00177
G1 X128.383 Y113.504 E.03341
G1 X128.35 Y113.549 E.00175
G1 X128.126 Y113.723 E.00889
G1 X128.074 Y113.743 E.00175
G1 X127.32 Y113.798 E.0237
G1 X126.083 Y113.805 E.0388
G1 X126.732 Y114.404 E.02769
G1 X127.48 Y115.207 E.03441
G1 X127.505 Y115.258 E.00177
G1 X127.549 Y115.542 E.009
G1 X127.541 Y115.598 E.00177
G1 X127.173 Y116.383 E.02721
G1 X127.041 Y116.611 E.00825
G1 X126.802 Y116.751 E.00868
G1 X126.75 Y116.764 E.00171
G1 X125.999 Y116.731 E.02355
G1 X124.765 Y116.591 E.03896
G1 X125.352 Y117.277 E.0283
G1 X125.993 Y118.15 E.03397
G1 X126.011 Y118.204 E.00177
G1 X126.022 Y118.491 E.00902
G1 X126.008 Y118.546 E.00177
G1 X125.445 Y119.45 E.03341
G1 X125.403 Y119.487 E.00175
G1 X125.145 Y119.605 E.00889
G1 X125.09 Y119.612 E.00175
G1 X124.354 Y119.494 E.02335
G1 X123.138 Y119.213 E.03915
G1 X123.638 Y119.958 E.02816
G1 X124.174 Y120.9 E.03397
G1 X124.186 Y120.956 E.00177
G1 X124.163 Y121.242 E.00902
G1 X124.143 Y121.295 E.00177
G1 X123.479 Y122.128 E.03341
G1 X123.433 Y122.16 E.00175
G1 X123.163 Y122.246 E.00889
G1 X123.107 Y122.247 E.00175
G1 X122.39 Y122.044 E.02335
G1 X121.214 Y121.625 E.03916
G1 X121.619 Y122.41 E.02771
G1 X122.048 Y123.421 E.03442
G1 X122.053 Y123.477 E.00177
G1 X121.998 Y123.759 E.00902
G1 X121.971 Y123.809 E.00177
G1 X121.215 Y124.559 E.03341
G1 X121.165 Y124.585 E.00175
G1 X120.887 Y124.64 E.00889
G1 X120.832 Y124.635 E.00175
G1 X120.133 Y124.345 E.0237
G1 X119.025 Y123.797 E.03879
G1 X119.34 Y124.637 E.02814
G1 X119.643 Y125.677 E.03397
G1 X119.643 Y125.734 E.00177
G1 X119.555 Y126.007 E.00902
G1 X119.522 Y126.054 E.00177
G1 X118.684 Y126.711 E.03341
G1 X118.632 Y126.732 E.00175
G1 X118.349 Y126.754 E.00889
G1 X118.295 Y126.742 E.00175
G1 X117.644 Y126.379 E.02335
G1 X116.597 Y125.699 E.03916
G1 X116.81 Y126.557 E.02771
G1 X116.993 Y127.639 E.03442
G1 X116.986 Y127.695 E.00177
G1 X116.867 Y127.957 E.00902
G1 X116.83 Y127.999 E.00177
G1 X115.92 Y128.555 E.03341
G1 X115.867 Y128.569 E.00175
G1 X115.583 Y128.558 E.00889
G1 X115.53 Y128.54 E.00175
G1 X114.927 Y128.104 E.02335
G1 X113.965 Y127.308 E.03914
G1 X114.077 Y128.184 E.02768
G1 X114.134 Y129.28 E.03442
G1 X114.12 Y129.335 E.00177
G1 X113.971 Y129.581 E.00902
G1 X113.929 Y129.619 E.00177
G1 X112.962 Y130.065 E.03341
G1 X112.906 Y130.073 E.00175
G1 X112.626 Y130.029 E.00889
G1 X112.576 Y130.005 E.00175
G1 X112.019 Y129.495 E.0237
G1 X111.164 Y128.6 E.03879
G1 X111.173 Y129.497 E.02814
G1 X111.103 Y130.578 E.03397
G1 X111.083 Y130.631 E.00177
G1 X110.906 Y130.858 E.00902
G1 X110.86 Y130.891 E.00177
G1 X109.847 Y131.222 E.03341
G1 X109.792 Y131.223 E.00175
G1 X109.518 Y131.147 E.00889
G1 X109.471 Y131.118 E.00175
G1 X108.984 Y130.554 E.02335
G1 X108.232 Y129.557 E.03915
G1 X108.137 Y130.45 E.02816
G1 X107.942 Y131.516 E.03397
G1 X107.916 Y131.566 E.00177
G1 X107.714 Y131.771 E.00902
G1 X107.664 Y131.798 E.00177
G1 X106.62 Y132.009 E.03341
G1 X106.565 Y132.004 E.00175
G1 X106.302 Y131.897 E.00889
G1 X106.259 Y131.862 E.00175
G1 X105.84 Y131.246 E.02335
G1 X105.209 Y130.168 E.03916
G1 X105.015 Y131.03 E.02771
G1 X104.693 Y132.08 E.03442
G1 X104.661 Y132.127 E.00177
G1 X104.437 Y132.307 E.00902
G1 X104.385 Y132.328 E.00177
G1 X103.323 Y132.417 E.03341
G1 X103.269 Y132.405 E.00175
G1 X103.02 Y132.268 E.00889
G1 X102.981 Y132.228 E.00175
G1 X102.632 Y131.558 E.0237
G1 X102.135 Y130.425 E.0388
G1 X101.842 Y131.258 E.02769
G1 X101.401 Y132.263 E.03441
G1 X101.364 Y132.305 E.00177
G1 X101.121 Y132.459 E.009
G1 X101.067 Y132.473 E.00177
G1 X100.2 Y132.447 E.02721
G1 X99.939 Y132.416 E.00824
G1 X99.715 Y132.252 E.00868
G1 X99.682 Y132.209 E.00171
G1 X99.415 Y131.507 E.02355
G1 X99.055 Y130.318 E.03895
G1 X98.658 Y131.128 E.0283
G1 X98.11 Y132.063 E.03396
G1 X98.068 Y132.101 E.00177
G1 X97.809 Y132.225 E.00902
G1 X97.753 Y132.233 E.00177
G1 X96.699 Y132.075 E.03341
G1 X96.649 Y132.051 E.00175
G1 X96.439 Y131.86 E.00889
G1 X96.41 Y131.812 E.00175
G1 X96.227 Y131.09 E.02335
G1 X96.003 Y129.862 E.03915
G1 X95.517 Y130.617 E.02816
G1 X94.864 Y131.482 E.03396
G1 X94.818 Y131.515 E.00177
G1 X94.546 Y131.608 E.00902
G1 X94.49 Y131.61 E.00177
G1 X93.462 Y131.33 E.03341
G1 X93.414 Y131.3 E.00175
G1 X93.228 Y131.087 E.00889
G1 X93.205 Y131.036 E.00175
G1 X93.107 Y130.297 E.02335
G1 X93.027 Y129.051 E.03916
G1 X92.467 Y129.734 E.02771
G1 X91.708 Y130.528 E.03442
G1 X91.659 Y130.555 E.00177
G1 X91.378 Y130.616 E.00902
G1 X91.321 Y130.611 E.00177
G1 X90.333 Y130.214 E.03341
G1 X90.289 Y130.179 E.00175
G1 X90.129 Y129.945 E.00889
G1 X90.112 Y129.892 E.00175
G1 X90.101 Y129.136 E.02371
G1 X90.165 Y127.901 E.03879
G1 X89.518 Y128.523 E.02814
G1 X88.684 Y129.214 E.03396
G1 X88.632 Y129.236 E.00177
G1 X88.345 Y129.263 E.00902
G1 X88.29 Y129.252 E.00177
G1 X87.354 Y128.743 E.03341
G1 X87.315 Y128.703 E.00175
G1 X87.183 Y128.452 E.00889
G1 X87.172 Y128.397 E.00175
G1 X87.248 Y127.657 E.02335
G1 X87.457 Y126.426 E.03915
G1 X86.742 Y126.969 E.02816
G1 X85.833 Y127.558 E.03396
G1 X85.778 Y127.573 E.00177
G1 X85.491 Y127.568 E.00902
G1 X85.437 Y127.55 E.00177
G1 X84.567 Y126.935 E.03341
G1 X84.532 Y126.892 E.00175
G1 X84.43 Y126.627 E.00889
G1 X84.426 Y126.571 E.00175
G1 X84.587 Y125.844 E.02335
G1 X84.938 Y124.646 E.03916
G1 X84.177 Y125.096 E.02771
G1 X83.193 Y125.582 E.03442
G1 X83.137 Y125.591 E.00177
G1 X82.852 Y125.552 E.00902
G1 X82.801 Y125.528 E.00177
G1 X82.008 Y124.817 E.03341
G1 X81.979 Y124.769 E.00175
G1 X81.908 Y124.495 E.00889
G1 X81.91 Y124.439 E.00175
G1 X82.159 Y123.725 E.02371
G1 X82.642 Y122.586 E.03878
G1 X81.821 Y122.95 E.02814
G1 X80.801 Y123.313 E.03396
G1 X80.745 Y123.316 E.00177
G1 X80.466 Y123.244 E.00901
G1 X80.418 Y123.214 E.00178
G1 X79.709 Y122.407 E.03367
G1 X79.686 Y122.356 E.00178
G1 X79.652 Y122.08 E.00872
G1 X79.661 Y122.026 E.00171
G1 X79.983 Y121.359 E.02322
G1 X80.605 Y120.272 E.03927
G1 X79.744 Y120.539 E.02829
G1 X78.688 Y120.782 E.03396
G1 X78.631 Y120.778 E.00177
G1 X78.363 Y120.674 E.00902
G1 X78.319 Y120.639 E.00177
G1 X77.711 Y119.764 E.03341
G1 X77.694 Y119.711 E.00175
G1 X77.688 Y119.427 E.00889
G1 X77.703 Y119.374 E.00175
G1 X78.103 Y118.745 E.02335
G1 X78.843 Y117.739 E.03915
G1 X77.96 Y117.904 E.02816
G1 X76.883 Y118.022 E.03396
G1 X76.828 Y118.012 E.00177
G1 X76.573 Y117.878 E.00902
G1 X76.533 Y117.838 E.00177
G1 X76.031 Y116.898 E.03341
G1 X76.02 Y116.843 E.00175
G1 X76.048 Y116.561 E.00889
G1 X76.069 Y116.509 E.00175
G1 X76.539 Y115.932 E.02335
G1 X77.39 Y115.018 E.03916
G1 X76.509 Y115.079 E.02771
G1 X75.411 Y115.072 E.03442
G1 X75.357 Y115.055 E.00177
G1 X75.12 Y114.892 E.00902
G1 X75.085 Y114.848 E.00177
G1 X74.695 Y113.856 E.03341
G1 X74.691 Y113.801 E.00175
M73 P2 R36
G1 X74.751 Y113.523 E.00889
G1 X74.778 Y113.475 E.00175
G1 X75.32 Y112.948 E.02371
G1 X76.263 Y112.147 E.03878
G1 X75.366 Y112.104 E.02814
G1 X74.291 Y111.971 E.03396
G1 X74.24 Y111.948 E.00177
G1 X74.023 Y111.758 E.00902
G1 X73.993 Y111.71 E.00177
G1 X73.722 Y110.68 E.03341
G1 X73.724 Y110.624 E.00175
G1 X73.815 Y110.356 E.00889
G1 X73.848 Y110.311 E.00175
G1 X74.439 Y109.857 E.02335
G1 X75.478 Y109.165 E.03915
G1 X74.592 Y109.018 E.02816
G1 X73.539 Y108.76 E.03396
G1 X73.491 Y108.732 E.00177
G1 X73.298 Y108.518 E.00902
G1 X73.274 Y108.467 E.00177
G1 X73.123 Y107.412 E.03341
G1 X73.132 Y107.357 E.00175
G1 X73.254 Y107.101 E.00889
G1 X73.291 Y107.06 E.00175
G1 X73.931 Y106.678 E.02335
G1 X75.043 Y106.111 E.03916
G1 X74.194 Y105.867 E.02771
G1 X73.165 Y105.485 E.03442
G1 X73.12 Y105.45 E.00177
G1 X72.953 Y105.216 E.00902
G1 X72.935 Y105.163 E.00177
G1 X72.908 Y104.097 E.03341
G1 X72.923 Y104.044 E.00175
G1 X73.074 Y103.804 E.00889
G1 X73.116 Y103.767 E.00175
G1 X73.806 Y103.458 E.02371
G1 X74.966 Y103.027 E.03878
G1 X74.138 Y102.68 E.02814
G1 X73.174 Y102.187 E.03396
G1 X73.133 Y102.148 E.00177
G1 X72.994 Y101.896 E.00902
G1 X72.983 Y101.841 E.00177
G1 X73.08 Y100.78 E.03341
G1 X73.101 Y100.728 E.00175
G1 X73.279 Y100.507 E.00889
G1 X73.325 Y100.476 E.00175
G1 X74.035 Y100.252 E.02335
