; generated by PrusaSlicer 2.5.0 on 2022-09-12 at 13:49:11 UTC


;
;

;
;
; 

; external perimeters extrusion width = 0.45mm
; perimeters extrusion width = 0.45mm
; infill extrusion width = 0.45mm
; solid infill extrusion width = 0.45mm
; top infill extrusion width = 0.40mm
; first layer extrusion width = 0.42mm

M73 P0 R38
M107
;TYPE:Custom
G90 ; use absolute coordinates
M83 ; extruder relative mode
M204 S1250 T1250
M104 S215 ; set extruder temp
M140 S75 ; set bed temp
G28 ; home all
G1 Y1.0 Z0.3 F1000 ; move print head up
M190 S75 ; wait for bed temp
M109 S215 ; wait for extruder temp
G92 E0.0
; initial load
G1 X205.0 E19 F1000
G1 Y1.6
G1 X5.0 E19 F1000
G92 E0.0
; intro line
G1 Y2.0 Z0.2 F1000
M73 P1 R37
G1 X65.0 E9.0 F1000
G1 X105.0 E12.5 F1000
G92 E0.0
G21 ; set units to millimeters
G90 ; use absolute coordinates
M83 ; use relative distances for extrusion
; Filament gcode
M107
;LAYER_CHANGE
;Z:0.2
;HEIGHT:0.2
;BEFORE_LAYER_CHANGE
G92 E0.0
;0.2
G1 Z.2 F10800
;AFTER_LAYER_CHANGE
;0.2
G1 E-6 F2400
G1 Z.275 F10800
G1 X34.498 Y32.49
G1 Z.2
G1 E6 F3000
M204 S800
;TYPE:Skirt/Brim
;WIDTH:0.42
G1 F1200
G1 X36.604 Y30.627 E.08816
G1 X39.373 Y28.644 E.10679
G1 X42.46 Y26.927 E.11075
G1 X43.598 Y26.408 E.03922
G1 X46.594 Y25.29 E.10027
G1 X49.955 Y24.446 E.10864
G1 X53.457 Y23.985 E.11076
G1 X56.268 Y23.912 E.08816
G1 X59.79 Y24.188 E.11076
G1 X63.132 Y24.841 E.10679
G1 X64.337 Y25.175 E.03922
G1 X67.583 Y26.345 E.10817
G1 X70.527 Y27.792 E.10284
G1 X73.447 Y29.657 E.10865
G1 X75.647 Y31.408 E.08817
G1 X78.081 Y33.79 E.10679
G1 X80.309 Y36.532 E.11075
G1 X81.017 Y37.562 E.03922
G1 X82.638 Y40.319 E.10025
G1 X84.053 Y43.482 E.10865
G1 X84.929 Y46.154 E.08817
G1 X85.653 Y49.482 E.10679
G1 X86.008 Y52.996 E.11075
G1 X86.034 Y54.247 E.03922
G1 X85.873 Y57.44 E.10024
G1 X85.317 Y60.86 E.10866
G1 X84.581 Y63.574 E.08817
G1 X83.357 Y66.753 E.10679
G1 X81.722 Y69.884 E.11075
G1 X81.057 Y70.943 E.03922
G1 X79.168 Y73.522 E.10023
G1 X76.823 Y76.074 E.10867
G1 X74.717 Y77.937 E.08817
G1 X71.948 Y79.921 E.10679
G1 X68.862 Y81.638 E.11075
G1 X67.724 Y82.157 E.03922
G1 X64.728 Y83.274 E.10023
G1 X61.367 Y84.118 E.10867
G1 X57.865 Y84.579 E.11076
G1 X55.054 Y84.652 E.08816
G1 X51.532 Y84.377 E.11076
G1 X48.189 Y83.723 E.10679
G1 X46.984 Y83.389 E.03921
G1 X43.739 Y82.22 E.10814
G1 X40.795 Y80.773 E.10285
G1 X37.875 Y78.908 E.10867
G1 X35.674 Y77.157 E.08816
G1 X33.24 Y74.774 E.10679
G1 X31.013 Y72.033 E.11075
G1 X30.304 Y71.002 E.03921
G1 X28.684 Y68.246 E.10025
G1 X27.269 Y65.083 E.10866
G1 X26.392 Y62.411 E.08816
G1 X25.668 Y59.083 E.10679
G1 X25.314 Y55.569 E.11075
G1 X25.288 Y54.318 E.03921
G1 X25.448 Y51.125 E.10026
G1 X26.005 Y47.704 E.10866
G1 X26.741 Y44.991 E.08816
G1 X27.964 Y41.812 E.10679
G1 X29.599 Y38.681 E.11075
G1 X30.265 Y37.622 E.03921
G1 X32.191 Y34.998 E.10208
G1 X34.458 Y32.534 E.10494
M204 S1000
; printing object InvoluteGear001 (Meshed).stl id:0 copy 0
G1 E-3.6 F2400
;WIPE_START
G1 F8640
G1 X36.604 Y30.627 E-.75775
G1 X39.373 Y28.644 E-.89875
G1 X41.438 Y27.495 E-.62349
;WIPE_END
G1 E-.12 F2400
G1 Z.275 F10800
G1 X36.267 Y34.381
G1 Z.2
G1 E6 F3000
M204 S800
;TYPE:External perimeter
;WIDTH:0.419999
G1 F1200
G1 X36.697 Y34.56 E.0146
G1 X37.258 Y34.834 E.01957
G1 X38.306 Y35.469 E.03842
G1 X38.44 Y35.422 E.00445
G1 X39.119 Y34.807 E.02873
G1 X39.123 Y34.633 E.00545
G1 X38.731 Y33.839 E.02776
G1 X38.536 Y33.323 E.01731
G1 X38.317 Y32.572 E.02452
G1 X38.709 Y32.265 E.01562
G1 X39.115 Y32.492 E.01459
G1 X39.64 Y32.829 E.01957
G1 X40.607 Y33.581 E.03842
G1 X40.746 Y33.55 E.00445
G1 X41.492 Y33.018 E.02873
G1 X41.516 Y32.846 E.00545
G1 X41.218 Y32.012 E.02776
G1 X41.085 Y31.476 E.01731
G1 X40.954 Y30.705 E.02452
G1 X41.379 Y30.445 E.01562
G1 X41.756 Y30.719 E.0146
G1 X42.239 Y31.114 E.01957
G1 X43.112 Y31.974 E.03842
G1 X43.253 Y31.959 E.00445
G1 X44.056 Y31.517 E.02873
G1 X44.1 Y31.349 E.00545
G1 X43.901 Y30.486 E.02776
G1 X43.831 Y29.938 E.01731
G1 X43.791 Y29.157 E.02452
G1 X44.243 Y28.949 E.01562
G1 X44.586 Y29.264 E.0146
G1 X45.019 Y29.713 E.01957
G1 X45.787 Y30.668 E.03842
G1 X45.929 Y30.669 E.00445
G1 X46.778 Y30.324 E.02873
G1 X46.841 Y30.162 E.00545
G1 X46.744 Y29.282 E.02776
G1 X46.737 Y28.73 E.01731
G1 X46.788 Y27.949 E.02452
G1 X47.262 Y27.794 E.01562
G1 X47.565 Y28.147 E.01459
G1 X47.944 Y28.644 E.01957
G1 X48.595 Y29.681 E.03842
G1 X48.736 Y29.699 E.00445
G1 X49.619 Y29.455 E.02873
G1 X49.7 Y29.301 E.00545
G1 X49.706 Y28.415 E.02776
G1 X49.764 Y27.866 E.01731
G1 X49.905 Y27.097 E.02452
G1 X50.393 Y26.998 E.01562
G1 X50.654 Y27.384 E.01459
G1 X50.972 Y27.921 E.01957
G1 X51.499 Y29.027 E.03842
G1 X51.637 Y29.062 E.00445
G1 X52.542 Y28.921 E.02873
G1 X52.641 Y28.778 E.00545
G1 X52.749 Y27.899 E.02776
G1 X52.871 Y27.36 E.01731
G1 X53.1 Y26.613 E.02452
G1 X53.597 Y26.571 E.01562
G1 X53.811 Y26.985 E.01459
G1 X54.064 Y27.555 E.01957
G1 X54.459 Y28.715 E.03842
G1 X54.592 Y28.765 E.00445
G1 X55.508 Y28.731 E.02873
G1 X55.622 Y28.6 E.00545
G1 X55.832 Y27.74 E.02776
G1 X56.015 Y27.219 E.01731
G1 X56.33 Y26.503 E.02452
G1 X56.827 Y26.519 E.01561
G1 X56.992 Y26.954 E.01459
G1 X57.161 Y27.49 E.01762
G1 X57.301 Y28.069 E.01867
G1 X57.436 Y28.748 E.02172
G1 X57.562 Y28.813 E.00445
G1 X58.475 Y28.886 E.02873
G1 X58.604 Y28.769 E.00545
G1 X58.912 Y27.939 E.02776
G1 X59.154 Y27.443 E.01731
G1 X59.55 Y26.768 E.02452
G1 X60.043 Y26.842 E.01562
G1 X60.156 Y27.294 E.01459
G1 X60.271 Y27.907 E.01958
G1 X60.388 Y29.127 E.03842
G1 X60.506 Y29.206 E.00445
G1 X61.4 Y29.385 E.02859
G1 X61.546 Y29.283 E.00558
G1 X61.949 Y28.495 E.02776
G1 X62.247 Y28.03 E.01731
G1 X62.718 Y27.406 E.02452
G1 X63.199 Y27.537 E.01562
G1 X63.258 Y27.985 E.01417
G1 X63.302 Y28.6 E.01933
G1 X63.305 Y29.119 E.01628
G1 X63.256 Y29.744 E.01967
G1 X63.279 Y29.851 E.00341
G1 X63.396 Y29.942 E.00466
G1 X64.256 Y30.219 E.02833
G1 X64.409 Y30.135 E.00546
G1 X64.9 Y29.399 E.02776
G1 X65.25 Y28.972 E.01731
G1 X65.791 Y28.407 E.02452
G1 X66.253 Y28.593 E.01562
G1 X66.259 Y29.058 E.01459
G1 X66.229 Y29.682 E.01957
G1 X66.062 Y30.895 E.03842
G1 X66.163 Y31.002 E.00462
G1 X66.992 Y31.38 E.02854
G1 X67.153 Y31.314 E.00545
G1 X67.726 Y30.64 E.02776
G1 X68.123 Y30.256 E.01731
G1 X68.726 Y29.758 E.02452
G1 X69.164 Y29.996 E.01562
G1 X69.116 Y30.459 E.01459
G1 X69.014 Y31.075 E.01958
G1 X68.706 Y32.261 E.03842
G1 X68.79 Y32.376 E.00445
G1 X69.574 Y32.85 E.02873
G1 X69.741 Y32.804 E.00545
G1 X70.389 Y32.2 E.02776
G1 X70.828 Y31.866 E.01731
G1 X71.485 Y31.44 E.02452
G1 X71.892 Y31.728 E.01562
G1 X71.79 Y32.182 E.01459
G1 X71.618 Y32.782 E.01958
G1 X71.175 Y33.924 E.03842
G1 X71.244 Y34.048 E.00445
M73 P2 R37
G1 X71.968 Y34.61 E.02873
G1 X72.14 Y34.584 E.00545
G1 X72.853 Y34.06 E.02776
G1 X73.328 Y33.778 E.01731
G1 X74.03 Y33.432 E.02452
G1 X74.4 Y33.765 E.01562
G1 X74.247 Y34.204 E.01459
G1 X74.006 Y34.78 E.01958
G1 X73.433 Y35.863 E.03842
G1 X73.488 Y35.994 E.00445
G1 X74.141 Y36.636 E.02873
G1 X74.315 Y36.63 E.00545
G1 X75.085 Y36.192 E.02776
G1 X75.589 Y35.968 E.01731
G1 X76.326 Y35.705 E.02452
G1 X76.656 Y36.078 E.01561
G1 X76.453 Y36.497 E.01459
G1 X76.178 Y36.988 E.01763
G1 X75.854 Y37.487 E.01867
G1 X75.452 Y38.051 E.02172
G1 X75.491 Y38.187 E.00445
G1 X76.065 Y38.901 E.02873
G1 X76.238 Y38.915 E.00545
G1 X77.054 Y38.57 E.02776
G1 X77.581 Y38.405 E.01731
G1 X78.343 Y38.23 E.02452
G1 X78.627 Y38.639 E.01562
G1 X78.376 Y39.031 E.01459
G1 X78.009 Y39.536 E.01958
G1 X77.202 Y40.458 E.03842
G1 X77.225 Y40.598 E.00445
G1 X77.713 Y41.374 E.02873
G1 X77.883 Y41.408 E.00545
G1 X78.733 Y41.159 E.02776
G1 X79.276 Y41.057 E.01731
G1 X80.053 Y40.972 E.02452
G1 X80.288 Y41.411 E.01562
G1 X79.993 Y41.772 E.01459
G1 X79.57 Y42.23 E.01958
G1 X78.661 Y43.052 E.03842
G1 X78.668 Y43.194 E.00445
G1 X79.062 Y44.021 E.02873
G1 X79.228 Y44.075 E.00545
G1 X80.101 Y43.927 E.02776
G1 X80.651 Y43.888 E.01731
G1 X81.433 Y43.894 E.02452
G1 X81.615 Y44.357 E.01562
G1 X81.281 Y44.681 E.01459
G1 X80.807 Y45.088 E.01958
G1 X79.809 Y45.799 E.03842
G1 X79.8 Y45.94 E.00445
G1 X80.095 Y46.807 E.02873
G1 X80.253 Y46.88 E.00545
G1 X81.138 Y46.834 E.02776
G1 X81.689 Y46.86 E.01731
G1 X82.465 Y46.956 E.02452
G1 X82.592 Y47.438 E.01562
G1 X82.223 Y47.72 E.01459
G1 X81.705 Y48.069 E.01958
G1 X80.631 Y48.659 E.03842
G1 X80.605 Y48.799 E.00445
G1 X80.798 Y49.695 E.02873
G1 X80.946 Y49.785 E.00545
G1 X81.83 Y49.842 E.02776
G1 X82.375 Y49.932 E.01731
G1 X83.134 Y50.117 E.02452
G1 X83.205 Y50.61 E.01562
G1 X82.805 Y50.848 E.01459
G1 X82.25 Y51.135 E.01958
G1 X81.115 Y51.596 E.03842
G1 X81.073 Y51.732 E.00445
G1 X81.16 Y52.644 E.02873
G1 X81.298 Y52.751 E.00545
G1 X82.168 Y52.91 E.02776
G1 X82.699 Y53.062 E.01731
G1 X83.432 Y53.335 E.02452
G1 X83.445 Y53.833 E.01562
G1 X83.02 Y54.023 E.01459
G1 X82.436 Y54.243 E.01958
G1 X81.255 Y54.57 E.03842
G1 X81.197 Y54.699 E.00445
G1 X81.178 Y55.615 E.02873
G1 X81.302 Y55.737 E.00545
G1 X82.149 Y55.997 E.02776
G1 X82.658 Y56.21 E.01731
G1 X83.354 Y56.565 E.02452
G1 X83.309 Y57.061 E.01562
G1 X82.865 Y57.201 E.01459
G1 X82.259 Y57.351 E.01958
G1 X81.048 Y57.539 E.03842
G1 X80.976 Y57.661 E.00445
G1 X80.85 Y58.564 E.02859
G1 X80.96 Y58.704 E.00558
G1 X81.77 Y59.06 E.02776
G1 X82.252 Y59.331 E.01731
G1 X82.902 Y59.765 E.02452
G1 X82.799 Y60.252 E.01562
G1 X82.356 Y60.337 E.01417
G1 X81.744 Y60.417 E.01933
G1 X81.226 Y60.451 E.01628
G1 X80.599 Y60.438 E.01967
G1 X80.494 Y60.467 E.00341
G1 X80.41 Y60.589 E.00466
G1 X80.183 Y61.464 E.02833
G1 X80.275 Y61.611 E.00545
G1 X81.039 Y62.059 E.02776
G1 X81.486 Y62.384 E.01731
G1 X82.081 Y62.89 E.02452
G1 X81.923 Y63.363 E.01562
G1 X81.459 Y63.396 E.01459
G1 X80.834 Y63.403 E.01958
G1 X79.613 Y63.306 E.03842
G1 X79.512 Y63.414 E.00462
G1 X79.183 Y64.262 E.02854
G1 X79.258 Y64.419 E.00545
G1 X79.965 Y64.953 E.02776
G1 X80.371 Y65.327 E.01731
G1 X80.904 Y65.9 E.02452
G1 X80.691 Y66.35 E.01561
G1 X80.227 Y66.329 E.01459
G1 X79.667 Y66.272 E.01762
G1 X79.081 Y66.171 E.01867
G1 X78.403 Y66.026 E.02172
G1 X78.294 Y66.115 E.00445
G1 X77.866 Y66.926 E.02873
G1 X77.922 Y67.09 E.00545
G1 X78.562 Y67.702 E.02776
G1 X78.921 Y68.121 E.01731
G1 X79.384 Y68.751 E.02452
G1 X79.121 Y69.174 E.01562
G1 X78.662 Y69.1 E.01459
G1 X78.053 Y68.962 E.01958
G1 X76.886 Y68.586 E.03842
G1 X76.767 Y68.663 E.00445
G1 X76.248 Y69.418 E.02873
G1 X76.284 Y69.588 E.00545
G1 X76.849 Y70.27 E.02776
G1 X77.158 Y70.728 E.01731
G1 X77.544 Y71.408 E.02452
G1 X77.233 Y71.797 E.01562
G1 X76.786 Y71.67 E.01459
G1 X76.197 Y71.462 E.01958
G1 X75.082 Y70.954 E.03842
G1 X74.955 Y71.016 E.00445
G1 X74.351 Y71.706 E.02873
G1 X74.368 Y71.879 E.00545
G1 X74.85 Y72.622 E.02776
G1 X75.103 Y73.112 E.01731
G1 X75.408 Y73.832 E.02452
G1 X75.054 Y74.183 E.01562
G1 X74.625 Y74.004 E.01459
G1 X74.064 Y73.73 E.01958
G1 X73.015 Y73.096 E.03842
G1 X72.882 Y73.143 E.00445
G1 X72.202 Y73.758 E.02873
G1 X72.199 Y73.931 E.00545
G1 X72.591 Y74.725 E.02776
G1 X72.786 Y75.242 E.01731
G1 X73.005 Y75.993 E.02452
G1 X72.613 Y76.3 E.01562
G1 X72.207 Y76.073 E.01459
G1 X71.681 Y75.735 E.01958
G1 X70.714 Y74.983 E.03842
G1 X70.576 Y75.014 E.00445
G1 X69.832 Y75.542 E.02859
G1 X69.806 Y75.719 E.00558
G1 X70.103 Y76.553 E.02776
G1 X70.237 Y77.088 E.01731
G1 X70.367 Y77.859 E.02452
G1 X69.942 Y78.119 E.01562
G1 X69.576 Y77.855 E.01417
G1 X69.098 Y77.465 E.01933
G1 X68.718 Y77.111 E.01628
G1 X68.297 Y76.646 E.01967
G1 X68.204 Y76.59 E.00341
G1 X68.057 Y76.612 E.00466
G1 X67.265 Y77.047 E.02833
G1 X67.222 Y77.216 E.00545
G1 X67.42 Y78.079 E.02776
G1 X67.49 Y78.626 E.01731
G1 X67.53 Y79.407 E.02452
G1 X67.078 Y79.616 E.01562
G1 X66.735 Y79.301 E.01459
G1 X66.302 Y78.852 E.01957
G1 X65.534 Y77.897 E.03842
G1 X65.387 Y77.897 E.00462
G1 X64.544 Y78.241 E.02854
G1 X64.481 Y78.403 E.00545
G1 X64.578 Y79.283 E.02776
G1 X64.584 Y79.835 E.01731
G1 X64.533 Y80.615 E.02452
G1 X64.06 Y80.77 E.01562
G1 X63.756 Y80.418 E.01459
G1 X63.378 Y79.921 E.01958
G1 X62.726 Y78.883 E.03842
G1 X62.585 Y78.865 E.00445
G1 X61.702 Y79.11 E.02873
G1 X61.621 Y79.264 E.00545
G1 X61.615 Y80.149 E.02776
G1 X61.558 Y80.698 E.01731
G1 X61.416 Y81.467 E.02452
G1 X60.928 Y81.566 E.01562
G1 X60.667 Y81.181 E.01459
G1 X60.349 Y80.643 E.01958
G1 X59.822 Y79.537 E.03842
G1 X59.685 Y79.503 E.00445
G1 X58.779 Y79.643 E.02873
G1 X58.681 Y79.787 E.00545
G1 X58.572 Y80.665 E.02776
G1 X58.451 Y81.204 E.01731
G1 X58.221 Y81.952 E.02452
G1 X57.725 Y81.993 E.01562
G1 X57.511 Y81.58 E.01459
G1 X57.257 Y81.009 E.01957
G1 X56.862 Y79.85 E.03842
G1 X56.73 Y79.8 E.00445
G1 X55.814 Y79.834 E.02873
G1 X55.699 Y79.965 E.00545
G1 X55.489 Y80.825 E.02776
G1 X55.307 Y81.346 E.01731
G1 X54.992 Y82.062 E.02452
G1 X54.494 Y82.046 E.01561
G1 X54.329 Y81.611 E.01459
G1 X54.16 Y81.074 E.01762
G1 X54.02 Y80.496 E.01867
G1 X53.886 Y79.816 E.02172
G1 X53.76 Y79.751 E.00445
G1 X52.847 Y79.679 E.02873
G1 X52.718 Y79.796 E.00545
G1 X52.409 Y80.626 E.02776
G1 X52.167 Y81.122 E.01731
G1 X51.771 Y81.796 E.02452
G1 X51.279 Y81.722 E.01562
G1 X51.166 Y81.271 E.01459
G1 X51.05 Y80.657 E.01957
G1 X50.934 Y79.438 E.03842
G1 X50.816 Y79.358 E.00445
G1 X49.917 Y79.181 E.02873
G1 X49.776 Y79.281 E.00545
G1 X49.373 Y80.07 E.02776
G1 X49.075 Y80.535 E.01731
G1 X48.604 Y81.159 E.02452
G1 X48.123 Y81.028 E.01562
G1 X48.063 Y80.566 E.0146
G1 X48.02 Y79.944 E.01957
G1 X48.045 Y78.719 E.03842
G1 X47.938 Y78.626 E.00445
G1 X47.066 Y78.345 E.02873
G1 X46.913 Y78.429 E.00545
G1 X46.422 Y79.166 E.02776
G1 X46.072 Y79.593 E.01731
G1 X45.531 Y80.158 E.02452
G1 X45.069 Y79.972 E.01562
G1 X45.063 Y79.507 E.0146
G1 X45.092 Y78.883 E.01957
G1 X45.26 Y77.669 E.03842
G1 X45.164 Y77.565 E.00445
G1 X44.33 Y77.185 E.02873
G1 X44.169 Y77.25 E.00545
G1 X43.595 Y77.925 E.02776
G1 X43.198 Y78.308 E.01731
G1 X42.596 Y78.807 E.02452
G1 X42.158 Y78.569 E.01562
G1 X42.206 Y78.106 E.01459
G1 X42.308 Y77.49 E.01957
G1 X42.615 Y76.304 E.03842
G1 X42.532 Y76.189 E.00445
G1 X41.748 Y75.715 E.02873
G1 X41.58 Y75.761 E.00545
G1 X40.932 Y76.364 E.02776
G1 X40.493 Y76.699 E.01731
G1 X39.837 Y77.124 E.02452
G1 X39.43 Y76.837 E.01562
G1 X39.531 Y76.383 E.01459
G1 X39.704 Y75.783 E.01957
G1 X40.147 Y74.64 E.03842
G1 X40.077 Y74.517 E.00445
G1 X39.354 Y73.954 E.02873
G1 X39.182 Y73.981 E.00545
G1 X38.468 Y74.505 E.02776
G1 X37.993 Y74.787 E.01731
G1 X37.292 Y75.133 E.02452
G1 X36.921 Y74.8 E.01562
G1 X37.075 Y74.361 E.01459
G1 X37.316 Y73.785 E.01957
G1 X37.888 Y72.702 E.03842
G1 X37.834 Y72.571 E.00445
G1 X37.18 Y71.928 E.02873
G1 X37.006 Y71.935 E.00545
G1 X36.237 Y72.372 E.02776
G1 X35.732 Y72.597 E.01731
G1 X34.996 Y72.859 E.02452
G1 X34.666 Y72.486 E.01561
G1 X34.869 Y72.068 E.01459
G1 X35.143 Y71.577 E.01763
G1 X35.468 Y71.078 E.01866
G1 X35.87 Y70.514 E.02172
G1 X35.831 Y70.378 E.00445
G1 X35.257 Y69.664 E.02873
G1 X35.083 Y69.65 E.00545
G1 X34.268 Y69.995 E.02776
G1 X33.741 Y70.16 E.01731
G1 X32.979 Y70.335 E.02452
G1 X32.695 Y69.925 E.01562
G1 X32.945 Y69.533 E.01459
G1 X33.313 Y69.028 E.01957
G1 X34.12 Y68.107 E.03842
G1 X34.097 Y67.967 E.00445
G1 X33.609 Y67.191 E.02873
G1 X33.438 Y67.157 E.00545
G1 X32.588 Y67.405 E.02776
G1 X32.046 Y67.508 E.01731
G1 X31.269 Y67.593 E.02452
G1 X31.034 Y67.154 E.01562
G1 X31.328 Y66.793 E.0146
G1 X31.752 Y66.334 E.01957
G1 X32.66 Y65.512 E.03842
G1 X32.654 Y65.371 E.00445
G1 X32.26 Y64.543 E.02873
G1 X32.094 Y64.49 E.00545
G1 X31.221 Y64.638 E.02776
G1 X30.67 Y64.677 E.01731
G1 X29.888 Y64.671 E.02452
G1 X29.706 Y64.207 E.01562
G1 X30.041 Y63.884 E.0146
G1 X30.514 Y63.477 E.01957
G1 X31.512 Y62.766 E.03842
G1 X31.522 Y62.625 E.00445
G1 X31.227 Y61.757 E.02873
G1 X31.068 Y61.685 E.00545
G1 X30.184 Y61.731 E.02776
G1 X29.632 Y61.705 E.01731
G1 X28.856 Y61.609 E.02452
G1 X28.729 Y61.127 E.01562
G1 X29.099 Y60.844 E.0146
G1 X29.617 Y60.496 E.01957
G1 X30.691 Y59.905 E.03842
G1 X30.717 Y59.766 E.00445
G1 X30.524 Y58.87 E.02873
G1 X30.375 Y58.78 E.00545
G1 X29.492 Y58.723 E.02776
G1 X28.947 Y58.633 E.01731
G1 X28.187 Y58.448 E.02452
G1 X28.117 Y57.954 E.01562
G1 X28.517 Y57.716 E.0146
G1 X29.072 Y57.43 E.01957
G1 X30.207 Y56.968 E.03842
G1 X30.249 Y56.833 E.00445
G1 X30.161 Y55.921 E.02873
G1 X30.024 Y55.814 E.00545
G1 X29.153 Y55.655 E.02776
G1 X28.622 Y55.502 E.01731
