; generated by PrusaSlicer 2.5.0 on 2022-09-12 at 15:21:04 UTC


;
;

;
;
; 

; external perimeters extrusion width = 0.45mm
; perimeters extrusion width = 0.45mm
; infill extrusion width = 0.45mm
; solid infill extrusion width = 0.45mm
; top infill extrusion width = 0.40mm
; first layer extrusion width = 0.42mm

M73 P0 R18
M107
;TYPE:Custom
G90 ; use absolute coordinates
M83 ; extruder relative mode
M204 S1250 T1250
M104 S215 ; set extruder temp
M140 S75 ; set bed temp
G28 ; home all
G1 Y1.0 Z0.3 F1000 ; move print head up
M190 S75 ; wait for bed temp
M109 S215 ; wait for extruder temp
G92 E0.0
; initial load
G1 X205.0 E19 F1000
G1 Y1.6
M73 P1 R18
G1 X5.0 E19 F1000
G92 E0.0
; intro line
G1 Y2.0 Z0.2 F1000
M73 P2 R18
G1 X65.0 E9.0 F1000
G1 X105.0 E12.5 F1000
G92 E0.0
G21 ; set units to millimeters
G90 ; use absolute coordinates
M83 ; use relative distances for extrusion
; Filament gcode
M107
;LAYER_CHANGE
;Z:0.2
;HEIGHT:0.2
;BEFORE_LAYER_CHANGE
G92 E0.0
;0.2
G1 Z.2 F10800
;AFTER_LAYER_CHANGE
;0.2
; printing object InvoluteGear001 (Meshed).stl id:0 copy 0
G1 E-6 F2400
G1 Z.275 F10800
G1 X92.581 Y94.509
G1 Z.2
G1 E6 F3000
M204 S800
;TYPE:External perimeter
;WIDTH:0.419999
G1 F1086
G1 X93.011 Y94.688 E.0146
G1 X93.572 Y94.962 E.01957
G1 X94.62 Y95.596 E.03842
G1 X94.754 Y95.549 E.00445
G1 X95.433 Y94.934 E.02873
G1 X95.437 Y94.76 E.00545
G1 X95.045 Y93.967 E.02776
G1 X94.85 Y93.45 E.01731
G1 X94.631 Y92.699 E.02452
G1 X95.023 Y92.392 E.01562
G1 X95.429 Y92.619 E.01459
G1 X95.954 Y92.957 E.01957
G1 X96.921 Y93.709 E.03842
G1 X97.06 Y93.677 E.00445
G1 X97.806 Y93.146 E.02873
G1 X97.83 Y92.973 E.00545
G1 X97.532 Y92.139 E.02776
G1 X97.399 Y91.604 E.01731
G1 X97.268 Y90.833 E.02452
G1 X97.693 Y90.573 E.01562
G1 X98.07 Y90.846 E.0146
G1 X98.553 Y91.242 E.01957
G1 X99.426 Y92.101 E.03842
G1 X99.568 Y92.086 E.00445
G1 X100.37 Y91.644 E.02873
G1 X100.414 Y91.476 E.00545
G1 X100.215 Y90.613 E.02776
G1 X100.145 Y90.066 E.01731
G1 X100.105 Y89.285 E.02452
G1 X100.557 Y89.076 E.01562
G1 X100.9 Y89.391 E.0146
G1 X101.333 Y89.84 E.01957
G1 X102.101 Y90.795 E.03842
G1 X102.243 Y90.797 E.00445
G1 X103.092 Y90.451 E.02873
G1 X103.155 Y90.289 E.00545
G1 X103.058 Y89.409 E.02776
G1 X103.051 Y88.857 E.01731
G1 X103.102 Y88.077 E.02452
G1 X103.576 Y87.922 E.01562
G1 X103.879 Y88.274 E.01459
G1 X104.258 Y88.771 E.01957
G1 X104.909 Y89.808 E.03842
G1 X105.05 Y89.827 E.00445
G1 X105.933 Y89.582 E.02873
G1 X106.014 Y89.428 E.00545
G1 X106.02 Y88.543 E.02776
G1 X106.078 Y87.994 E.01731
G1 X106.219 Y87.225 E.02452
G1 X106.707 Y87.126 E.01562
G1 X106.968 Y87.511 E.01459
G1 X107.286 Y88.048 E.01957
G1 X107.813 Y89.155 E.03842
M73 P3 R18
G1 X107.951 Y89.189 E.00445
G1 X108.856 Y89.048 E.02873
G1 X108.955 Y88.905 E.00545
G1 X109.063 Y88.026 E.02776
G1 X109.185 Y87.488 E.01731
G1 X109.414 Y86.74 E.02452
G1 X109.911 Y86.699 E.01562
G1 X110.125 Y87.112 E.01459
G1 X110.378 Y87.682 E.01957
G1 X110.773 Y88.842 E.03842
G1 X110.906 Y88.892 E.00445
G1 X111.822 Y88.858 E.02873
G1 X111.936 Y88.727 E.00545
G1 X112.146 Y87.867 E.02776
G1 X112.329 Y87.346 E.01731
G1 X112.644 Y86.63 E.02452
G1 X113.141 Y86.646 E.01561
G1 X113.306 Y87.081 E.01459
G1 X113.475 Y87.617 E.01762
G1 X113.615 Y88.196 E.01867
G1 X113.75 Y88.876 E.02172
G1 X113.876 Y88.941 E.00445
G1 X114.789 Y89.013 E.02873
G1 X114.918 Y88.896 E.00545
G1 X115.226 Y88.066 E.02776
G1 X115.468 Y87.57 E.01731
G1 X115.864 Y86.895 E.02452
G1 X116.357 Y86.97 E.01562
G1 X116.47 Y87.421 E.01459
G1 X116.585 Y88.035 E.01958
G1 X116.702 Y89.254 E.03842
G1 X116.82 Y89.334 E.00445
G1 X117.714 Y89.512 E.02859
G1 X117.86 Y89.41 E.00558
G1 X118.263 Y88.622 E.02776
G1 X118.561 Y88.157 E.01731
G1 X119.032 Y87.533 E.02452
G1 X119.513 Y87.664 E.01562
G1 X119.572 Y88.112 E.01417
G1 X119.616 Y88.727 E.01933
G1 X119.619 Y89.246 E.01628
G1 X119.57 Y89.872 E.01967
G1 X119.593 Y89.978 E.00341
G1 X119.71 Y90.069 E.00466
G1 X120.57 Y90.346 E.02833
G1 X120.723 Y90.263 E.00546
G1 X121.214 Y89.526 E.02776
G1 X121.564 Y89.099 E.01731
G1 X122.105 Y88.534 E.02452
G1 X122.567 Y88.72 E.01562
G1 X122.573 Y89.185 E.01459
G1 X122.543 Y89.809 E.01957
G1 X122.376 Y91.023 E.03842
G1 X122.477 Y91.129 E.00462
G1 X123.306 Y91.507 E.02854
G1 X123.467 Y91.441 E.00545
G1 X124.04 Y90.767 E.02776
G1 X124.437 Y90.384 E.01731
G1 X125.04 Y89.885 E.02452
G1 X125.478 Y90.123 E.01562
G1 X125.43 Y90.586 E.01459
G1 X125.328 Y91.202 E.01958
G1 X125.021 Y92.388 E.03842
G1 X125.104 Y92.503 E.00445
G1 X125.888 Y92.977 E.02873
G1 X126.055 Y92.931 E.00545
G1 X126.703 Y92.328 E.02776
G1 X127.142 Y91.993 E.01731
G1 X127.799 Y91.568 E.02452
G1 X128.206 Y91.855 E.01562
G1 X128.104 Y92.309 E.01459
G1 X127.932 Y92.909 E.01958
G1 X127.489 Y94.052 E.03842
G1 X127.558 Y94.175 E.00445
G1 X128.282 Y94.737 E.02873
G1 X128.454 Y94.711 E.00545
G1 X129.167 Y94.187 E.02776
G1 X129.642 Y93.905 E.01731
G1 X130.344 Y93.559 E.02452
G1 X130.714 Y93.892 E.01562
G1 X130.561 Y94.331 E.01459
G1 X130.32 Y94.907 E.01958
G1 X129.747 Y95.99 E.03842
G1 X129.802 Y96.121 E.00445
G1 X130.455 Y96.764 E.02873
G1 X130.629 Y96.757 E.00545
G1 X131.399 Y96.319 E.02776
G1 X131.903 Y96.095 E.01731
G1 X132.64 Y95.833 E.02452
G1 X132.97 Y96.206 E.01561
G1 X132.767 Y96.624 E.01459
G1 X132.492 Y97.115 E.01763
G1 X132.168 Y97.614 E.01867
G1 X131.766 Y98.178 E.02172
G1 X131.805 Y98.314 E.00445
G1 X132.379 Y99.028 E.02873
G1 X132.552 Y99.042 E.00545
G1 X133.368 Y98.697 E.02776
G1 X133.895 Y98.532 E.01731
G1 X134.657 Y98.357 E.02452
G1 X134.941 Y98.767 E.01562
G1 X134.69 Y99.159 E.01459
G1 X134.323 Y99.664 E.01958
G1 X133.516 Y100.585 E.03842
G1 X133.539 Y100.725 E.00445
G1 X134.027 Y101.501 E.02873
G1 X134.197 Y101.535 E.00545
G1 X135.047 Y101.287 E.02776
G1 X135.59 Y101.184 E.01731
G1 X136.367 Y101.099 E.02452
G1 X136.602 Y101.539 E.01562
G1 X136.307 Y101.899 E.01459
G1 X135.884 Y102.358 E.01958
G1 X134.975 Y103.18 E.03842
G1 X134.982 Y103.321 E.00445
G1 X135.376 Y104.149 E.02873
G1 X135.542 Y104.202 E.00545
G1 X136.415 Y104.054 E.02776
G1 X136.965 Y104.015 E.01731
G1 X137.747 Y104.021 E.02452
G1 X137.93 Y104.485 E.01562
G1 X137.595 Y104.808 E.01459
G1 X137.121 Y105.215 E.01958
G1 X136.123 Y105.926 E.03842
G1 X136.114 Y106.067 E.00445
G1 X136.409 Y106.935 E.02873
G1 X136.567 Y107.007 E.00545
G1 X137.452 Y106.961 E.02776
G1 X138.003 Y106.987 E.01731
G1 X138.779 Y107.083 E.02452
G1 X138.906 Y107.565 E.01562
G1 X138.537 Y107.848 E.01459
G1 X138.019 Y108.196 E.01958
G1 X136.945 Y108.787 E.03842
G1 X136.919 Y108.926 E.00445
G1 X137.112 Y109.822 E.02873
G1 X137.261 Y109.912 E.00545
G1 X138.144 Y109.969 E.02776
G1 X138.689 Y110.059 E.01731
G1 X139.448 Y110.245 E.02452
G1 X139.519 Y110.738 E.01562
G1 X139.119 Y110.976 E.01459
G1 X138.564 Y111.262 E.01958
G1 X137.429 Y111.724 E.03842
G1 X137.387 Y111.859 E.00445
G1 X137.474 Y112.771 E.02873
G1 X137.612 Y112.878 E.00545
G1 X138.483 Y113.037 E.02776
G1 X139.013 Y113.19 E.01731
G1 X139.746 Y113.462 E.02452
G1 X139.759 Y113.96 E.01562
G1 X139.334 Y114.15 E.01459
G1 X138.75 Y114.37 E.01958
G1 X137.569 Y114.697 E.03842
G1 X137.511 Y114.826 E.00445
G1 X137.492 Y115.742 E.02873
G1 X137.616 Y115.864 E.00545
G1 X138.463 Y116.124 E.02776
G1 X138.972 Y116.337 E.01731
G1 X139.668 Y116.693 E.02452
G1 X139.623 Y117.189 E.01562
G1 X139.179 Y117.328 E.01459
G1 X138.573 Y117.479 E.01958
G1 X137.362 Y117.666 E.03842
G1 X137.29 Y117.788 E.00445
G1 X137.164 Y118.691 E.02859
G1 X137.274 Y118.831 E.00558
G1 X138.084 Y119.187 E.02776
G1 X138.566 Y119.458 E.01731
G1 X139.216 Y119.892 E.02452
G1 X139.114 Y120.38 E.01562
G1 X138.67 Y120.465 E.01417
G1 X138.058 Y120.544 E.01933
G1 X137.54 Y120.578 E.01628
G1 X136.913 Y120.565 E.01967
G1 X136.808 Y120.594 E.00341
G1 X136.724 Y120.717 E.00466
G1 X136.497 Y121.591 E.02833
G1 X136.59 Y121.739 E.00545
G1 X137.353 Y122.186 E.02776
G1 X137.8 Y122.511 E.01731
G1 X138.395 Y123.018 E.02452
G1 X138.237 Y123.49 E.01562
G1 X137.773 Y123.523 E.01459
G1 X137.148 Y123.53 E.01958
G1 X135.927 Y123.433 E.03842
G1 X135.826 Y123.541 E.00462
G1 X135.497 Y124.39 E.02854
G1 X135.572 Y124.547 E.00545
G1 X136.279 Y125.08 E.02776
G1 X136.685 Y125.454 E.01731
G1 X137.218 Y126.027 E.02452
G1 X137.006 Y126.477 E.01561
G1 X136.541 Y126.457 E.01459
G1 X135.982 Y126.399 E.01762
M73 P3 R17
G1 X135.395 Y126.299 E.01867
G1 X134.717 Y126.153 E.02172
G1 X134.608 Y126.243 E.00445
G1 X134.18 Y127.053 E.02873
G1 X134.236 Y127.217 E.00545
G1 X134.876 Y127.829 E.02776
G1 X135.236 Y128.248 E.01731
G1 X135.698 Y128.879 E.02452
G1 X135.435 Y129.302 E.01562
G1 X134.976 Y129.227 E.01459
G1 X134.367 Y129.09 E.01958
G1 X133.2 Y128.714 E.03842
G1 X133.081 Y128.79 E.00445
G1 X132.562 Y129.545 E.02873
G1 X132.598 Y129.715 E.00545
G1 X133.163 Y130.397 E.02776
G1 X133.472 Y130.855 E.01731
G1 X133.858 Y131.535 E.02452
G1 X133.547 Y131.924 E.01562
G1 X133.1 Y131.797 E.01459
G1 X132.511 Y131.59 E.01958
G1 X131.396 Y131.081 E.03842
G1 X131.269 Y131.143 E.00445
G1 X130.665 Y131.833 E.02873
G1 X130.682 Y132.006 E.00545
G1 X131.164 Y132.749 E.02776
G1 X131.417 Y133.239 E.01731
G1 X131.722 Y133.96 E.02452
G1 X131.368 Y134.31 E.01562
G1 X130.939 Y134.132 E.01459
G1 X130.378 Y133.858 E.01958
G1 X129.33 Y133.223 E.03842
G1 X129.196 Y133.27 E.00445
G1 X128.516 Y133.885 E.02873
G1 X128.513 Y134.059 E.00545
G1 X128.905 Y134.853 E.02776
G1 X129.1 Y135.369 E.01731
G1 X129.319 Y136.12 E.02452
G1 X128.927 Y136.427 E.01562
G1 X128.521 Y136.2 E.01459
G1 X127.995 Y135.863 E.01958
G1 X127.028 Y135.111 E.03842
G1 X126.89 Y135.142 E.00445
G1 X126.146 Y135.67 E.02859
G1 X126.12 Y135.846 E.00558
G1 X126.417 Y136.68 E.02776
G1 X126.551 Y137.216 E.01731
G1 X126.681 Y137.987 E.02452
G1 X126.256 Y138.246 E.01562
G1 X125.89 Y137.982 E.01417
G1 X125.412 Y137.592 E.01933
G1 X125.032 Y137.238 E.01628
G1 X124.611 Y136.773 E.01967
G1 X124.518 Y136.717 E.00341
G1 X124.371 Y136.739 E.00466
G1 X123.579 Y137.175 E.02833
G1 X123.536 Y137.343 E.00545
G1 X123.734 Y138.206 E.02776
G1 X123.804 Y138.754 E.01731
G1 X123.844 Y139.534 E.02452
G1 X123.392 Y139.743 E.01562
G1 X123.05 Y139.428 E.01459
G1 X122.616 Y138.979 E.01957
G1 X121.848 Y138.024 E.03842
G1 X121.701 Y138.025 E.00462
G1 X120.858 Y138.368 E.02854
G1 X120.795 Y138.53 E.00545
G1 X120.892 Y139.41 E.02776
G1 X120.898 Y139.962 E.01731
G1 X120.847 Y140.743 E.02452
G1 X120.374 Y140.897 E.01562
G1 X120.07 Y140.545 E.01459
G1 X119.692 Y140.048 E.01958
G1 X119.04 Y139.011 E.03842
G1 X118.899 Y138.993 E.00445
G1 X118.016 Y139.237 E.02873
G1 X117.935 Y139.391 E.00545
G1 X117.929 Y140.276 E.02776
G1 X117.872 Y140.825 E.01731
G1 X117.73 Y141.595 E.02452
G1 X117.242 Y141.693 E.01562
G1 X116.981 Y141.308 E.01459
G1 X116.663 Y140.771 E.01958
G1 X116.136 Y139.665 E.03842
G1 X115.999 Y139.63 E.00445
G1 X115.093 Y139.771 E.02873
G1 X114.995 Y139.914 E.00545
G1 X114.886 Y140.793 E.02776
G1 X114.765 Y141.331 E.01731
G1 X114.535 Y142.079 E.02452
G1 X114.039 Y142.12 E.01562
G1 X113.825 Y141.707 E.01459
G1 X113.571 Y141.137 E.01957
G1 X113.176 Y139.977 E.03842
G1 X113.044 Y139.927 E.00445
G1 X112.128 Y139.961 E.02873
G1 X112.013 Y140.092 E.00545
G1 X111.804 Y140.952 E.02776
G1 X111.621 Y141.473 E.01731
G1 X111.306 Y142.189 E.02452
G1 X110.808 Y142.173 E.01561
G1 X110.643 Y141.738 E.01459
G1 X110.474 Y141.202 E.01762
G1 X110.334 Y140.623 E.01867
G1 X110.2 Y139.943 E.02172
G1 X110.074 Y139.878 E.00445
G1 X109.161 Y139.806 E.02873
G1 X109.032 Y139.923 E.00545
G1 X108.723 Y140.753 E.02776
G1 X108.481 Y141.249 E.01731
G1 X108.085 Y141.924 E.02452
G1 X107.593 Y141.849 E.01562
G1 X107.48 Y141.398 E.01459
G1 X107.364 Y140.784 E.01957
G1 X107.248 Y139.565 E.03842
G1 X107.13 Y139.486 E.00445
G1 X106.231 Y139.308 E.02873
G1 X106.09 Y139.409 E.00545
G1 X105.687 Y140.197 E.02776
G1 X105.389 Y140.662 E.01731
G1 X104.918 Y141.286 E.02452
G1 X104.437 Y141.155 E.01562
G1 X104.377 Y140.694 E.0146
G1 X104.334 Y140.071 E.01957
G1 X104.359 Y138.846 E.03842
G1 X104.252 Y138.754 E.00445
G1 X103.38 Y138.473 E.02873
G1 X103.227 Y138.556 E.00545
G1 X102.736 Y139.293 E.02776
G1 X102.386 Y139.72 E.01731
G1 X101.845 Y140.285 E.02452
G1 X101.383 Y140.099 E.01562
G1 X101.377 Y139.634 E.0146
M73 P4 R17
G1 X101.406 Y139.01 E.01957
G1 X101.574 Y137.797 E.03842
G1 X101.478 Y137.692 E.00445
G1 X100.644 Y137.312 E.02873
G1 X100.483 Y137.378 E.00545
G1 X99.909 Y138.052 E.02776
G1 X99.512 Y138.436 E.01731
G1 X98.91 Y138.934 E.02452
G1 X98.472 Y138.696 E.01562
G1 X98.52 Y138.233 E.01459
G1 X98.622 Y137.617 E.01957
G1 X98.929 Y136.431 E.03842
G1 X98.846 Y136.316 E.00445
G1 X98.062 Y135.842 E.02873
G1 X97.894 Y135.888 E.00545
G1 X97.246 Y136.492 E.02776
G1 X96.807 Y136.826 E.01731
G1 X96.151 Y137.252 E.02452
G1 X95.744 Y136.964 E.01562
G1 X95.845 Y136.51 E.01459
G1 X96.018 Y135.91 E.01957
G1 X96.461 Y134.768 E.03842
G1 X96.391 Y134.644 E.00445
G1 X95.668 Y134.082 E.02873
G1 X95.496 Y134.108 E.00545
G1 X94.782 Y134.632 E.02776
G1 X94.307 Y134.914 E.01731
G1 X93.606 Y135.26 E.02452
G1 X93.235 Y134.927 E.01562
G1 X93.389 Y134.488 E.01459
G1 X93.63 Y133.912 E.01957
G1 X94.202 Y132.829 E.03842
G1 X94.148 Y132.698 E.00445
G1 X93.494 Y132.056 E.02873
G1 X93.321 Y132.062 E.00545
G1 X92.551 Y132.5 E.02776
G1 X92.046 Y132.724 E.01731
G1 X91.31 Y132.987 E.02452
G1 X90.98 Y132.613 E.01561
G1 X91.183 Y132.195 E.01459
G1 X91.457 Y131.704 E.01763
G1 X91.782 Y131.205 E.01866
G1 X92.184 Y130.641 E.02172
G1 X92.145 Y130.505 E.00445
G1 X91.571 Y129.791 E.02873
G1 X91.397 Y129.777 E.00545
G1 X90.582 Y130.122 E.02776
G1 X90.055 Y130.287 E.01731
G1 X89.293 Y130.462 E.02452
G1 X89.009 Y130.053 E.01562
G1 X89.259 Y129.661 E.01459
G1 X89.627 Y129.156 E.01957
G1 X90.434 Y128.234 E.03842
G1 X90.411 Y128.094 E.00445
G1 X89.923 Y127.318 E.02873
G1 X89.752 Y127.284 E.00545
G1 X88.903 Y127.533 E.02776
G1 X88.36 Y127.635 E.01731
G1 X87.583 Y127.72 E.02452
G1 X87.348 Y127.281 E.01562
G1 X87.642 Y126.92 E.0146
G1 X88.066 Y126.462 E.01957
G1 X88.974 Y125.64 E.03842
G1 X88.968 Y125.498 E.00445
G1 X88.574 Y124.671 E.02873
G1 X88.408 Y124.617 E.00545
G1 X87.535 Y124.765 E.02776
G1 X86.984 Y124.804 E.01731
G1 X86.202 Y124.798 E.02452
G1 X86.02 Y124.335 E.01562
G1 X86.355 Y124.011 E.0146
G1 X86.828 Y123.604 E.01957
G1 X87.826 Y122.893 E.03842
G1 X87.836 Y122.752 E.00445
G1 X87.541 Y121.885 E.02873
G1 X87.382 Y121.812 E.00545
G1 X86.498 Y121.858 E.02776
G1 X85.947 Y121.832 E.01731
G1 X85.17 Y121.736 E.02452
G1 X85.043 Y121.255 E.01562
G1 X85.413 Y120.972 E.0146
G1 X85.931 Y120.623 E.01957
G1 X87.005 Y120.033 E.03842
G1 X87.031 Y119.893 E.00445
G1 X86.838 Y118.997 E.02873
G1 X86.689 Y118.907 E.00545
G1 X85.806 Y118.85 E.02776
G1 X85.261 Y118.761 E.01731
G1 X84.501 Y118.575 E.02452
G1 X84.431 Y118.082 E.01562
G1 X84.831 Y117.844 E.0146
G1 X85.386 Y117.557 E.01957
G1 X86.521 Y117.096 E.03842
G1 X86.563 Y116.96 E.00445
G1 X86.475 Y116.048 E.02873
G1 X86.338 Y115.942 E.00545
G1 X85.467 Y115.782 E.02776
G1 X84.936 Y115.63 E.01731
G1 X84.203 Y115.357 E.02452
G1 X84.191 Y114.859 E.01562
G1 X84.616 Y114.669 E.0146
G1 X85.2 Y114.449 E.01957
G1 X86.381 Y114.123 E.03842
G1 X86.438 Y113.993 E.00445
G1 X86.457 Y113.077 E.02873
G1 X86.333 Y112.955 E.00545
G1 X85.487 Y112.695 E.02776
G1 X84.977 Y112.483 E.01731
G1 X84.281 Y112.127 E.02452
G1 X84.326 Y111.631 E.01562
G1 X84.771 Y111.491 E.0146
G1 X85.376 Y111.341 E.01957
G1 X86.587 Y111.153 E.03842
G1 X86.66 Y111.031 E.00445
G1 X86.785 Y110.123 E.02873
G1 X86.676 Y109.988 E.00545
G1 X85.865 Y109.632 E.02776
G1 X85.384 Y109.361 E.01731
G1 X84.733 Y108.927 E.02452
G1 X84.836 Y108.44 E.01562
G1 X85.293 Y108.353 E.0146
G1 X85.913 Y108.274 E.01957
G1 X87.137 Y108.228 E.03842
G1 X87.223 Y108.115 E.00445
G1 X87.453 Y107.228 E.02873
G1 X87.36 Y107.081 E.00545
G1 X86.596 Y106.633 E.02776
G1 X86.15 Y106.308 E.01731
G1 X85.554 Y105.802 E.02452
G1 X85.713 Y105.329 E.01562
G1 X86.177 Y105.296 E.0146
G1 X86.801 Y105.289 E.01957
G1 X88.023 Y105.386 E.03842
G1 X88.121 Y105.284 E.00445
G1 X88.452 Y104.43 E.02873
G1 X88.377 Y104.273 E.00545
G1 X87.671 Y103.739 E.02776
G1 X87.265 Y103.365 E.01731
G1 X86.732 Y102.793 E.02452
G1 X86.944 Y102.342 E.01561
G1 X87.409 Y102.363 E.01459
G1 X87.968 Y102.42 E.01763
G1 X88.555 Y102.521 E.01866
