; generated by PrusaSlicer 2.5.0 on 2022-12-18 at 09:33:02 UTC


;
;

;
;
; 

; external perimeters extrusion width = 0.45mm
; perimeters extrusion width = 0.45mm
; infill extrusion width = 0.45mm
; solid infill extrusion width = 0.45mm
; top infill extrusion width = 0.40mm
; first layer extrusion width = 0.42mm

; external perimeters extrusion width = 0.45mm
; perimeters extrusion width = 0.45mm
; infill extrusion width = 0.45mm
; solid infill extrusion width = 0.45mm
; top infill extrusion width = 0.40mm
; first layer extrusion width = 0.42mm

M73 P0 R210
M107
;TYPE:Custom
G90 ; use absolute coordinates
M83 ; extruder relative mode
M204 S1250 T1250
M104 S215 ; set extruder temp
M140 S80 ; set bed temp
G28 ; home all
G1 Y1.0 Z0.3 F1000 ; move print head up
M190 S80 ; wait for bed temp
M109 S215 ; wait for extruder temp
G92 E0.0
; initial load
G1 X205.0 E19 F1000
G1 Y1.6
G1 X5.0 E19 F1000
G92 E0.0
; intro line
G1 Y2.0 Z0.2 F1000
G1 X65.0 E9.0 F1000
G1 X105.0 E12.5 F1000
G92 E0.0
G21 ; set units to millimeters
G90 ; use absolute coordinates
M83 ; use relative distances for extrusion
; Filament gcode
M107
;LAYER_CHANGE
;Z:0.25
;HEIGHT:0.25
;BEFORE_LAYER_CHANGE
G92 E0.0
;0.25
G1 E-4 F1200
G1 Z.275 F10800
;AFTER_LAYER_CHANGE
;0.25
G1 X72.717 Y137.228
G1 Z.25
G1 E4 F1800
M204 S800
;TYPE:Skirt/Brim
;WIDTH:0.42
G1 F720
G1 X73.807 Y136.86 E.04382
G1 X117.508 Y136.811 E1.66402
G1 X134.147 Y136.898 E.63359
G1 X135.957 Y136.831 E.06897
G1 X137.749 Y136.632 E.06864
G1 X139.527 Y136.298 E.06891
G1 X147.24 Y134.466 E.30186
G1 X167.495 Y129.939 E.79026
G1 X168.113 Y129.873 E.02368
G1 X168.338 Y129.968 E.00929
G1 X168.49 Y130.149 E.00899
G1 X168.955 Y130.296 E.01855
G1 X169.006 Y130.341 E.00259
G1 X169.247 Y130.817 E.02031
G1 X176.431 Y151.366 E.82893
G1 X176.504 Y151.589 E.00893
G1 X176.506 Y151.726 E.0052
G1 X176.538 Y151.847 E.00479
G1 X176.536 Y152.113 E.01013
G1 X176.462 Y152.301 E.00766
G1 X176.342 Y152.446 E.00716
G1 X176.134 Y152.599 E.00985
G1 X176.122 Y152.724 E.00477
G1 X175.948 Y153.053 E.01416
G1 X175.893 Y153.099 E.00274
G1 X175.583 Y153.197 E.01236
G1 X175.454 Y153.207 E.00492
G1 X175.325 Y153.251 E.0052
G1 X175.083 Y153.255 E.0092
G1 X81.782 Y153.255 E3.5527
G1 X81.597 Y153.188 E.0075
G1 X81.424 Y153.197 E.00658
G1 X81.304 Y153.179 E.00462
G1 X81.049 Y153.071 E.01055
G1 X80.806 Y152.862 E.0122
G1 X80.688 Y152.659 E.00895
G1 X80.542 Y152.534 E.00731
G1 X72.707 Y138.751 E.6037
G1 X72.488 Y137.621 E.04384
G1 X72.499 Y137.557 E.00247
G1 X72.67 Y137.266 E.01286
M204 S1000
G1 X72.932 Y137.54 F10800
M204 S800
G1 F720
G1 X73.839 Y137.226 E.03653
G1 X117.507 Y137.177 E1.6628
G1 X134.153 Y137.265 E.63382
M73 P0 R209
G1 X135.984 Y137.197 E.06978
G1 X137.803 Y136.994 E.06967
G1 X139.603 Y136.657 E.06976
G1 X147.321 Y134.823 E.30206
G1 X167.566 Y130.299 E.78988
G1 X168.038 Y130.239 E.01812
G1 X168.128 Y130.277 E.00372
G1 X168.404 Y130.641 E.01739
G1 X168.591 Y130.556 E.00783
G1 X168.729 Y130.604 E.00556
G1 X168.905 Y130.949 E.01475
G1 X176.084 Y151.482 E.82825
G1 X176.141 Y151.657 E.007
G1 X176.13 Y151.762 E.00402
G1 X176.174 Y151.893 E.00526
G1 X176.178 Y152.033 E.00533
G1 X176.156 Y152.096 E.00253
G1 X176.079 Y152.19 E.00463
G1 X175.775 Y152.397 E.014
G1 X175.719 Y152.56 E.00658
G1 X175.746 Y152.651 E.00359
G1 X175.676 Y152.783 E.00571
G1 X175.503 Y152.838 E.00691
G1 X175.365 Y152.841 E.00526
G1 X175.269 Y152.885 E.00402
G1 X175.082 Y152.889 E.00713
G1 X81.831 Y152.889 E3.55076
G1 X81.679 Y152.817 E.0064
G1 X81.429 Y152.83 E.00953
G1 X81.227 Y152.75 E.00825
G1 X81.081 Y152.618 E.00751
G1 X80.974 Y152.407 E.00899
G1 X80.837 Y152.31 E.0064
G1 X73.041 Y138.598 E.60063
G1 X72.866 Y137.654 E.03653
G1 X72.902 Y137.592 E.00272
M204 S1000
G1 E-2.4 F1200
;WIPE_START
G1 F8640
G1 X73.839 Y137.226 E-.13267
G1 X84.353 Y137.214 E-1.38733
;WIPE_END
G1 E-.08 F1200
G1 Z.525 F10800
G1 X72.935 Y108.142
G1 Z.25
G1 E4 F1800
M204 S800
G1 F720
G1 X71.086 Y108.14 E.07042
G1 X69.995 Y107.772 E.04382
G1 X69.945 Y107.731 E.00247
G1 X69.778 Y107.443 E.01268
G1 X69.767 Y107.379 E.00247
G1 X69.986 Y106.249 E.04384
G1 X77.821 Y92.466 E.6037
G1 X77.967 Y92.341 E.00731
G1 X78.084 Y92.138 E.00895
G1 X78.328 Y91.929 E.0122
G1 X78.583 Y91.821 E.01055
G1 X78.703 Y91.803 E.00462
G1 X78.875 Y91.812 E.00658
G1 X79.061 Y91.745 E.0075
G1 X172.595 Y91.748 E3.56155
G1 X172.733 Y91.793 E.00553
G1 X172.862 Y91.803 E.00494
G1 X173.171 Y91.901 E.01236
G1 X173.227 Y91.947 E.00274
G1 X173.401 Y92.276 E.01416
G1 X173.412 Y92.395 E.00455
G1 X173.571 Y92.509 E.00742
G1 X173.767 Y92.747 E.01176
G1 X173.824 Y92.94 E.00767
G1 X173.782 Y93.42 E.01833
G1 X166.526 Y114.183 E.83751
G1 X166.285 Y114.659 E.02031
G1 X166.233 Y114.704 E.00259
G1 X165.769 Y114.851 E.01855
G1 X165.617 Y115.032 E.00899
G1 X165.392 Y115.127 E.00929
G1 X164.773 Y115.061 E.02368
G1 X144.519 Y110.534 E.79026
G1 X136.806 Y108.702 E.30186
G1 X135.027 Y108.368 E.06891
G1 X133.236 Y108.169 E.06864
G1 X131.426 Y108.102 E.06897
G1 X114.786 Y108.189 E.63359
G1 X72.995 Y108.142 E1.59132
M204 S1000
G1 X72.995 Y107.776 F10800
M204 S800
G1 F720
G1 X71.118 Y107.774 E.07151
G1 X70.211 Y107.46 E.03653
G1 X70.145 Y107.346 E.00501
G1 X70.32 Y106.402 E.03653
G1 X78.115 Y92.69 E.60063
G1 X78.253 Y92.593 E.0064
G1 X78.359 Y92.382 E.00899
G1 X78.506 Y92.25 E.00751
G1 X78.708 Y92.17 E.00825
G1 X78.958 Y92.183 E.00953
G1 X79.11 Y92.111 E.0064
G1 X172.545 Y92.114 E3.55779
G1 X172.645 Y92.159 E.00418
G1 X172.782 Y92.162 E.00521
G1 X172.955 Y92.217 E.00691
G1 X173.025 Y92.349 E.00571
G1 X172.998 Y92.44 E.00359
G1 X173.054 Y92.606 E.00668
G1 X173.319 Y92.776 E.01201
G1 X173.436 Y92.907 E.00667
G1 X173.456 Y92.967 E.0024
G1 X173.452 Y93.107 E.00533
G1 X173.41 Y93.237 E.00521
G1 X173.42 Y93.346 E.00418
G1 X166.184 Y114.051 E.83514
G1 X166.008 Y114.396 E.01475
G1 X165.87 Y114.444 E.00556
G1 X165.683 Y114.359 E.00783
G1 X165.407 Y114.723 E.01739
G1 X165.317 Y114.761 E.00372
G1 X164.845 Y114.701 E.01812
G1 X144.6 Y110.177 E.78988
G1 X136.882 Y108.343 E.30206
G1 X135.081 Y108.006 E.06976
G1 X133.263 Y107.803 E.06967
G1 X131.432 Y107.735 E.06978
G1 X114.786 Y107.823 E.63382
G1 X73.055 Y107.776 E1.58901
M204 S1000
; printing object knive1.stl id:0 copy 0
G1 E-2.4 F1200
;WIPE_START
G1 F8640
G1 X71.118 Y107.774 E-.2557
G1 X70.211 Y107.46 E-.12657
G1 X70.145 Y107.346 E-.01736
G1 X70.32 Y106.402 E-.1266
G1 X74.042 Y99.855 E-.99377
;WIPE_END
G1 E-.08 F1200
G1 Z.525 F10800
G1 X77.296 Y105.19
G1 Z.25
G1 E4 F1800
M204 S800
;TYPE:Perimeter
;WIDTH:0.419999
G1 F720
G1 X73.992 Y105.186 E.12581
G1 X79.952 Y94.702 E.45919
G1 X170.2 Y94.705 E3.43642
G1 X164.191 Y111.9 E.69357
M73 P0 R208
G1 X145.181 Y107.652 E.74169
G1 X137.476 Y105.821 E.30154
G1 X135.551 Y105.457 E.07461
G1 X133.543 Y105.227 E.07698
G1 X131.422 Y105.144 E.08079
G1 X114.781 Y105.231 E.63365
G1 X77.356 Y105.19 E1.42507
M204 S1000
G1 E-2.4 F1200
;WIPE_START
M73 P1 R208
G1 F8640
G1 X73.992 Y105.186 E-.44386
G1 X78.023 Y98.096 E-1.07614
;WIPE_END
G1 E-.08 F1200
G1 Z.525 F10800
G1 X144.419 Y107.847
G1 Z.25
G1 E4 F1800
M204 S800
G1 F720
G1 X137.392 Y106.177 E.27504
G1 X135.484 Y105.818 E.07394
G1 X133.502 Y105.591 E.07594
G1 X131.51 Y105.512 E.07593
G1 X114.782 Y105.598 E.63694
G1 X73.363 Y105.552 E1.57715
G1 X79.739 Y94.336 E.49125
G1 X170.716 Y94.339 E3.46418
G1 X164.429 Y112.329 E.72564
G1 X144.478 Y107.861 E.7785
M204 S1000
G1 E-2.4 F1200
;WIPE_START
G1 F8640
G1 X137.392 Y106.177 E-.96099
G1 X135.484 Y105.818 E-.25621
G1 X133.502 Y105.591 E-.26316
G1 X133.202 Y105.579 E-.03964
;WIPE_END
G1 E-.08 F1200
G1 Z.525 F10800
G1 X129.366 Y105.887
G1 Z.25
G1 E4 F1800
M204 S800
G1 F720
G1 X114.783 Y105.964 E.55528
G1 X72.734 Y105.917 E1.60114
G1 X79.487 Y94.038 E.52032
G1 X79.574 Y93.97 E.00422
G1 X171.232 Y93.972 E3.4901
G1 X164.667 Y112.757 E.7577
G1 X145.016 Y108.366 E.76671
G1 X137.229 Y106.517 E.30474
G1 X135.416 Y106.178 E.07025
G1 X133.461 Y105.955 E.07491
G1 X131.435 Y105.877 E.07722
G1 X129.426 Y105.887 E.07651
M204 S1000
G1 E-2.4 F1200
;WIPE_START
G1 F8640
G1 X117.906 Y105.948 E-1.52
;WIPE_END
G1 E-.08 F1200
G1 Z.525 F10800
G1 X120.496 Y106.3
G1 Z.25
G1 E4 F1800
M204 S800
G1 F720
G1 X114.784 Y106.331 E.21753
G1 X72.104 Y106.283 E1.62513
G1 X79.168 Y93.857 E.54427
G1 X79.342 Y93.654 E.01016
M73 P1 R207
G1 X79.493 Y93.603 E.00607
G1 X171.748 Y93.606 E3.51285
G1 X164.939 Y113.089 E.78588
G1 X164.813 Y113.165 E.00561
G1 X144.934 Y108.723 E.7756
G1 X137.222 Y106.89 E.30182
G1 X135.349 Y106.538 E.0726
G1 X133.421 Y106.319 E.07388
G1 X131.435 Y106.243 E.07567
G1 X120.556 Y106.3 E.41423
M204 S1000
G1 E-2.4 F1200
;WIPE_START
G1 F8640
G1 X114.784 Y106.331 E-.76169
G1 X109.037 Y106.324 E-.75831
;WIPE_END
G1 E-.08 F1200
G1 Z.525 F10800
G1 X125.94 Y93.238
G1 Z.25
G1 E4 F1800
M204 S800
G1 F720
G1 X172.119 Y93.24 E1.75841
G1 X172.22 Y93.367 E.00617
G1 X165.229 Y113.37 E.80682
G1 X165.06 Y113.426 E.00677
G1 X164.909 Y113.562 E.00776
G1 X144.852 Y109.08 E.78256
G1 X137.138 Y107.247 E.30191
G1 X135.214 Y106.888 E.07451
G1 X133.312 Y106.678 E.07285
G1 X131.435 Y106.609 E.07154
G1 X114.785 Y106.697 E.63402
G1 X71.475 Y106.649 E1.64912
G1 X78.945 Y93.508 E.57555
G1 X79.008 Y93.474 E.00272
G1 X79.14 Y93.306 E.00812
G1 X79.261 Y93.297 E.00462
G1 X79.412 Y93.237 E.0062
G1 X125.88 Y93.238 E1.76939
M204 S1000
G1 E-2.4 F1200
;WIPE_START
G1 F8640
G1 X137.4 Y93.239 E-1.52
;WIPE_END
G1 E-.08 F1200
G1 Z.525 F10800
G1 X82.303 Y92.871
G1 Z.25
G1 E4 F1800
M204 S800
G1 F720
G1 X172.3 Y92.873 E3.42685
G1 X172.446 Y93.081 E.00966
G1 X172.622 Y93.234 E.00888
G1 X172.623 Y93.324 E.00341
G1 X165.53 Y113.621 E.8187
G1 X165.248 Y113.741 E.01164
G1 X165.059 Y113.924 E.01002
G1 X164.983 Y113.954 E.00313
G1 X144.769 Y109.437 E.78866
G1 X137.053 Y107.603 E.30201
G1 X135.214 Y107.258 E.07126
G1 X133.339 Y107.047 E.07181
G1 X131.435 Y106.976 E.07257
G1 X114.785 Y107.063 E.63399
G1 X71.261 Y107.015 E1.65731
G1 X70.988 Y106.932 E.01087
G1 X71.03 Y106.69 E.00934
G1 X78.667 Y93.256 E.5884
G1 X78.756 Y93.208 E.00388
G1 X78.927 Y92.941 E.01206
G1 X79.19 Y92.938 E.00998
G1 X79.33 Y92.871 E.00594
G1 X82.243 Y92.871 E.11092
M204 S1000
G1 E-2.4 F1200
;WIPE_START
G1 F8640
G1 X93.763 Y92.871 E-1.52
;WIPE_END
G1 E-.08 F1200
G1 Z.525 F10800
G1 X122.056 Y92.505
G1 Z.25
G1 E4 F1800
M204 S800
;TYPE:External perimeter
G1 F720
G1 X172.41 Y92.508 E1.91734
G1 X172.47 Y92.552 E.00285
G1 X172.627 Y92.57 E.00601
G1 X172.708 Y92.809 E.00961
G1 X173.029 Y93.075 E.01587
G1 X172.989 Y93.195 E.00483
G1 X173.003 Y93.344 E.00567
G1 X172.953 Y93.49 E.00589
G1 X166.013 Y113.348 E.801
G1 X165.768 Y114.003 E.02662
M73 P1 R206
G1 X165.436 Y114.055 E.01279
G1 X165.196 Y114.35 E.01446
G1 X164.92 Y114.315 E.01059
G1 X144.687 Y109.794 E.78943
G1 X136.968 Y107.96 E.3021
G1 X135.146 Y107.618 E.07059
G1 X133.299 Y107.411 E.07078
G1 X131.435 Y107.342 E.07102
G1 X114.786 Y107.43 E.63396
G1 X71.155 Y107.381 E1.66136
G1 X70.574 Y107.173 E.02351
G1 X70.68 Y106.564 E.02351
G1 X78.381 Y93.017 E.59338
G1 X78.505 Y92.942 E.00549
G1 X78.725 Y92.593 E.01571
G1 X79.074 Y92.582 E.01333
G1 X79.236 Y92.504 E.00681
G1 X121.996 Y92.505 E1.62823
M204 S1000
G1 X122.256 Y92.852 F10800
G1 E-2.4 F1200
;WIPE_START
G1 F8640
G1 X133.516 Y92.506 E-1.52
;WIPE_END
G1 E-.08 F1200
G1 Z.525 F10800
G1 X122.125 Y94.978
G1 Z.25
G1 E4 F1800
M204 S800
;TYPE:Solid infill
;WIDTH:0.42
G1 F720
G1 X121.883 Y95.221 E.01304
G1 X121.64 Y94.978 E.01304
M204 S1000
G1 X122.159 Y94.978 F10800
M204 S800
G1 F720
G1 X122.401 Y95.221 E.01304
G1 X121.883 Y95.739 E.0279
G1 X121.624 Y95.48 E.01395
G1 X121.365 Y95.739 E.01395
G1 X121.883 Y96.257 E.0279
G1 X122.142 Y95.998 E.01395
G1 X122.401 Y96.257 E.01395
G1 X122.142 Y96.516 E.01395
G1 X122.66 Y97.034 E.0279
G1 X122.919 Y96.775 E.01395
G1 X122.66 Y96.516 E.01395
G1 X122.919 Y96.257 E.01395
G1 X123.178 Y96.516 E.01395
G1 X123.437 Y96.257 E.01395
G1 X122.919 Y95.739 E.0279
G1 X122.66 Y95.998 E.01395
G1 X122.401 Y95.739 E.01395
G1 X123.161 Y94.978 E.04094
M204 S1000
G1 X123.195 Y94.978 F10800
M204 S800
G1 F720
G1 X123.437 Y95.221 E.01304
G1 X123.178 Y95.48 E.01395
G1 X123.696 Y95.998 E.0279
G1 X123.955 Y95.739 E.01395
G1 X123.696 Y95.48 E.01395
G1 X123.955 Y95.221 E.01395
G1 X124.214 Y95.48 E.01395
G1 X124.473 Y95.221 E.01395
G1 X124.231 Y94.978 E.01304
M204 S1000
G1 X124.749 Y94.978 F10800
M204 S800
G1 F720
G1 X124.991 Y95.221 E.01304
G1 X125.233 Y94.978 E.01303
M204 S1000
G1 X125.267 Y94.978 F10800
M204 S800
G1 F720
G1 X125.509 Y95.221 E.01303
G1 X125.25 Y95.48 E.01395
G1 X125.768 Y95.998 E.0279
G1 X126.027 Y95.739 E.01395
G1 X125.768 Y95.48 E.01395
G1 X126.027 Y95.221 E.01395
G1 X126.286 Y95.48 E.01395
G1 X126.546 Y95.221 E.01395
G1 X126.303 Y94.978 E.01303
M204 S1000
G1 X126.822 Y94.978 F10800
M204 S800
G1 F720
G1 X127.323 Y95.48 E.02698
G1 X127.582 Y95.221 E.01395
G1 X127.34 Y94.979 E.01303
M204 S1000
G1 X127.858 Y94.979 F10800
M204 S800
G1 F720
G1 X128.1 Y95.221 E.01303
G1 X128.342 Y94.979 E.01303
M204 S1000
G1 X128.376 Y94.979 F10800
M204 S800
G1 F720
G1 X128.618 Y95.221 E.01303
G1 X128.1 Y95.739 E.0279
G1 X127.841 Y95.48 E.01395
G1 X127.582 Y95.739 E.01395
G1 X127.841 Y95.998 E.01395
G1 X127.323 Y96.516 E.0279
G1 X127.064 Y96.257 E.01395
G1 X127.323 Y95.998 E.01395
G1 X126.805 Y95.48 E.0279
G1 X126.546 Y95.739 E.01395
G1 X126.805 Y95.998 E.01395
G1 X126.546 Y96.257 E.01395
G1 X126.286 Y95.998 E.01395
G1 X126.027 Y96.257 E.01395
G1 X126.546 Y96.775 E.0279
G1 X126.805 Y96.516 E.01395
G1 X127.064 Y96.775 E.01395
G1 X126.546 Y97.293 E.0279
G1 X126.286 Y97.034 E.01395
G1 X126.027 Y97.293 E.01395
G1 X126.286 Y97.552 E.01395
G1 X125.768 Y98.07 E.0279
G1 X125.509 Y97.811 E.01395
G1 X125.768 Y97.552 E.01395
G1 X125.509 Y97.293 E.01395
G1 X125.25 Y97.552 E.01395
G1 X124.991 Y97.293 E.01395
G1 X125.509 Y96.775 E.0279
G1 X125.768 Y97.034 E.01395
G1 X126.027 Y96.775 E.01395
G1 X125.509 Y96.257 E.0279
G1 X125.25 Y96.516 E.01395
G1 X124.991 Y96.257 E.01395
G1 X125.25 Y95.998 E.01395
G1 X124.732 Y95.48 E.0279
G1 X124.473 Y95.739 E.01395
G1 X124.732 Y95.998 E.01395
G1 X124.473 Y96.257 E.01395
G1 X124.214 Y95.998 E.01395
G1 X123.955 Y96.257 E.01395
G1 X124.473 Y96.775 E.0279
G1 X124.732 Y96.516 E.01395
G1 X124.991 Y96.775 E.01395
G1 X124.214 Y97.552 E.04185
G1 X123.955 Y97.293 E.01395
G1 X124.214 Y97.034 E.01395
G1 X123.696 Y96.516 E.0279
G1 X123.437 Y96.775 E.01395
G1 X123.696 Y97.034 E.01395
G1 X123.437 Y97.293 E.01395
G1 X123.178 Y97.034 E.01395
G1 X122.919 Y97.293 E.01395
G1 X123.437 Y97.811 E.0279
G1 X123.696 Y97.552 E.01395
G1 X123.955 Y97.811 E.01395
G1 X123.696 Y98.07 E.01395
G1 X124.214 Y98.588 E.0279
G1 X124.473 Y98.329 E.01395
G1 X124.214 Y98.07 E.01395
G1 X124.732 Y97.552 E.0279
G1 X124.991 Y97.811 E.01395
G1 X124.732 Y98.07 E.01395
G1 X124.991 Y98.329 E.01395
G1 X125.25 Y98.07 E.01395
G1 X125.509 Y98.329 E.01395
G1 X124.991 Y98.847 E.0279
G1 X124.732 Y98.588 E.01395
G1 X124.473 Y98.847 E.01395
G1 X124.991 Y99.365 E.0279
G1 X125.25 Y99.106 E.01395
G1 X125.509 Y99.365 E.01395
G1 X125.25 Y99.624 E.01395
G1 X125.768 Y100.142 E.0279
G1 X126.027 Y99.883 E.01395
G1 X125.768 Y99.624 E.01395
G1 X126.027 Y99.365 E.01395
G1 X126.286 Y99.624 E.01395
G1 X126.546 Y99.365 E.01395
G1 X126.027 Y98.847 E.0279
G1 X125.768 Y99.106 E.01395
G1 X125.509 Y98.847 E.01395
G1 X126.027 Y98.329 E.0279
G1 X126.286 Y98.588 E.01395
G1 X126.546 Y98.329 E.01395
G1 X126.286 Y98.07 E.01395
G1 X126.805 Y97.552 E.0279
G1 X127.064 Y97.811 E.01395
G1 X126.805 Y98.07 E.01395
G1 X127.064 Y98.329 E.01395
G1 X127.323 Y98.07 E.01395
G1 X127.582 Y98.329 E.01395
G1 X127.064 Y98.847 E.0279
G1 X126.805 Y98.588 E.01395
G1 X126.546 Y98.847 E.01395
G1 X127.323 Y99.624 E.04185
G1 X127.582 Y99.365 E.01395
G1 X127.323 Y99.106 E.01395
G1 X127.841 Y98.588 E.0279
G1 X128.1 Y98.847 E.01395
M73 P2 R206
G1 X127.841 Y99.106 E.01395
G1 X128.1 Y99.365 E.01395
G1 X128.359 Y99.106 E.01395
G1 X128.618 Y99.365 E.01395
G1 X128.1 Y99.883 E.0279
G1 X127.841 Y99.624 E.01395
G1 X127.582 Y99.883 E.01395
G1 X127.841 Y100.142 E.01395
G1 X127.323 Y100.661 E.0279
G1 X127.064 Y100.401 E.01395
G1 X127.323 Y100.142 E.01395
G1 X126.805 Y99.624 E.0279
G1 X126.546 Y99.883 E.01395
G1 X126.805 Y100.142 E.01395
G1 X126.546 Y100.401 E.01395
